; GCode generated by RepRap Java Host Software
; Created: 2010-03-04:13-11-28
G21 ;metric is good!
G90 ;absolute positioning
T0; select new extruder
M108 S0.6; set extruder PWM
G92 E0 ;zero the extruded length
G28; go home
G1 F600.0; feed for start of next move
G1 X0.3 Y0.3 F1200.0 ;horizontal move
G1 X4.7 Y4.7 ;horizontal move
G1 X5.0 Y5.0 F600.0 ;horizontal move
M109 S165.0 ;set temperature and wait
G1 F1200.0; feed for start of next move
G1 E200.0; extruder dwell
G1 F600.0; feed for start of next move
G28; go home
G92 E0 ;zero the extruded length
;#!LAYER: 1/8
M107 ;cooler off
G4 P20 ;delay
G1 F40.0; feed for start of next move
G1 Z-0.5 F67.8 ;z move
G1 Z0.0 F40.0 ;z move
G1 F600.0; feed for start of next move
G1 X0.3 Y0.4 F1200.0 ;horizontal move
G1 X31.7 Y39.6 ;horizontal move
G1 X32.0 Y40.0 F600.0 ;horizontal move
G4 P100 ;delay
G1 F1200.0; feed for start of next move
G1 E10.0; extruder dwell
G1 F600.0; feed for start of next move
G1 X30.0 Y49.9 E20.1 F480.0 ;horizontal move
G1 Y50.0 E20.2 F305.8 ;horizontal move
G1 Y49.9 E20.3 F480.0 ;horizontal move
G1 Y38.0 E32.2 ;horizontal move
G1 X52.0 E54.2 F600.0 ;horizontal move
G1 F1200.0; feed for start of next move
G1 E41.7; extruder retraction
G1 F600.0; feed for start of next move
G1 X52.2 Y38.4 F1200.0 ;horizontal move
G1 X67.1 Y75.3 ;horizontal move
G1 X67.3 Y75.7 F600.0 ;horizontal move
G4 P100 ;delay
G1 F1200.0; feed for start of next move
G1 E51.7; extruder dwell
G1 F600.0; feed for start of next move
G1 X67.6 Y75.9 E52.1 F1080.0 ;horizontal move
G1 X89.4 Y97.8 E83.0 ;horizontal move
G1 X89.6 Y98.0 E83.2 F787.4 ;horizontal move
G1 X89.5 Y98.2 E83.5 F1080.0 ;horizontal move
G1 X89.2 Y99.0 E84.3 ;horizontal move
G1 X89.0 Y99.4 E84.8 F323.8 ;horizontal move
G1 X89.3 Y99.1 E85.2 F1080.0 ;horizontal move
G1 X91.4 Y97.0 E88.2 ;horizontal move
G1 X93.5 Y94.4 E91.5 ;horizontal move
G1 X95.3 Y91.6 E94.8 ;horizontal move
G1 X96.9 Y88.6 E98.2 ;horizontal move
G1 X98.1 Y85.4 E101.7 ;horizontal move
G1 X98.9 Y82.2 E105.0 ;horizontal move
G1 X99.5 Y78.9 E108.3 ;horizontal move
G1 X99.6 Y75.5 E111.7 ;horizontal move
G1 X99.5 Y72.1 E115.1 ;horizontal move
G1 X98.9 Y68.8 E118.5 ;horizontal move
G1 X98.1 Y65.6 E121.8 ;horizontal move
G1 X96.9 Y62.4 E125.2 ;horizontal move
G1 X95.3 Y59.4 E128.6 ;horizontal move
G1 X93.5 Y56.6 E131.9 ;horizontal move
G1 X91.4 Y54.0 E135.2 ;horizontal move
G1 X89.0 Y51.6 E138.6 ;horizontal move
G1 X86.4 Y49.5 E142.0 ;horizontal move
G1 X83.6 Y47.7 E145.3 ;horizontal move
G1 X80.6 Y46.1 E148.7 ;horizontal move
G1 X77.4 Y44.9 E152.1 ;horizontal move
G1 X74.2 Y44.1 E155.4 ;horizontal move
G1 X70.9 Y43.5 E158.8 ;horizontal move
G1 X67.5 Y43.4 E162.2 ;horizontal move
G1 X64.1 Y43.5 E165.6 ;horizontal move
G1 X60.8 Y44.1 E168.9 ;horizontal move
G1 X57.6 Y44.9 E172.2 ;horizontal move
G1 X54.4 Y46.1 E175.7 ;horizontal move
G1 X51.4 Y47.7 E179.1 ;horizontal move
G1 X48.6 Y49.5 E182.4 ;horizontal move
G1 X46.0 Y51.6 E185.7 ;horizontal move
G1 X43.6 Y54.0 E189.1 ;horizontal move
G1 X41.5 Y56.6 E192.5 ;horizontal move
G1 X39.7 Y59.4 E195.8 ;horizontal move
G1 X38.1 Y62.4 E199.2 ;horizontal move
G1 X36.9 Y65.6 E202.6 ;horizontal move
G1 X36.1 Y68.8 E205.9 ;horizontal move
G1 X35.5 Y72.1 E209.3 ;horizontal move
G1 X35.4 Y75.5 E212.7 ;horizontal move
G1 X35.5 Y78.9 E216.1 ;horizontal move
G1 X36.1 Y82.2 E219.4 ;horizontal move
G1 X36.9 Y85.4 E222.7 ;horizontal move
G1 X38.1 Y88.6 E226.1 ;horizontal move
G1 X39.7 Y91.6 E229.5 ;horizontal move
G1 X41.5 Y94.4 E232.9 ;horizontal move
G1 X43.6 Y97.0 E236.2 ;horizontal move
G1 X46.0 Y99.4 E239.6 ;horizontal move
G1 X48.6 Y101.5 E242.9 ;horizontal move
G1 X51.4 Y103.3 E246.3 ;horizontal move
G1 X54.4 Y104.9 E249.7 ;horizontal move
G1 X57.6 Y106.1 E253.1 ;horizontal move
G1 X60.8 Y106.9 E256.4 ;horizontal move
G1 X64.1 Y107.5 E259.7 ;horizontal move
G1 X67.5 Y107.6 E263.1 ;horizontal move
G1 X70.9 Y107.5 E266.5 ;horizontal move
G1 X74.2 Y106.9 E269.9 ;horizontal move
G1 X77.4 Y106.1 E273.2 ;horizontal move
G1 X80.6 Y104.9 E276.6 ;horizontal move
G1 X83.6 Y103.3 E280.0 ;horizontal move
G1 X86.4 Y101.5 E283.3 ;horizontal move
G1 X88.7 Y99.6 E286.3 ;horizontal move
G1 X89.0 Y99.4 E286.7 F581.4 ;horizontal move
G1 X88.8 Y99.1 E287.0 F1080.0 ;horizontal move
G1 X67.5 Y75.9 E318.5 ;horizontal move
G1 F1200.0; feed for start of next move
G1 E306.0; extruder retraction
G1 F600.0; feed for start of next move
G1 X67.3 Y75.7 F1200.0 ;horizontal move
G4 P100 ;delay
G1 E316.0; extruder dwell
G1 F600.0; feed for start of next move
G1 X45.0 Y53.4 E347.6 ;horizontal move
G1 X46.2 Y52.2 E349.3 ;horizontal move
G1 X90.8 Y96.8 E412.4 ;horizontal move
G1 X90.9 Y96.6 E412.6 F480.7 ;horizontal move
G1 X91.9 Y95.4 E414.1 F587.3 ;horizontal move
G1 X47.6 Y51.1 E476.8 F568.2 ;horizontal move
G1 X48.9 Y50.0 E478.5 F587.3 ;horizontal move
G1 X93.0 Y94.1 E540.9 F568.2 ;horizontal move
G1 Y94.0 E541.0 F480.6 ;horizontal move
G1 X93.9 Y92.7 E542.5 F575.3 ;horizontal move
G1 X50.3 Y49.1 E604.2 F538.3 ;horizontal move
G1 X51.7 Y48.2 E605.9 F480.7 ;horizontal move
G1 X51.8 Y48.1 E606.0 F562.8 ;horizontal move
G1 X94.9 Y91.2 E667.0 F507.0 ;horizontal move
G1 X95.7 Y89.6 E668.7 F562.8 ;horizontal move
G1 X53.4 Y47.3 E728.6 F507.0 ;horizontal move
G1 X54.7 Y46.7 E730.0 F480.6 ;horizontal move
G1 X55.0 Y46.5 E730.4 F551.2 ;horizontal move
G1 X96.5 Y88.0 E789.0 F480.0 ;horizontal move
G1 X97.1 Y86.3 E790.8 ;horizontal move
G1 X56.7 Y45.9 E848.0 ;horizontal move
G1 X57.8 Y45.5 E849.2 ;horizontal move
G1 X58.5 Y45.3 E849.9 F540.0 ;horizontal move
G1 X97.7 Y84.4 E905.2 F480.0 ;horizontal move
G1 Y84.5 E905.3 F450.1 ;horizontal move
G1 Y84.4 E905.4 F480.0 ;horizontal move
G1 X98.2 Y82.6 E907.3 ;horizontal move
G1 X60.5 Y44.8 E960.7 ;horizontal move
G1 X60.4 E960.8 F450.1 ;horizontal move
G1 X60.5 E960.9 F480.0 ;horizontal move
G1 X60.9 Y44.6 E961.4 ;horizontal move
G1 X62.5 Y44.4 E963.0 F529.4 ;horizontal move
G1 X98.6 Y80.5 E1014.0 F480.0 ;horizontal move
G1 X98.9 Y78.8 E1015.7 ;horizontal move
G1 Y78.4 E1016.1 F519.8 ;horizontal move
G1 X64.6 Y44.1 E1064.7 F480.0 ;horizontal move
G1 X66.9 Y44.0 E1067.0 ;horizontal move
G1 X99.0 Y76.1 E1112.3 ;horizontal move
G1 Y75.5 E1112.9 ;horizontal move
G1 Y73.7 E1114.7 F510.8 ;horizontal move
G1 X69.4 Y44.1 E1156.6 F480.0 ;horizontal move
G1 X69.3 Y44.0 E1156.8 F376.9 ;horizontal move
G1 X69.4 Y44.1 E1156.9 F480.0 ;horizontal move
G1 X70.8 E1158.3 ;horizontal move
G1 X72.0 Y44.3 E1159.5 F503.0 ;horizontal move
G1 X98.7 Y71.0 E1197.3 F480.0 ;horizontal move
G1 X98.4 Y68.9 E1199.4 ;horizontal move
G1 X98.1 Y68.0 E1200.3 F496.1 ;horizontal move
G1 X75.0 Y44.9 E1233.0 F480.0 ;horizontal move
G1 X77.2 Y45.5 E1235.3 ;horizontal move
G1 X78.5 Y46.0 E1236.7 F490.4 ;horizontal move
G1 X97.0 Y64.5 E1262.8 F480.0 ;horizontal move
G1 X96.3 Y62.7 E1264.8 ;horizontal move
G1 X95.0 Y60.1 E1267.7 F485.9 ;horizontal move
G1 X82.9 Y48.0 E1284.8 F600.0 ;horizontal move
G1 F1200.0; feed for start of next move
G1 E1272.3; extruder retraction
G1 F600.0; feed for start of next move
G1 X83.0 Y48.4 F1200.0 ;horizontal move
G1 X89.5 Y97.6 ;horizontal move
G1 X89.6 Y98.0 F600.0 ;horizontal move
G4 P100 ;delay
G1 F1200.0; feed for start of next move
G1 E1282.3; extruder dwell
G1 F600.0; feed for start of next move
G1 X88.6 Y98.9 E1283.6 F480.7 ;horizontal move
G1 X88.4 Y99.1 E1283.9 F587.3 ;horizontal move
G1 X43.9 Y54.6 E1346.9 F568.2 ;horizontal move
G1 X42.8 Y56.0 E1348.6 F587.3 ;horizontal move
G1 X87.0 Y100.2 E1411.1 F568.2 ;horizontal move
G1 X86.0 Y101.0 E1412.4 F480.6 ;horizontal move
G1 X85.7 Y101.3 E1412.8 F575.3 ;horizontal move
G1 X41.7 Y57.3 E1475.1 F538.3 ;horizontal move
G1 X40.8 Y58.8 E1476.8 F575.3 ;horizontal move
G1 X84.2 Y102.2 E1538.2 F538.3 ;horizontal move
G1 X83.3 Y102.8 E1539.3 F480.7 ;horizontal move
G1 X82.7 Y103.1 E1540.0 F562.8 ;horizontal move
G1 X39.9 Y60.3 E1600.5 F507.0 ;horizontal move
G1 X39.1 Y61.9 E1602.3 F562.8 ;horizontal move
G1 X81.1 Y103.9 E1661.7 F507.0 ;horizontal move
G1 X80.3 Y104.3 E1662.6 F480.6 ;horizontal move
G1 X79.5 Y104.7 E1663.5 F551.2 ;horizontal move
G1 X38.3 Y63.5 E1721.7 F480.0 ;horizontal move
G1 X37.7 Y65.3 E1723.6 ;horizontal move
G1 X77.7 Y105.3 E1780.2 ;horizontal move
G1 X77.2 Y105.5 E1780.7 ;horizontal move
G1 X75.9 Y105.9 E1782.1 F540.0 ;horizontal move
G1 X37.1 Y67.1 E1837.0 F480.0 ;horizontal move
G1 X36.6 Y68.9 E1838.8 ;horizontal move
G1 Y69.0 E1838.9 F529.4 ;horizontal move
G1 X73.9 Y106.4 E1891.7 F480.0 ;horizontal move
G1 X74.0 E1891.8 F423.5 ;horizontal move
G1 X73.9 E1891.9 F480.0 ;horizontal move
G1 X71.9 Y106.7 E1894.0 ;horizontal move
G1 X36.3 Y71.1 E1944.3 ;horizontal move
G1 X36.1 Y72.2 E1945.4 ;horizontal move
G1 Y73.3 E1946.5 F519.8 ;horizontal move
G1 X69.7 Y106.9 E1994.0 F480.0 ;horizontal move
G1 X67.5 Y107.0 E1996.3 ;horizontal move
G1 X67.4 E1996.4 F510.8 ;horizontal move
G1 X36.0 Y75.6 E2040.8 F480.0 ;horizontal move
G1 X36.1 Y78.1 E2043.3 ;horizontal move
G1 X64.9 Y106.9 E2084.0 ;horizontal move
G1 X64.8 E2084.1 ;horizontal move
G1 X64.2 E2084.7 ;horizontal move
G1 X62.1 Y106.5 E2086.8 F503.0 ;horizontal move
G1 X36.5 Y80.9 E2123.0 F480.0 ;horizontal move
G1 X36.6 Y82.1 E2124.2 ;horizontal move
G1 X37.2 Y84.0 E2126.2 F496.1 ;horizontal move
G1 X59.0 Y105.8 E2157.1 F480.0 ;horizontal move
G1 X57.8 Y105.5 E2158.3 ;horizontal move
G1 X55.3 Y104.6 E2161.0 F490.4 ;horizontal move
G1 X38.5 Y87.7 E2184.8 F480.0 ;horizontal move
G1 X38.4 E2184.9 F326.0 ;horizontal move
G1 X38.7 Y88.3 E2185.6 F480.0 ;horizontal move
G1 X40.2 Y91.3 E2188.9 F480.7 ;horizontal move
G1 X41.2 Y92.9 E2190.8 F482.6 ;horizontal move
G1 X50.1 Y101.8 E2203.4 F600.0 ;horizontal move
G1 F1200.0; feed for start of next move
G1 E2190.9; extruder retraction
G1 F600.0; feed for start of next move
M106 ;cooler on
G1 X49.7 F1200.0 ;horizontal move
G1 X-249.6 ;horizontal move
G1 X-250.0 F600.0 ;horizontal move
G92 X0 ;set x 0
G1 Y101.4 F1200.0 ;horizontal move
G1 Y-249.5 ;horizontal move
G1 Y-250.0 F600.0 ;horizontal move
G92 Y0 ;set y 0
G92 E0 ;zero the extruded length
;#!LAYER: 2/8
M107 ;cooler off
G4 P20 ;delay
G1 F40.0; feed for start of next move
G1 Z0.5 F67.8 ;z move
G1 Z1.0 F40.0 ;z move
G1 F600.0; feed for start of next move
G1 X0.3 Y0.4 F1200.0 ;horizontal move
G1 X31.7 Y39.6 ;horizontal move
G1 X32.0 Y40.0 F600.0 ;horizontal move
G4 P100 ;delay
G1 F1200.0; feed for start of next move
G1 E6.7; extruder dwell
G1 F600.0; feed for start of next move
G1 X30.0 Y49.9 E16.8 F480.0 ;horizontal move
G1 Y50.0 E16.9 F305.8 ;horizontal move
G1 Y49.9 E17.0 F480.0 ;horizontal move
G1 Y38.0 E28.9 ;horizontal move
G1 X52.0 E50.9 F600.0 ;horizontal move
G1 F1200.0; feed for start of next move
G1 E42.5; extruder retraction
G1 F600.0; feed for start of next move
G1 X52.2 Y38.4 F1200.0 ;horizontal move
G1 X66.5 Y74.3 ;horizontal move
G1 X66.7 Y74.7 F600.0 ;horizontal move
G4 P100 ;delay
G1 F1200.0; feed for start of next move
G1 E49.2; extruder dwell
G1 F600.0; feed for start of next move
G1 X66.5 Y74.9 E49.5 F1080.0 ;horizontal move
G1 X44.9 Y96.6 E80.1 ;horizontal move
G1 X44.8 E80.2 F957.3 ;horizontal move
G1 X44.7 E80.3 F1080.0 ;horizontal move
G1 X44.4 Y96.7 E80.6 ;horizontal move
G1 X44.0 E81.0 F399.7 ;horizontal move
G1 X44.3 Y97.0 E81.4 F1080.0 ;horizontal move
G1 X46.3 Y99.0 E84.3 ;horizontal move
G1 X48.9 Y101.1 E87.6 ;horizontal move
G1 X51.7 Y102.9 E90.9 ;horizontal move
G1 X54.6 Y104.4 E94.2 ;horizontal move
G1 X57.7 Y105.6 E97.5 ;horizontal move
G1 X60.9 Y106.5 E100.9 ;horizontal move
G1 X64.2 Y107.0 E104.2 ;horizontal move
G1 X67.5 Y107.1 E107.5 ;horizontal move
G1 X70.8 Y107.0 E110.8 ;horizontal move
G1 X74.1 Y106.5 E114.1 ;horizontal move
G1 X77.3 Y105.6 E117.5 ;horizontal move
G1 X80.4 Y104.4 E120.8 ;horizontal move
G1 X83.3 Y102.9 E124.0 ;horizontal move
G1 X86.1 Y101.1 E127.4 ;horizontal move
G1 X88.7 Y99.0 E130.7 ;horizontal move
G1 X91.0 Y96.7 E134.0 ;horizontal move
G1 X93.1 Y94.1 E137.3 ;horizontal move
G1 X94.9 Y91.3 E140.6 ;horizontal move
G1 X96.4 Y88.4 E143.9 ;horizontal move
G1 X97.6 Y85.3 E147.2 ;horizontal move
G1 X98.5 Y82.1 E150.6 ;horizontal move
G1 X99.0 Y78.8 E153.9 ;horizontal move
G1 X99.1 Y75.5 E157.2 ;horizontal move
G1 X99.0 Y72.2 E160.5 ;horizontal move
G1 X98.5 Y68.9 E163.8 ;horizontal move
G1 X97.6 Y65.7 E167.2 ;horizontal move
G1 X96.4 Y62.6 E170.5 ;horizontal move
G1 X94.9 Y59.7 E173.7 ;horizontal move
G1 X93.1 Y56.9 E177.1 ;horizontal move
G1 X91.0 Y54.3 E180.4 ;horizontal move
G1 X88.7 Y52.0 E183.7 ;horizontal move
G1 X86.1 Y49.9 E187.0 ;horizontal move
G1 X83.3 Y48.1 E190.3 ;horizontal move
G1 X80.4 Y46.6 E193.6 ;horizontal move
G1 X77.3 Y45.4 E196.9 ;horizontal move
G1 X74.1 Y44.5 E200.3 ;horizontal move
G1 X70.8 Y44.0 E203.6 ;horizontal move
G1 X67.5 Y43.9 E206.9 ;horizontal move
G1 X64.2 Y44.0 E210.2 ;horizontal move
G1 X60.9 Y44.5 E213.5 ;horizontal move
G1 X57.7 Y45.4 E216.9 ;horizontal move
G1 X54.6 Y46.6 E220.2 ;horizontal move
G1 X51.7 Y48.1 E223.4 ;horizontal move
G1 X48.9 Y49.9 E226.8 ;horizontal move
G1 X46.3 Y52.0 E230.1 ;horizontal move
G1 X44.0 Y54.3 E233.4 ;horizontal move
G1 X41.9 Y56.9 E236.7 ;horizontal move
G1 X40.1 Y59.7 E240.0 ;horizontal move
G1 X38.6 Y62.6 E243.3 ;horizontal move
G1 X37.4 Y65.7 E246.6 ;horizontal move
G1 X36.5 Y68.9 E250.0 ;horizontal move
G1 X36.0 Y72.2 E253.3 ;horizontal move
G1 X35.9 Y75.5 E256.6 ;horizontal move
G1 X36.0 Y78.8 E259.9 ;horizontal move
G1 X36.5 Y82.1 E263.2 ;horizontal move
G1 X37.4 Y85.3 E266.6 ;horizontal move
G1 X38.6 Y88.4 E269.9 ;horizontal move
G1 X40.1 Y91.3 E273.1 ;horizontal move
G1 X41.9 Y94.1 E276.5 ;horizontal move
G1 X43.8 Y96.4 E279.5 ;horizontal move
G1 X44.0 Y96.7 E279.8 F574.0 ;horizontal move
G1 X44.2 Y96.4 E280.2 F1080.0 ;horizontal move
G1 X66.5 Y74.9 E311.2 ;horizontal move
G1 F1200.0; feed for start of next move
G1 E302.8; extruder retraction
G1 F600.0; feed for start of next move
G1 X66.7 Y74.7 F1200.0 ;horizontal move
G4 P100 ;delay
G1 E309.5; extruder dwell
G1 F600.0; feed for start of next move
G1 X88.6 Y52.8 E340.5 ;horizontal move
G1 X89.8 Y54.0 E342.2 ;horizontal move
G1 X46.0 Y97.8 E404.1 ;horizontal move
G1 X46.7 Y98.6 E405.2 F480.6 ;horizontal move
G1 X47.2 Y99.0 E405.8 F587.6 ;horizontal move
G1 X91.0 Y55.2 E467.7 F569.0 ;horizontal move
G1 X92.1 Y56.6 E469.5 F587.6 ;horizontal move
G1 X48.6 Y100.1 E531.0 F569.0 ;horizontal move
G1 X49.2 Y100.6 E531.8 F480.7 ;horizontal move
G1 X50.0 Y101.1 E532.8 F574.9 ;horizontal move
G1 X93.1 Y58.0 E593.7 F537.3 ;horizontal move
G1 X94.0 Y59.4 E595.4 F574.9 ;horizontal move
G1 X51.4 Y102.0 E655.6 F537.3 ;horizontal move
G1 X52.0 Y102.4 E656.3 F480.6 ;horizontal move
G1 X53.0 Y102.9 E657.5 F563.0 ;horizontal move
G1 X94.9 Y61.0 E716.7 F507.4 ;horizontal move
G1 X95.7 Y62.5 E718.4 F563.0 ;horizontal move
G1 X54.5 Y103.7 E776.7 F507.4 ;horizontal move
G1 X54.9 Y103.9 E777.1 F480.7 ;horizontal move
G1 X56.3 Y104.4 E778.6 F551.1 ;horizontal move
G1 X96.4 Y64.3 E835.3 F480.0 ;horizontal move
G1 X97.0 Y65.9 E837.0 ;horizontal move
G1 X97.1 Y66.0 E837.2 F540.1 ;horizontal move
G1 X58.0 Y105.0 E892.4 F480.0 ;horizontal move
G1 Y105.1 E892.5 F450.1 ;horizontal move
G1 X59.9 Y105.6 E894.5 F480.0 ;horizontal move
G1 X97.6 Y67.9 E947.8 ;horizontal move
G1 X97.9 Y69.0 E948.9 ;horizontal move
G1 X98.0 Y69.9 E949.8 F529.3 ;horizontal move
G1 X61.9 Y106.0 E1000.9 F480.0 ;horizontal move
G1 X63.9 Y106.3 E1002.9 ;horizontal move
G1 X98.3 Y72.0 E1051.5 ;horizontal move
G1 Y71.9 E1051.6 F423.4 ;horizontal move
G1 Y72.0 E1051.7 F480.0 ;horizontal move
G1 X98.4 Y72.3 E1052.0 ;horizontal move
G1 X98.5 Y74.2 E1053.9 F519.8 ;horizontal move
G1 X66.2 Y106.5 E1099.6 F480.0 ;horizontal move
G1 X67.5 E1100.9 ;horizontal move
G1 X68.6 E1102.0 F510.7 ;horizontal move
G1 X98.5 Y76.6 E1144.3 F480.0 ;horizontal move
G1 X98.4 Y78.7 E1146.4 ;horizontal move
G1 X98.3 Y79.2 E1146.9 F503.0 ;horizontal move
G1 X71.2 Y106.3 E1185.2 F480.0 ;horizontal move
G1 X74.0 Y105.9 E1188.0 ;horizontal move
G1 Y105.8 E1188.1 F496.0 ;horizontal move
G1 X97.8 Y82.1 E1221.7 F480.0 ;horizontal move
G1 Y82.0 E1221.8 F340.1 ;horizontal move
G1 Y82.1 E1221.9 F480.0 ;horizontal move
G1 X97.0 Y85.1 E1225.0 ;horizontal move
G1 X96.9 Y85.4 E1225.3 F490.4 ;horizontal move
G1 X77.4 Y104.9 E1252.9 F480.0 ;horizontal move
G1 X80.1 Y103.9 E1255.8 ;horizontal move
G1 X81.6 Y103.1 E1257.5 F485.9 ;horizontal move
G1 X95.1 Y89.6 E1276.6 F600.0 ;horizontal move
G1 F1200.0; feed for start of next move
G1 E1268.3; extruder retraction
G1 F600.0; feed for start of next move
G1 X94.7 Y89.7 F1200.0 ;horizontal move
G1 X45.2 Y96.5 ;horizontal move
G1 X44.8 Y96.6 F600.0 ;horizontal move
G4 P100 ;delay
G1 F1200.0; feed for start of next move
G1 E1274.9; extruder dwell
G1 F600.0; feed for start of next move
G1 X44.4 Y96.3 E1275.4 F480.6 ;horizontal move
G1 X43.7 Y95.3 E1276.6 F587.6 ;horizontal move
G1 X87.3 Y51.7 E1338.3 F569.0 ;horizontal move
G1 X86.0 Y50.6 E1340.0 F587.6 ;horizontal move
G1 X42.6 Y94.0 E1401.4 F569.0 ;horizontal move
G1 X42.4 Y93.8 E1401.7 F480.7 ;horizontal move
G1 X41.6 Y92.6 E1403.1 F574.9 ;horizontal move
G1 X84.6 Y49.6 E1463.9 F537.3 ;horizontal move
G1 X83.1 Y48.7 E1465.7 F574.9 ;horizontal move
G1 X40.7 Y91.1 E1525.6 F537.3 ;horizontal move
G1 X40.6 Y91.0 E1525.8 F480.6 ;horizontal move
G1 X39.9 Y89.5 E1527.4 F563.0 ;horizontal move
G1 X81.5 Y47.9 E1586.3 F507.4 ;horizontal move
G1 X80.1 Y47.1 E1587.9 F480.7 ;horizontal move
G1 X79.9 E1588.1 F551.1 ;horizontal move
G1 X39.1 Y87.9 E1645.8 F480.0 ;horizontal move
G1 X38.4 Y86.2 E1647.6 ;horizontal move
G1 X78.2 Y46.4 E1703.9 ;horizontal move
G1 X77.1 Y46.0 E1705.1 ;horizontal move
G1 X76.4 Y45.8 E1705.8 F540.1 ;horizontal move
G1 X37.8 Y84.4 E1760.4 F480.0 ;horizontal move
G1 X37.3 Y82.5 E1762.4 ;horizontal move
G1 X74.5 Y45.3 E1815.0 ;horizontal move
G1 X74.0 Y45.1 E1815.5 ;horizontal move
G1 X72.5 Y44.9 E1817.0 F529.3 ;horizontal move
G1 X36.9 Y80.5 E1867.4 F480.0 ;horizontal move
G1 X36.6 Y78.7 E1869.2 ;horizontal move
G1 Y78.4 E1869.5 F519.8 ;horizontal move
G1 X70.3 Y44.6 E1917.2 F480.0 ;horizontal move
G1 X70.4 E1917.3 F399.6 ;horizontal move
G1 X70.3 E1917.4 F480.0 ;horizontal move
G1 X68.1 Y44.5 E1919.6 ;horizontal move
G1 X36.5 Y76.1 E1964.3 ;horizontal move
G1 Y75.5 E1964.9 ;horizontal move
G1 X36.6 Y73.6 E1966.8 F510.7 ;horizontal move
G1 X65.6 Y44.6 E2007.8 F480.0 ;horizontal move
G1 X64.3 E2009.1 ;horizontal move
G1 X62.9 Y44.8 E2010.5 F503.0 ;horizontal move
G1 X36.9 Y70.9 E2047.4 F480.0 ;horizontal move
G1 X36.8 E2047.5 F357.5 ;horizontal move
G1 X37.1 Y69.0 E2049.4 F480.0 ;horizontal move
G1 X37.4 Y67.9 E2050.5 F496.0 ;horizontal move
G1 X59.9 Y45.5 E2082.3 F480.0 ;horizontal move
G1 Y45.4 E2082.4 F340.1 ;horizontal move
G1 X57.9 Y46.0 E2084.5 F480.0 ;horizontal move
G1 X56.4 Y46.6 E2086.1 F490.4 ;horizontal move
G1 X38.6 Y64.4 E2111.3 F480.0 ;horizontal move
G1 Y64.3 E2111.4 ;horizontal move
G1 X39.1 Y62.9 E2112.8 ;horizontal move
G1 X40.6 Y60.0 E2116.1 F480.6 ;horizontal move
G1 X40.7 Y59.9 E2116.3 F482.7 ;horizontal move
G1 X51.9 Y48.7 E2132.1 F600.0 ;horizontal move
G1 F1200.0; feed for start of next move
G1 E2123.8; extruder retraction
G1 F600.0; feed for start of next move
M106 ;cooler on
G1 X51.5 F1200.0 ;horizontal move
G1 X-249.5 ;horizontal move
G1 X-250.0 F600.0 ;horizontal move
G92 X0 ;set x 0
G1 Y48.3 F1200.0 ;horizontal move
G1 Y-249.5 ;horizontal move
G1 Y-250.0 F600.0 ;horizontal move
G92 Y0 ;set y 0
G92 E0 ;zero the extruded length
;#!LAYER: 3/8
M107 ;cooler off
G4 P20 ;delay
G1 F40.0; feed for start of next move
G1 Z1.5 F67.8 ;z move
G1 Z2.0 F40.0 ;z move
G1 F600.0; feed for start of next move
G1 X0.3 Y0.4 F1200.0 ;horizontal move
G1 X31.7 Y39.6 ;horizontal move
G1 X32.0 Y40.0 F600.0 ;horizontal move
G4 P100 ;delay
G1 F1200.0; feed for start of next move
G1 E6.7; extruder dwell
G1 F600.0; feed for start of next move
G1 X30.0 Y49.9 E16.8 F480.0 ;horizontal move
G1 Y50.0 E16.9 F305.8 ;horizontal move
G1 Y49.9 E17.0 F480.0 ;horizontal move
G1 Y38.0 E28.9 ;horizontal move
G1 X52.0 E50.9 F600.0 ;horizontal move
G1 F1200.0; feed for start of next move
G1 E42.5; extruder retraction
G1 F600.0; feed for start of next move
G1 X52.2 Y38.4 F1200.0 ;horizontal move
G1 X68.9 Y73.5 ;horizontal move
G1 X69.1 Y73.9 F600.0 ;horizontal move
G4 P100 ;delay
G1 F1200.0; feed for start of next move
G1 E49.2; extruder dwell
G1 F600.0; feed for start of next move
G1 X68.9 Y73.7 E49.5 F1080.0 ;horizontal move
G1 X48.0 Y52.8 E79.0 ;horizontal move
G1 X47.9 Y52.7 E79.2 F942.4 ;horizontal move
G1 X47.8 E79.3 F1080.0 ;horizontal move
G1 X47.1 E80.0 ;horizontal move
G1 X47.0 E80.1 F936.4 ;horizontal move
G1 X46.9 Y52.8 E80.2 F1080.0 ;horizontal move
G1 X44.7 Y55.0 E83.3 ;horizontal move
G1 X42.7 Y57.5 E86.5 ;horizontal move
G1 X41.0 Y60.2 E89.7 ;horizontal move
G1 X39.5 Y63.0 E92.9 ;horizontal move
G1 X38.4 Y66.0 E96.1 ;horizontal move
G1 X37.5 Y69.1 E99.3 ;horizontal move
G1 X37.0 Y72.3 E102.6 ;horizontal move
G1 X36.9 Y75.5 E105.8 ;horizontal move
G1 X37.0 Y78.7 E109.0 ;horizontal move
G1 X37.5 Y81.9 E112.2 ;horizontal move
G1 X38.4 Y85.0 E115.4 ;horizontal move
G1 X39.5 Y88.0 E118.6 ;horizontal move
G1 X41.0 Y90.8 E121.8 ;horizontal move
G1 X42.7 Y93.5 E125.0 ;horizontal move
G1 X44.7 Y96.0 E128.2 ;horizontal move
G1 X47.0 Y98.3 E131.5 ;horizontal move
G1 X49.5 Y100.3 E134.7 ;horizontal move
G1 X52.2 Y102.0 E137.8 ;horizontal move
G1 X55.0 Y103.5 E141.0 ;horizontal move
G1 X58.0 Y104.6 E144.2 ;horizontal move
G1 X61.1 Y105.5 E147.4 ;horizontal move
G1 X64.3 Y106.0 E150.7 ;horizontal move
G1 X67.5 Y106.1 E153.9 ;horizontal move
G1 X70.7 Y106.0 E157.1 ;horizontal move
G1 X73.9 Y105.5 E160.3 ;horizontal move
G1 X77.0 Y104.6 E163.6 ;horizontal move
G1 X80.0 Y103.5 E166.7 ;horizontal move
G1 X82.8 Y102.0 E169.9 ;horizontal move
G1 X85.5 Y100.3 E173.1 ;horizontal move
G1 X88.0 Y98.3 E176.3 ;horizontal move
G1 X90.3 Y96.0 E179.6 ;horizontal move
G1 X92.3 Y93.5 E182.8 ;horizontal move
G1 X94.0 Y90.8 E186.0 ;horizontal move
G1 X95.5 Y88.0 E189.1 ;horizontal move
G1 X96.6 Y85.0 E192.3 ;horizontal move
G1 X97.5 Y81.9 E195.6 ;horizontal move
G1 X98.0 Y78.7 E198.8 ;horizontal move
G1 X98.1 Y75.5 E202.0 ;horizontal move
G1 X98.0 Y72.3 E205.2 ;horizontal move
G1 X97.5 Y69.1 E208.4 ;horizontal move
G1 X96.6 Y66.0 E211.7 ;horizontal move
G1 X95.5 Y63.0 E214.9 ;horizontal move
G1 X94.0 Y60.2 E218.0 ;horizontal move
G1 X92.3 Y57.5 E221.2 ;horizontal move
G1 X90.3 Y55.0 E224.4 ;horizontal move
G1 X88.0 Y52.7 E227.7 ;horizontal move
G1 X85.5 Y50.7 E230.9 ;horizontal move
G1 X82.8 Y49.0 E234.1 ;horizontal move
G1 X80.0 Y47.5 E237.3 ;horizontal move
G1 X77.0 Y46.4 E240.5 ;horizontal move
G1 X73.9 Y45.5 E243.7 ;horizontal move
G1 X70.7 Y45.0 E246.9 ;horizontal move
G1 X67.5 Y44.9 E250.1 ;horizontal move
G1 X64.3 Y45.0 E253.3 ;horizontal move
G1 X61.1 Y45.5 E256.6 ;horizontal move
G1 X58.0 Y46.4 E259.8 ;horizontal move
G1 X55.0 Y47.5 E263.0 ;horizontal move
G1 X52.2 Y49.0 E266.2 ;horizontal move
G1 X49.5 Y50.7 E269.3 ;horizontal move
G1 X47.3 Y52.5 E272.2 ;horizontal move
G1 X47.0 Y52.7 E272.6 F562.2 ;horizontal move
G1 X47.3 Y53.0 E273.0 F1080.0 ;horizontal move
G1 X68.9 Y73.7 E302.9 ;horizontal move
G1 F1200.0; feed for start of next move
G1 E294.6; extruder retraction
G1 F600.0; feed for start of next move
G1 X69.1 Y73.9 F1200.0 ;horizontal move
G4 P100 ;delay
G1 E301.2; extruder dwell
G1 F600.0; feed for start of next move
G1 X90.3 Y95.1 E331.2 F587.4 ;horizontal move
G1 X89.8 Y95.6 E331.9 F480.7 ;horizontal move
G1 X89.1 Y96.3 E332.9 F600.0 ;horizontal move
G1 X46.7 Y53.9 E392.9 ;horizontal move
G1 X45.5 Y55.1 E394.6 ;horizontal move
G1 X87.9 Y97.5 E454.5 ;horizontal move
G1 X87.6 Y97.8 E455.0 F480.7 ;horizontal move
G1 X86.6 Y98.6 E456.2 F587.4 ;horizontal move
G1 X44.4 Y56.4 E515.9 F568.6 ;horizontal move
G1 X43.3 Y57.7 E517.6 F587.4 ;horizontal move
G1 X85.3 Y99.7 E577.0 F568.6 ;horizontal move
G1 X85.2 Y99.8 E577.2 F480.6 ;horizontal move
G1 X83.9 Y100.7 E578.7 F575.2 ;horizontal move
G1 X42.3 Y59.1 E637.6 F537.9 ;horizontal move
G1 X41.5 Y60.5 E639.2 F480.7 ;horizontal move
G1 X41.4 Y60.6 E639.3 F562.8 ;horizontal move
G1 X82.4 Y101.6 E697.3 F507.1 ;horizontal move
G1 X80.8 Y102.4 E699.1 F562.8 ;horizontal move
G1 X40.6 Y62.2 E755.9 F507.1 ;horizontal move
G1 X40.0 Y63.3 E757.2 F480.7 ;horizontal move
G1 X39.8 Y63.9 E757.8 F551.1 ;horizontal move
G1 X79.1 Y103.2 E813.4 F480.0 ;horizontal move
G1 X77.4 Y103.8 E815.2 ;horizontal move
G1 X39.2 Y65.6 E869.2 ;horizontal move
G1 X38.9 Y66.2 E869.9 ;horizontal move
G1 X38.6 Y67.4 E871.1 F540.0 ;horizontal move
G1 X75.6 Y104.4 E923.5 F480.0 ;horizontal move
G1 X73.8 Y104.9 E925.3 ;horizontal move
G1 X73.7 E925.4 F529.5 ;horizontal move
G1 X38.1 Y69.3 E975.8 F480.0 ;horizontal move
G1 Y69.4 E975.9 ;horizontal move
G1 X37.8 Y71.4 E977.9 ;horizontal move
G1 X71.6 Y105.2 E1025.7 ;horizontal move
G1 X70.6 Y105.4 E1026.7 ;horizontal move
G1 X69.4 E1027.9 F519.7 ;horizontal move
G1 X37.6 Y73.6 E1072.9 F480.0 ;horizontal move
G1 X37.5 E1073.0 ;horizontal move
G1 Y75.5 E1074.9 ;horizontal move
G1 Y75.9 E1075.3 F510.8 ;horizontal move
G1 X67.1 Y105.5 E1117.2 F480.0 ;horizontal move
G1 X67.0 E1117.3 ;horizontal move
G1 X64.5 Y105.4 E1119.8 ;horizontal move
G1 X37.6 Y78.5 E1157.8 ;horizontal move
G1 Y78.6 E1157.9 ;horizontal move
G1 X38.0 Y81.3 E1160.6 F502.9 ;horizontal move
G1 X61.7 Y104.9 E1194.1 F480.0 ;horizontal move
G1 Y105.0 E1194.2 F357.2 ;horizontal move
G1 X61.2 Y104.9 E1194.7 F480.0 ;horizontal move
G1 X58.5 Y104.1 E1197.5 F496.1 ;horizontal move
G1 X38.9 Y84.5 E1225.2 F480.0 ;horizontal move
G1 Y84.6 E1225.3 ;horizontal move
G1 Y84.8 E1225.5 ;horizontal move
G1 X40.0 Y87.7 E1228.6 F480.7 ;horizontal move
G1 X40.5 Y88.5 E1229.6 F485.9 ;horizontal move
G1 X54.5 Y102.5 E1249.4 F600.0 ;horizontal move
G1 F1200.0; feed for start of next move
G1 E1241.0; extruder retraction
G1 F600.0; feed for start of next move
G1 X54.4 Y102.1 F1200.0 ;horizontal move
G1 X48.0 Y53.1 ;horizontal move
G1 X47.9 Y52.7 F600.0 ;horizontal move
G4 P100 ;delay
G1 F1200.0; feed for start of next move
G1 E1247.7; extruder dwell
G1 F600.0; feed for start of next move
G1 X49.3 Y51.7 E1249.4 F587.4 ;horizontal move
G1 X91.3 Y93.7 E1308.8 F568.6 ;horizontal move
G1 X91.8 Y93.2 E1309.5 F480.6 ;horizontal move
G1 X92.3 Y92.3 E1310.6 F575.2 ;horizontal move
G1 X50.7 Y50.7 E1369.4 F537.9 ;horizontal move
G1 X52.1 Y49.7 E1371.1 F575.2 ;horizontal move
G1 X93.3 Y90.9 E1429.4 F537.9 ;horizontal move
G1 X93.5 Y90.5 E1429.8 F480.7 ;horizontal move
G1 X94.1 Y89.3 E1431.2 F562.8 ;horizontal move
G1 X53.7 Y48.9 E1488.3 F507.1 ;horizontal move
G1 X55.3 Y48.0 E1490.1 F480.7 ;horizontal move
G1 X95.0 Y87.7 E1546.3 F480.0 ;horizontal move
G1 X95.6 Y86.0 E1548.1 ;horizontal move
G1 X57.0 Y47.4 E1602.7 ;horizontal move
G1 X58.2 Y46.9 E1604.0 ;horizontal move
G1 X58.8 Y46.8 E1604.6 F540.0 ;horizontal move
G1 X96.2 Y84.2 E1657.5 F480.0 ;horizontal move
G1 X96.7 Y82.3 E1659.4 ;horizontal move
G1 X60.7 Y46.3 E1710.3 ;horizontal move
G1 X61.2 Y46.1 E1710.9 ;horizontal move
G1 X62.7 Y45.9 E1712.4 F529.5 ;horizontal move
G1 X97.1 Y80.3 E1761.0 F480.0 ;horizontal move
G1 X97.4 Y78.6 E1762.8 ;horizontal move
G1 Y78.2 E1763.2 F519.7 ;horizontal move
G1 X64.9 Y45.6 E1809.2 F480.0 ;horizontal move
G1 X64.8 E1809.3 F399.3 ;horizontal move
G1 X64.9 E1809.4 F480.0 ;horizontal move
G1 X67.1 Y45.5 E1811.6 ;horizontal move
G1 X97.5 Y75.9 E1854.6 ;horizontal move
G1 Y75.8 E1854.7 ;horizontal move
G1 Y75.5 E1855.0 ;horizontal move
G1 X97.4 Y73.4 E1857.1 F510.8 ;horizontal move
G1 X69.6 Y45.6 E1896.4 F480.0 ;horizontal move
G1 X69.7 E1896.5 ;horizontal move
G1 X70.6 E1897.4 ;horizontal move
G1 X72.4 Y45.9 E1899.2 F502.9 ;horizontal move
G1 X97.1 Y70.6 E1934.2 F480.0 ;horizontal move
G1 X96.9 Y69.2 E1935.6 ;horizontal move
G1 X96.4 Y67.6 E1937.3 F496.1 ;horizontal move
G1 X75.5 Y46.6 E1966.9 F480.0 ;horizontal move
G1 X75.4 E1967.0 F340.1 ;horizontal move
G1 X75.5 E1967.1 F480.0 ;horizontal move
G1 X76.8 Y46.9 E1968.4 ;horizontal move
G1 X79.1 Y47.8 E1970.9 F490.4 ;horizontal move
G1 X95.2 Y63.9 E1993.7 F480.0 ;horizontal move
G1 X95.0 Y63.3 E1994.3 ;horizontal move
G1 X93.5 Y60.5 E1997.5 F480.7 ;horizontal move
G1 X92.4 Y58.7 E1999.6 F482.6 ;horizontal move
G1 X84.3 Y50.6 E2011.0 F600.0 ;horizontal move
G1 F1200.0; feed for start of next move
G1 E2002.7; extruder retraction
G1 F600.0; feed for start of next move
M106 ;cooler on
G1 X83.9 F1200.0 ;horizontal move
G1 X-249.5 ;horizontal move
G1 X-250.0 F600.0 ;horizontal move
G92 X0 ;set x 0
G1 Y50.2 F1200.0 ;horizontal move
G1 Y-249.6 ;horizontal move
G1 Y-250.0 F600.0 ;horizontal move
G92 Y0 ;set y 0
G92 E0 ;zero the extruded length
;#!LAYER: 4/8
M107 ;cooler off
G4 P20 ;delay
G1 F40.0; feed for start of next move
G1 Z2.5 F67.8 ;z move
G1 Z3.0 F40.0 ;z move
G1 F600.0; feed for start of next move
G1 X0.3 Y0.4 F1200.0 ;horizontal move
G1 X31.7 Y39.6 ;horizontal move
G1 X32.0 Y40.0 F600.0 ;horizontal move
G4 P100 ;delay
G1 F1200.0; feed for start of next move
G1 E6.7; extruder dwell
G1 F600.0; feed for start of next move
G1 X30.0 Y49.9 E16.8 F480.0 ;horizontal move
G1 Y50.0 E16.9 F305.8 ;horizontal move
G1 Y49.9 E17.0 F480.0 ;horizontal move
G1 Y38.0 E28.9 ;horizontal move
G1 X52.0 E50.9 F600.0 ;horizontal move
G1 F1200.0; feed for start of next move
G1 E42.5; extruder retraction
G1 F600.0; feed for start of next move
G1 X52.2 Y38.4 F1200.0 ;horizontal move
G1 X64.4 Y59.5 ;horizontal move
G1 X64.6 Y59.9 F600.0 ;horizontal move
G4 P100 ;delay
G1 F1200.0; feed for start of next move
G1 E49.2; extruder dwell
G1 F600.0; feed for start of next move
G1 X64.9 Y60.1 E49.6 F1080.0 ;horizontal move
G1 X65.1 Y60.2 E49.8 ;horizontal move
G1 X65.4 Y60.3 E50.1 F527.2 ;horizontal move
G1 Y60.4 E50.2 F607.7 ;horizontal move
G1 X65.3 E50.3 F528.1 ;horizontal move
G1 X65.7 Y60.6 E50.7 F1080.0 ;horizontal move
G1 X66.5 Y61.1 E51.7 ;horizontal move
G1 X66.8 Y61.3 E52.1 F357.9 ;horizontal move
G1 X66.4 E52.5 F1080.0 ;horizontal move
G1 X65.8 Y61.4 E53.1 ;horizontal move
G1 X64.5 Y61.8 E54.4 ;horizontal move
G1 X63.6 Y62.0 E55.3 ;horizontal move
G1 X62.2 Y62.5 E56.8 ;horizontal move
G1 X61.8 Y62.6 E57.2 F370.9 ;horizontal move
G1 X62.0 Y62.3 E57.6 F1080.0 ;horizontal move
G1 X62.9 Y60.7 E59.4 ;horizontal move
G1 X63.2 Y60.2 E60.0 ;horizontal move
G1 X63.3 Y59.9 E60.3 F580.9 ;horizontal move
G1 X63.6 Y60.1 E60.7 F1080.0 ;horizontal move
G1 X65.4 Y61.2 E62.8 ;horizontal move
G1 X65.8 Y61.4 E63.3 F319.1 ;horizontal move
G1 X65.5 Y61.0 E63.8 F1080.0 ;horizontal move
G1 X64.8 Y60.2 E64.8 ;horizontal move
G1 F1200.0; feed for start of next move
G1 E56.5; extruder retraction
G1 F600.0; feed for start of next move
G1 X64.6 Y59.9 F1200.0 ;horizontal move
G1 F600.0; feed for start of next move
G1 X65.0 Y59.8 F1200.0 ;horizontal move
G1 X71.4 Y58.9 ;horizontal move
G1 X71.8 Y58.8 F600.0 ;horizontal move
G4 P100 ;delay
G1 F1200.0; feed for start of next move
G1 E63.2; extruder dwell
G1 F600.0; feed for start of next move
G1 X71.7 Y59.1 E63.5 F1080.0 ;horizontal move
G1 X71.6 Y59.5 E63.9 ;horizontal move
G1 Y59.6 E64.0 F964.4 ;horizontal move
G1 Y59.7 E64.1 F1080.0 ;horizontal move
G1 X72.2 Y60.8 E65.3 ;horizontal move
G1 X72.9 Y62.1 E66.8 ;horizontal move
G1 X73.1 Y62.5 E67.3 F389.4 ;horizontal move
G1 X72.7 Y62.4 E67.7 F1080.0 ;horizontal move
G1 X69.3 Y61.5 E71.2 ;horizontal move
G1 X68.9 Y61.4 E71.6 F399.1 ;horizontal move
G1 X69.3 Y61.1 E72.1 F1080.0 ;horizontal move
G1 X71.5 Y59.7 E74.7 ;horizontal move
G1 X71.6 Y59.6 E74.8 F950.0 ;horizontal move
G1 Y59.5 E74.9 F1080.0 ;horizontal move
G1 X71.7 Y59.1 E75.4 ;horizontal move
G1 F1200.0; feed for start of next move
G1 E67.0; extruder retraction
G1 F600.0; feed for start of next move
G1 X71.8 Y58.8 F1200.0 ;horizontal move
G1 F600.0; feed for start of next move
G1 X72.1 Y59.2 F1200.0 ;horizontal move
G1 X77.0 Y66.0 ;horizontal move
G1 X77.3 Y66.4 F600.0 ;horizontal move
G4 P100 ;delay
G1 F1200.0; feed for start of next move
G1 E73.7; extruder dwell
G1 F600.0; feed for start of next move
G1 X77.0 Y66.1 E74.1 F1080.0 ;horizontal move
G1 X76.7 Y65.8 E74.5 F498.3 ;horizontal move
G1 X77.0 Y65.7 E74.9 F1021.4 ;horizontal move
G1 X77.3 Y65.6 E75.2 F508.8 ;horizontal move
G1 X77.1 Y65.3 E75.5 F1080.0 ;horizontal move
G1 X76.1 Y64.3 E76.9 ;horizontal move
G1 X75.8 Y64.0 E77.4 F407.0 ;horizontal move
G1 X76.2 Y63.9 E77.8 F1080.0 ;horizontal move
G1 X78.9 Y63.8 E80.5 ;horizontal move
G1 X79.2 E80.8 F565.7 ;horizontal move
G1 Y64.1 E81.1 F1080.0 ;horizontal move
G1 X79.1 Y66.7 E83.7 ;horizontal move
G1 X79.0 Y67.1 E84.1 F409.6 ;horizontal move
G1 X78.7 Y66.9 E84.5 F1080.0 ;horizontal move
G1 X77.6 Y65.8 E86.0 ;horizontal move
G1 X77.3 Y65.6 E86.4 F409.9 ;horizontal move
G1 Y66.0 E86.8 F1080.0 ;horizontal move
G1 F1200.0; feed for start of next move
G1 E78.4; extruder retraction
G1 F600.0; feed for start of next move
G1 Y66.4 F1200.0 ;horizontal move
G1 F600.0; feed for start of next move
G1 X77.5 Y66.8 F1200.0 ;horizontal move
G1 X80.2 Y71.4 ;horizontal move
G1 X80.4 Y71.8 F600.0 ;horizontal move
G4 P100 ;delay
G1 F1200.0; feed for start of next move
G1 E85.1; extruder dwell
G1 F600.0; feed for start of next move
G1 X80.7 E85.4 F1080.0 ;horizontal move
G1 X83.1 Y71.3 E87.9 ;horizontal move
G1 X83.5 Y71.2 E88.3 F390.3 ;horizontal move
G1 X83.3 Y71.6 E88.7 F1080.0 ;horizontal move
G1 X81.9 Y73.7 E91.2 ;horizontal move
G1 X81.6 Y74.1 E91.7 F406.0 ;horizontal move
G1 X81.5 Y73.7 E92.2 F1080.0 ;horizontal move
G1 X81.0 Y71.9 E94.0 ;horizontal move
G1 X80.6 Y70.1 E95.9 ;horizontal move
G1 X80.5 Y69.7 E96.3 F406.0 ;horizontal move
G1 X80.9 Y69.9 E96.7 F1080.0 ;horizontal move
G1 X82.2 Y70.6 E98.2 ;horizontal move
G1 X83.1 Y71.0 E99.2 ;horizontal move
G1 X83.5 Y71.2 E99.6 F359.5 ;horizontal move
G1 X83.1 Y71.3 E100.1 F1080.0 ;horizontal move
G1 X80.7 Y71.8 E102.5 ;horizontal move
G1 F1200.0; feed for start of next move
G1 E94.2; extruder retraction
G1 F600.0; feed for start of next move
G1 X80.4 F1200.0 ;horizontal move
G1 F600.0; feed for start of next move
G1 X80.6 Y72.2 F1200.0 ;horizontal move
G1 X81.8 Y75.9 ;horizontal move
G1 X82.0 Y76.3 F600.0 ;horizontal move
G4 P100 ;delay
G1 F1200.0; feed for start of next move
G1 E100.8; extruder dwell
G1 F600.0; feed for start of next move
G1 X82.1 Y76.6 E101.2 F1080.0 ;horizontal move
G1 X82.2 Y76.8 E101.4 ;horizontal move
G1 X82.4 Y77.0 E101.7 F747.7 ;horizontal move
G1 X82.3 Y77.1 E101.8 F917.7 ;horizontal move
G1 X82.1 E102.0 F1080.0 ;horizontal move
G1 X82.0 Y77.2 E102.1 ;horizontal move
G1 X81.6 E102.5 F476.0 ;horizontal move
G1 X81.8 Y77.5 E102.9 F1080.0 ;horizontal move
G1 X83.1 Y79.6 E105.4 ;horizontal move
G1 X83.3 Y79.9 E105.7 F573.3 ;horizontal move
G1 X83.0 Y80.1 E106.1 F1080.0 ;horizontal move
G1 X81.9 Y80.6 E107.3 ;horizontal move
G1 X80.8 Y81.2 E108.6 ;horizontal move
G1 X80.4 Y81.4 E109.0 F394.3 ;horizontal move
G1 X80.5 Y81.0 E109.4 F1080.0 ;horizontal move
G1 X81.3 Y78.2 E112.3 ;horizontal move
G1 X81.6 Y77.2 E113.4 ;horizontal move
G1 X81.9 Y76.6 E114.0 ;horizontal move
G1 F1200.0; feed for start of next move
G1 E105.7; extruder retraction
G1 F600.0; feed for start of next move
G1 X82.0 Y76.3 F1200.0 ;horizontal move
G1 F600.0; feed for start of next move
G1 X81.8 Y76.7 F1200.0 ;horizontal move
G1 X78.2 Y87.2 ;horizontal move
G1 X78.0 Y87.6 F600.0 ;horizontal move
G4 P100 ;delay
G1 F1200.0; feed for start of next move
G1 E112.4; extruder dwell
G1 F600.0; feed for start of next move
G1 X77.6 E112.8 F1080.0 ;horizontal move
G1 X77.0 E113.4 ;horizontal move
G1 X76.9 E113.5 F998.2 ;horizontal move
G1 Y87.5 E113.6 F1080.0 ;horizontal move
G1 X76.2 Y87.1 E114.4 ;horizontal move
G1 X75.9 Y86.9 E114.7 F553.5 ;horizontal move
G1 X76.2 Y86.6 E115.2 F1080.0 ;horizontal move
G1 X77.5 Y85.3 E117.0 ;horizontal move
G1 X78.6 Y84.3 E118.5 ;horizontal move
G1 X78.9 Y84.0 E118.9 F400.8 ;horizontal move
G1 Y84.4 E119.3 F1080.0 ;horizontal move
G1 Y86.6 E121.5 ;horizontal move
G1 Y86.9 E121.8 F586.8 ;horizontal move
G1 X78.6 E122.1 F1080.0 ;horizontal move
G1 X76.4 E124.3 ;horizontal move
G1 X75.9 E124.8 F314.9 ;horizontal move
G1 X76.4 Y87.0 E125.3 F1080.0 ;horizontal move
G1 X77.6 Y87.5 E126.6 ;horizontal move
G1 F1200.0; feed for start of next move
G1 E118.3; extruder retraction
G1 F600.0; feed for start of next move
G1 X78.0 Y87.6 F1200.0 ;horizontal move
G1 F600.0; feed for start of next move
G1 X77.6 Y87.9 F1200.0 ;horizontal move
G1 X72.2 Y92.1 ;horizontal move
G1 X71.8 Y92.4 F600.0 ;horizontal move
G4 P100 ;delay
G1 F1200.0; feed for start of next move
G1 E125.0; extruder dwell
G1 F600.0; feed for start of next move
G1 X71.5 Y92.2 E125.3 F1080.0 ;horizontal move
G1 X71.0 Y91.6 E126.1 ;horizontal move
G1 X70.9 Y91.5 E126.2 F824.0 ;horizontal move
G1 Y91.3 E126.4 F1080.0 ;horizontal move
G1 X71.8 Y89.0 E128.9 ;horizontal move
G1 Y88.8 E129.1 F877.1 ;horizontal move
G1 X72.0 E129.3 F1080.0 ;horizontal move
G1 X72.8 Y88.6 E130.1 ;horizontal move
G1 X73.2 Y88.5 E130.5 F382.6 ;horizontal move
G1 X73.0 Y88.8 E130.9 F1080.0 ;horizontal move
G1 X72.7 Y89.3 E131.5 ;horizontal move
G1 X71.8 Y90.8 E133.2 ;horizontal move
G1 X71.7 Y91.1 E133.6 F587.2 ;horizontal move
G1 X71.5 Y91.0 E133.8 F968.1 ;horizontal move
G1 X71.3 Y90.9 E134.0 F622.8 ;horizontal move
G1 X71.1 Y91.1 E134.3 F1080.0 ;horizontal move
G1 X71.0 Y91.2 E134.4 ;horizontal move
G1 X70.9 Y91.5 E134.7 F714.3 ;horizontal move
G1 X71.1 Y91.7 E135.0 F1080.0 ;horizontal move
G1 X71.5 Y92.2 E135.7 ;horizontal move
G1 F1200.0; feed for start of next move
G1 E127.3; extruder retraction
G1 F600.0; feed for start of next move
G1 X71.8 Y92.4 F1200.0 ;horizontal move
G1 F600.0; feed for start of next move
G1 X71.4 F1200.0 ;horizontal move
G1 X63.3 Y91.7 ;horizontal move
G1 X62.9 F600.0 ;horizontal move
G4 P100 ;delay
G1 F1200.0; feed for start of next move
G1 E134.0; extruder dwell
G1 F600.0; feed for start of next move
G1 X63.2 Y91.5 E134.4 F1050.4 ;horizontal move
G1 X63.4 Y91.4 E134.6 F634.7 ;horizontal move
G1 X63.3 Y91.1 E134.9 F1080.0 ;horizontal move
G1 X62.8 Y90.2 E135.9 ;horizontal move
G1 X62.1 Y88.9 E137.4 ;horizontal move
G1 X61.9 Y88.5 E137.9 F391.5 ;horizontal move
G1 X62.3 Y88.6 E138.3 F1080.0 ;horizontal move
G1 X64.8 Y89.3 E140.9 ;horizontal move
G1 X65.7 Y89.5 E141.8 ;horizontal move
G1 X66.1 Y89.6 E142.2 F407.8 ;horizontal move
G1 X65.7 Y89.9 E142.7 F1080.0 ;horizontal move
G1 X63.4 Y91.4 E145.4 ;horizontal move
G1 X63.2 Y91.5 E145.7 ;horizontal move
G1 F1200.0; feed for start of next move
G1 E137.3; extruder retraction
G1 F600.0; feed for start of next move
G1 X62.9 Y91.7 F1200.0 ;horizontal move
G1 F600.0; feed for start of next move
G1 X62.6 Y91.3 F1200.0 ;horizontal move
G1 X57.8 Y84.8 ;horizontal move
G1 X57.5 Y84.4 F600.0 ;horizontal move
G4 P100 ;delay
G1 F1200.0; feed for start of next move
G1 E144.0; extruder dwell
G1 F600.0; feed for start of next move
G1 X57.7 Y84.6 E144.3 F951.9 ;horizontal move
G1 X57.8 Y84.7 E144.4 F597.8 ;horizontal move
G1 X58.0 Y84.9 E144.7 F906.6 ;horizontal move
G1 X58.1 Y85.0 E144.8 F589.6 ;horizontal move
G1 X57.9 Y85.2 E145.1 F1041.3 ;horizontal move
G1 X57.7 Y85.4 E145.4 F616.7 ;horizontal move
G1 X57.9 Y85.7 E145.8 F1080.0 ;horizontal move
G1 X58.9 Y86.7 E147.2 ;horizontal move
G1 X59.2 Y87.0 E147.6 F407.0 ;horizontal move
G1 X58.8 Y87.1 E148.0 F1080.0 ;horizontal move
G1 X56.1 Y87.2 E150.7 ;horizontal move
G1 X55.8 E151.0 F565.7 ;horizontal move
G1 Y86.9 E151.3 F1080.0 ;horizontal move
G1 X55.9 Y84.3 E153.9 ;horizontal move
G1 X56.0 Y83.9 E154.3 F409.6 ;horizontal move
G1 X56.3 Y84.1 E154.7 F1080.0 ;horizontal move
G1 X57.4 Y85.1 E156.2 ;horizontal move
G1 X57.7 Y85.4 E156.6 F363.3 ;horizontal move
G1 X57.6 Y85.0 E157.0 F1080.0 ;horizontal move
G1 Y84.7 E157.3 ;horizontal move
G1 F1200.0; feed for start of next move
G1 E149.0; extruder retraction
G1 F600.0; feed for start of next move
G1 X57.5 Y84.4 F1200.0 ;horizontal move
G1 F600.0; feed for start of next move
G1 X57.2 Y84.1 F1200.0 ;horizontal move
G1 X55.6 Y82.8 ;horizontal move
G1 X55.3 Y82.5 F600.0 ;horizontal move
G4 P100 ;delay
G1 F1200.0; feed for start of next move
G1 E155.7; extruder dwell
G1 F600.0; feed for start of next move
G1 X55.6 Y82.4 E156.0 F1080.0 ;horizontal move
G1 Y82.3 E156.1 ;horizontal move
G1 X55.8 Y82.2 E156.3 F733.3 ;horizontal move
G1 Y82.0 E156.5 F1080.0 ;horizontal move
G1 X55.5 Y79.8 E158.7 ;horizontal move
G1 X54.9 Y77.6 E161.0 ;horizontal move
G1 X54.1 Y75.4 E163.3 ;horizontal move
G1 Y75.3 E163.4 ;horizontal move
G1 X54.9 Y73.3 E165.6 ;horizontal move
G1 X55.5 Y71.1 E167.9 ;horizontal move
G1 X55.9 Y68.8 E170.2 ;horizontal move
G1 Y68.7 E170.3 F959.5 ;horizontal move
G1 X56.0 Y68.6 E170.4 F1080.0 ;horizontal move
G1 X57.6 Y67.4 E172.4 ;horizontal move
G1 X59.6 Y65.4 E175.3 ;horizontal move
G1 X60.8 Y64.0 E177.1 ;horizontal move
G1 Y63.9 E177.2 F968.8 ;horizontal move
G1 X60.9 E177.3 F1080.0 ;horizontal move
G1 X63.1 Y63.5 E179.6 ;horizontal move
G1 X65.2 Y62.9 E181.7 ;horizontal move
G1 X67.3 Y62.1 E184.0 ;horizontal move
G1 X67.4 E184.1 F955.0 ;horizontal move
G1 X67.5 E184.2 F1080.0 ;horizontal move
G1 X68.6 Y62.5 E185.4 ;horizontal move
G1 X71.2 Y63.3 E188.1 ;horizontal move
G1 X74.0 Y63.8 E190.9 ;horizontal move
G1 X74.1 E191.0 F965.7 ;horizontal move
G1 Y63.9 E191.1 F1080.0 ;horizontal move
G1 X75.4 Y65.4 E193.1 ;horizontal move
G1 X77.4 Y67.4 E195.9 ;horizontal move
G1 X79.1 Y68.7 E198.1 ;horizontal move
G1 X79.2 Y68.8 E198.2 F949.9 ;horizontal move
G1 Y68.9 E198.3 F1080.0 ;horizontal move
G1 X79.5 Y71.2 E200.6 ;horizontal move
G1 X80.1 Y73.4 E202.9 ;horizontal move
G1 X80.9 Y75.6 E205.3 ;horizontal move
G1 Y75.7 E205.4 ;horizontal move
G1 X80.1 Y77.7 E207.5 ;horizontal move
G1 X79.5 Y79.9 E209.8 ;horizontal move
G1 X79.1 Y82.2 E212.1 ;horizontal move
G1 Y82.3 E212.2 F959.5 ;horizontal move
G1 X79.0 Y82.4 E212.4 F1080.0 ;horizontal move
G1 X77.4 Y83.6 E214.4 ;horizontal move
G1 X75.4 Y85.6 E217.2 ;horizontal move
G1 X74.2 Y87.0 E219.0 ;horizontal move
G1 Y87.1 E219.1 F968.8 ;horizontal move
G1 X74.1 E219.2 F1080.0 ;horizontal move
G1 X71.9 Y87.5 E221.5 ;horizontal move
G1 X69.9 Y88.0 E223.5 ;horizontal move
G1 X69.8 Y88.1 E223.7 F920.5 ;horizontal move
G1 X69.5 Y88.2 E224.0 F320.0 ;horizontal move
G1 X70.0 E224.5 F1080.0 ;horizontal move
G1 X72.4 E226.9 ;horizontal move
G1 X72.8 E227.3 F305.0 ;horizontal move
G1 X72.4 Y88.3 E227.7 F1080.0 ;horizontal move
G1 X67.5 Y89.2 E232.7 ;horizontal move
G1 X67.4 E232.8 F923.4 ;horizontal move
G1 X67.3 Y89.1 E232.9 F1080.0 ;horizontal move
G1 X66.4 Y88.5 E234.0 ;horizontal move
G1 Y88.4 E234.1 F1049.0 ;horizontal move
G1 X63.8 Y87.7 E236.8 F1080.0 ;horizontal move
G1 X61.0 Y87.2 E239.7 ;horizontal move
G1 X60.9 E239.8 F965.7 ;horizontal move
G1 Y87.1 E239.9 F1080.0 ;horizontal move
G1 X59.6 Y85.6 E241.8 ;horizontal move
G1 X57.6 Y83.6 E244.7 ;horizontal move
G1 X56.0 Y82.4 E246.7 ;horizontal move
G1 X55.8 Y82.2 E246.9 F818.5 ;horizontal move
G1 X55.6 Y82.3 E247.2 F1080.0 ;horizontal move
G1 Y82.4 E247.3 ;horizontal move
G1 F1200.0; feed for start of next move
G1 E238.9; extruder retraction
G1 F600.0; feed for start of next move
G1 X55.3 Y82.5 F1200.0 ;horizontal move
G1 F600.0; feed for start of next move
G1 X55.2 Y82.1 F1200.0 ;horizontal move
G1 X54.0 Y77.0 ;horizontal move
G1 X53.9 Y76.6 F600.0 ;horizontal move
G4 P100 ;delay
G1 F1200.0; feed for start of next move
G1 E245.6; extruder dwell
G1 F600.0; feed for start of next move
G1 X53.6 Y76.8 E246.0 F1074.8 ;horizontal move
G1 X53.4 Y76.9 E246.2 F694.1 ;horizontal move
G1 Y77.2 E246.5 F1080.0 ;horizontal move
G1 X54.0 Y79.1 E248.5 ;horizontal move
G1 X54.1 Y80.0 E249.4 ;horizontal move
G1 X54.5 Y81.0 E250.5 ;horizontal move
G1 X54.7 Y81.3 E250.8 F599.9 ;horizontal move
G1 Y81.4 E250.9 F391.1 ;horizontal move
G1 X54.3 Y81.2 E251.4 F1080.0 ;horizontal move
G1 X52.8 Y80.4 E253.1 ;horizontal move
G1 X51.8 Y80.0 E254.1 ;horizontal move
G1 X51.5 Y79.8 E254.5 F560.2 ;horizontal move
G1 X51.7 Y79.5 E254.9 F1080.0 ;horizontal move
G1 X53.3 Y77.0 E257.8 ;horizontal move
G1 X53.4 Y76.9 E258.0 F1019.9 ;horizontal move
G1 X53.6 Y76.8 E258.2 F1080.0 ;horizontal move
G1 F1200.0; feed for start of next move
G1 E249.9; extruder retraction
G1 F600.0; feed for start of next move
G1 X53.9 Y76.6 F1200.0 ;horizontal move
G1 F600.0; feed for start of next move
G1 X53.8 Y76.2 F1200.0 ;horizontal move
G1 X53.4 Y75.2 ;horizontal move
G1 X53.3 Y74.8 F600.0 ;horizontal move
G4 P100 ;delay
G1 F1200.0; feed for start of next move
G1 E256.5; extruder dwell
G1 F600.0; feed for start of next move
G1 Y74.5 E256.8 F1080.0 ;horizontal move
G1 X53.4 Y73.9 E257.4 ;horizontal move
G1 Y73.8 E257.5 F988.8 ;horizontal move
G1 X53.3 Y73.7 E257.7 F1080.0 ;horizontal move
G1 X51.9 Y71.4 E260.4 ;horizontal move
G1 X51.7 Y71.1 E260.7 F571.7 ;horizontal move
G1 X52.0 Y70.9 E261.1 F1080.0 ;horizontal move
G1 X52.9 Y70.5 E262.1 ;horizontal move
G1 X54.2 Y69.8 E263.6 ;horizontal move
G1 X54.6 Y69.6 E264.0 F394.9 ;horizontal move
G1 X54.5 Y70.0 E264.4 F1080.0 ;horizontal move
G1 X53.8 Y72.7 E267.2 ;horizontal move
G1 X53.4 Y73.8 E268.4 ;horizontal move
G1 X53.3 Y74.5 E269.1 ;horizontal move
G1 F1200.0; feed for start of next move
G1 E260.8; extruder retraction
G1 F600.0; feed for start of next move
G1 Y74.8 F1200.0 ;horizontal move
G1 F600.0; feed for start of next move
G1 X53.4 Y74.4 F1200.0 ;horizontal move
G1 X54.2 Y69.5 ;horizontal move
G1 X54.3 Y69.1 F600.0 ;horizontal move
G4 P100 ;delay
G1 F1200.0; feed for start of next move
G1 E267.4; extruder dwell
G1 F600.0; feed for start of next move
G1 X54.5 Y68.8 E267.8 F1080.0 ;horizontal move
G1 X55.5 Y67.6 E269.3 ;horizontal move
G1 Y67.5 E269.4 ;horizontal move
G1 X56.1 Y66.2 E270.9 ;horizontal move
G1 Y66.1 E271.0 ;horizontal move
G1 Y64.4 E272.7 ;horizontal move
G1 Y64.1 E273.0 F586.8 ;horizontal move
G1 X56.4 E273.3 F1080.0 ;horizontal move
G1 X58.6 E275.5 ;horizontal move
G1 X59.1 E276.0 F397.8 ;horizontal move
G1 X58.8 Y64.4 E276.4 F1080.0 ;horizontal move
G1 X57.7 Y65.6 E278.0 ;horizontal move
G1 X55.5 Y67.6 E281.0 ;horizontal move
G1 X54.5 Y68.8 E282.6 ;horizontal move
G1 F1200.0; feed for start of next move
G1 E274.2; extruder retraction
G1 F600.0; feed for start of next move
G1 X54.3 Y69.1 F1200.0 ;horizontal move
G1 F600.0; feed for start of next move
G1 X54.7 Y68.9 F1200.0 ;horizontal move
G1 X82.5 Y55.1 ;horizontal move
G1 X82.9 Y54.9 F600.0 ;horizontal move
G4 P100 ;delay
G1 F1200.0; feed for start of next move
G1 E280.9; extruder dwell
G1 F600.0; feed for start of next move
G1 X83.1 Y54.6 E281.3 F1080.0 ;horizontal move
G1 X83.6 Y53.6 E282.4 ;horizontal move
G1 X83.8 Y53.2 E282.8 F315.8 ;horizontal move
G1 X83.5 Y53.5 E283.2 F1080.0 ;horizontal move
G1 X80.6 Y56.1 E287.1 ;horizontal move
G1 X80.3 Y56.4 E287.6 F504.6 ;horizontal move
G1 X80.6 Y56.6 E287.9 F1080.0 ;horizontal move
G1 X80.9 Y56.7 E288.2 ;horizontal move
G1 X81.2 Y56.9 E288.6 F677.2 ;horizontal move
G1 X81.1 Y57.2 E288.9 F1080.0 ;horizontal move
G1 X80.1 Y59.7 E291.6 ;horizontal move
G1 X79.5 Y62.4 E294.4 ;horizontal move
G1 X79.4 Y62.6 E294.6 F742.3 ;horizontal move
G1 X79.1 Y62.7 E294.9 F1080.0 ;horizontal move
G1 X77.6 Y62.8 E296.4 ;horizontal move
G1 X75.0 Y62.7 E299.0 ;horizontal move
G1 X74.8 E299.2 F872.8 ;horizontal move
G1 X74.7 Y62.5 E299.4 F1080.0 ;horizontal move
G1 X73.7 Y61.0 E301.2 ;horizontal move
G1 X72.7 Y59.1 E303.4 ;horizontal move
G1 X72.6 Y58.9 E303.6 F725.9 ;horizontal move
G1 X72.8 Y58.7 E303.9 F1080.0 ;horizontal move
G1 X74.8 Y56.7 E306.7 ;horizontal move
G1 X76.6 Y54.6 E309.5 ;horizontal move
G1 X76.8 Y54.3 E309.9 F676.2 ;horizontal move
G1 X77.0 Y54.5 E310.1 F1080.0 ;horizontal move
G1 X77.4 Y54.7 E310.6 ;horizontal move
G1 X77.7 Y54.9 E310.9 F503.9 ;horizontal move
G1 X77.8 Y54.5 E311.4 F1080.0 ;horizontal move
G1 X78.6 Y50.6 E315.3 ;horizontal move
G1 Y50.2 E315.7 F359.8 ;horizontal move
G1 X78.3 Y50.5 E316.2 F1080.0 ;horizontal move
G1 X75.3 Y53.1 E320.1 ;horizontal move
G1 X75.1 Y53.4 E320.5 F505.2 ;horizontal move
G1 X75.4 Y53.6 E320.9 F1080.0 ;horizontal move
G1 X75.7 Y53.8 E321.2 ;horizontal move
G1 X76.1 Y53.9 E321.6 F537.7 ;horizontal move
G1 X75.8 Y54.2 E322.1 F1080.0 ;horizontal move
G1 X74.2 Y56.0 E324.5 ;horizontal move
G1 X72.4 Y57.6 E326.9 ;horizontal move
G1 X72.1 Y57.9 E327.3 F480.3 ;horizontal move
G1 X72.0 Y57.5 E327.7 F1080.0 ;horizontal move
G1 X71.4 Y55.7 E329.6 ;horizontal move
G1 X70.7 Y52.9 E332.5 ;horizontal move
G1 X70.4 Y50.0 E335.4 ;horizontal move
G1 X70.5 Y47.8 E337.6 ;horizontal move
G1 Y47.5 E337.9 F593.7 ;horizontal move
G1 X70.2 E338.2 F1080.0 ;horizontal move
G1 X69.9 E338.5 ;horizontal move
G1 X69.6 E338.8 F628.5 ;horizontal move
G1 Y47.8 E339.1 F1080.0 ;horizontal move
G1 X69.4 Y50.0 E341.3 ;horizontal move
G1 X69.6 Y52.8 E344.1 ;horizontal move
G1 X70.1 Y55.5 E346.9 ;horizontal move
G1 X71.0 Y58.3 E349.8 ;horizontal move
G1 X71.1 Y58.6 E350.1 F722.5 ;horizontal move
G1 X70.9 Y58.7 E350.4 F1080.0 ;horizontal move
G1 X69.3 Y59.8 E352.3 ;horizontal move
G1 X67.6 Y60.6 E354.2 ;horizontal move
G1 X67.4 Y60.7 E354.4 F883.7 ;horizontal move
G1 X67.3 E354.5 F1080.0 ;horizontal move
G1 X66.0 Y60.0 E356.0 ;horizontal move
G1 X64.1 Y58.9 E358.2 ;horizontal move
G1 X63.8 Y58.7 E358.5 F709.9 ;horizontal move
G1 X63.9 Y58.5 E358.8 F1080.0 ;horizontal move
G1 X64.9 Y55.5 E361.9 ;horizontal move
G1 X65.4 Y52.8 E364.7 ;horizontal move
G1 X65.6 Y50.0 E367.5 ;horizontal move
G1 X65.4 Y47.8 E369.7 ;horizontal move
G1 Y47.5 E370.0 F628.5 ;horizontal move
G1 X65.1 E370.3 F1080.0 ;horizontal move
G1 X64.8 E370.6 ;horizontal move
G1 X64.5 E370.9 F593.7 ;horizontal move
G1 Y47.8 E371.2 F1080.0 ;horizontal move
G1 X64.6 Y50.0 E373.4 ;horizontal move
G1 X64.3 Y52.9 E376.3 ;horizontal move
G1 X63.6 Y55.7 E379.2 ;horizontal move
G1 X62.9 Y57.6 E381.2 ;horizontal move
G1 X62.8 Y58.0 E381.6 F483.0 ;horizontal move
G1 X62.5 Y57.7 E382.0 F1080.0 ;horizontal move
G1 X60.5 Y55.9 E384.7 ;horizontal move
G1 X60.4 E384.8 ;horizontal move
G1 X58.7 Y53.9 E387.5 ;horizontal move
G1 X57.2 Y51.7 E390.1 ;horizontal move
G1 X56.2 Y50.0 E392.1 ;horizontal move
G1 X56.1 Y49.7 E392.4 F591.7 ;horizontal move
G1 X55.8 Y49.9 E392.8 F1080.0 ;horizontal move
G1 X55.6 Y50.0 E393.0 ;horizontal move
G1 X55.3 Y50.2 E393.4 F635.1 ;horizontal move
G1 X55.4 Y50.5 E393.7 F1080.0 ;horizontal move
G1 X56.1 Y52.0 E395.3 ;horizontal move
G1 X57.4 Y53.9 E397.6 ;horizontal move
G1 X58.8 Y55.7 E399.9 ;horizontal move
G1 X60.3 Y57.4 E402.2 ;horizontal move
G1 X62.1 Y58.9 E404.5 ;horizontal move
G1 X62.3 Y59.1 E404.8 F702.6 ;horizontal move
G1 X62.1 Y59.4 E405.2 F1080.0 ;horizontal move
G1 X61.3 Y61.0 E406.9 ;horizontal move
G1 X60.2 Y62.6 E408.9 ;horizontal move
G1 X60.1 Y62.7 E409.0 F883.3 ;horizontal move
G1 X60.0 E409.1 F1080.0 ;horizontal move
G1 X58.1 Y62.8 E411.0 ;horizontal move
G1 X56.2 E412.9 ;horizontal move
G1 X55.9 E413.2 F694.2 ;horizontal move
G1 Y62.5 E413.5 F1080.0 ;horizontal move
G1 X55.6 Y61.2 E414.9 ;horizontal move
G1 X55.0 Y58.7 E417.4 ;horizontal move
G1 X54.1 Y56.4 E419.9 ;horizontal move
G1 X52.9 Y54.1 E422.5 ;horizontal move
G1 X51.8 Y52.5 E424.4 ;horizontal move
G1 X51.7 Y52.2 E424.8 F630.6 ;horizontal move
G1 X51.4 Y52.4 E425.1 F1080.0 ;horizontal move
G1 X51.2 Y52.5 E425.3 ;horizontal move
G1 X50.9 Y52.7 E425.7 F593.0 ;horizontal move
G1 X51.1 Y53.0 E426.1 F1080.0 ;horizontal move
G1 X52.1 Y54.7 E428.0 ;horizontal move
G1 X53.2 Y57.2 E430.8 ;horizontal move
G1 X54.1 Y59.8 E433.5 ;horizontal move
G1 X54.6 Y62.3 E436.1 ;horizontal move
G1 X54.7 Y62.7 E436.5 F480.4 ;horizontal move
G1 X54.3 Y62.6 E436.9 F1080.0 ;horizontal move
G1 X51.6 Y62.0 E439.7 ;horizontal move
G1 X49.1 Y61.2 E442.3 ;horizontal move
G1 X46.6 Y60.1 E445.0 ;horizontal move
G1 X45.0 Y59.1 E446.9 ;horizontal move
G1 X44.7 Y58.9 E447.3 F592.3 ;horizontal move
G1 X44.5 Y59.2 E447.6 F1080.0 ;horizontal move
G1 X44.4 Y59.4 E447.9 ;horizontal move
G1 X44.2 Y59.7 E448.2 F632.9 ;horizontal move
G1 X44.5 Y59.9 E448.6 F1080.0 ;horizontal move
G1 X45.9 Y60.8 E450.2 ;horizontal move
G1 X47.9 Y61.9 E452.5 ;horizontal move
G1 X50.0 Y62.8 E454.8 ;horizontal move
G1 X50.1 E454.9 ;horizontal move
G1 X52.2 Y63.4 E457.1 ;horizontal move
G1 X54.5 Y63.9 E459.4 ;horizontal move
G1 X54.8 E459.7 F712.3 ;horizontal move
G1 Y64.2 E460.0 F1080.0 ;horizontal move
G1 Y65.2 E461.0 ;horizontal move
G1 X54.7 Y67.9 E463.7 ;horizontal move
G1 Y68.0 E463.8 F876.6 ;horizontal move
G1 X54.6 Y68.1 E464.0 F1080.0 ;horizontal move
G1 X53.1 Y69.1 E465.8 ;horizontal move
G1 X51.3 Y70.1 E467.8 ;horizontal move
G1 X51.1 Y70.2 E468.1 F718.1 ;horizontal move
G1 X50.9 Y70.0 E468.4 F1080.0 ;horizontal move
G1 X49.0 Y67.9 E471.2 ;horizontal move
G1 X46.8 Y66.0 E474.1 ;horizontal move
G1 X44.4 Y64.4 E477.0 ;horizontal move
G1 X42.5 Y63.4 E479.1 ;horizontal move
G1 X42.2 Y63.3 E479.4 F629.6 ;horizontal move
G1 X42.0 Y63.6 E479.8 F1080.0 ;horizontal move
G1 X41.9 Y63.8 E480.0 ;horizontal move
G1 X41.7 Y64.1 E480.4 F591.4 ;horizontal move
G1 X42.0 Y64.2 E480.7 F1080.0 ;horizontal move
G1 X43.7 Y65.1 E482.6 ;horizontal move
G1 X45.8 Y66.6 E485.2 ;horizontal move
G1 X47.8 Y68.4 E487.9 ;horizontal move
G1 X49.6 Y70.4 E490.6 ;horizontal move
G1 X49.9 Y70.7 E491.0 F480.3 ;horizontal move
G1 X49.5 Y70.8 E491.4 F1080.0 ;horizontal move
G1 X47.8 Y71.4 E493.2 ;horizontal move
G1 X44.9 Y72.1 E496.2 ;horizontal move
G1 X44.6 E496.5 F533.9 ;horizontal move
G1 Y71.8 E496.8 F1080.0 ;horizontal move
G1 Y71.4 E497.2 ;horizontal move
G1 Y71.0 E497.6 F505.1 ;horizontal move
G1 X44.2 Y71.1 E498.0 F1080.0 ;horizontal move
G1 X40.4 Y72.4 E502.0 ;horizontal move
G1 X40.0 Y72.5 E502.4 F360.0 ;horizontal move
G1 X40.4 Y72.6 E502.9 F1080.0 ;horizontal move
G1 X44.2 Y73.9 E506.9 ;horizontal move
G1 X44.6 Y74.0 E507.3 F505.1 ;horizontal move
G1 Y73.6 E507.7 F1080.0 ;horizontal move
G1 Y73.2 E508.1 ;horizontal move
G1 Y73.0 E508.3 F680.5 ;horizontal move
G1 X44.8 Y72.9 E508.5 F1080.0 ;horizontal move
G1 X47.6 Y72.4 E511.4 ;horizontal move
G1 X50.3 Y71.7 E514.1 ;horizontal move
G1 X50.5 Y71.6 E514.4 F729.6 ;horizontal move
G1 X50.7 Y71.8 E514.7 F1080.0 ;horizontal move
G1 X51.7 Y73.5 E516.6 ;horizontal move
G1 X52.6 Y75.3 E518.6 ;horizontal move
G1 X52.7 Y75.4 E518.8 F879.5 ;horizontal move
G1 X52.6 Y75.6 E519.0 F1080.0 ;horizontal move
G1 X51.8 Y77.1 E520.7 ;horizontal move
G1 X50.6 Y79.2 E523.1 ;horizontal move
G1 X50.4 Y79.4 E523.4 F733.1 ;horizontal move
G1 X50.2 Y79.3 E523.6 F1080.0 ;horizontal move
G1 X47.6 Y78.6 E526.3 ;horizontal move
G1 X44.8 Y78.1 E529.2 ;horizontal move
G1 X44.6 Y78.0 E529.4 F680.5 ;horizontal move
G1 Y77.8 E529.6 F1080.0 ;horizontal move
G1 Y77.4 E530.0 ;horizontal move
G1 Y77.0 E530.4 F505.1 ;horizontal move
G1 X44.2 Y77.1 E530.8 F1080.0 ;horizontal move
G1 X40.4 Y78.4 E534.8 ;horizontal move
G1 X40.0 Y78.5 E535.2 F360.0 ;horizontal move
G1 X40.4 Y78.6 E535.6 F1080.0 ;horizontal move
G1 X44.2 Y79.9 E539.7 ;horizontal move
G1 X44.6 Y80.0 E540.1 F505.1 ;horizontal move
G1 Y79.6 E540.5 F1080.0 ;horizontal move
G1 Y79.2 E540.9 ;horizontal move
G1 Y78.9 E541.2 F533.9 ;horizontal move
G1 X44.9 E541.5 F1080.0 ;horizontal move
G1 X47.8 Y79.6 E544.5 ;horizontal move
G1 X49.4 Y80.1 E546.1 ;horizontal move
G1 X49.8 Y80.2 E546.5 F476.3 ;horizontal move
G1 X49.5 Y80.5 E547.0 F1080.0 ;horizontal move
G1 X47.9 Y82.3 E549.4 ;horizontal move
G1 X46.2 Y83.8 E551.6 ;horizontal move
G1 X45.9 Y84.1 E552.1 F538.2 ;horizontal move
G1 X45.8 Y83.7 E552.5 F1080.0 ;horizontal move
G1 X45.6 Y83.4 E552.8 ;horizontal move
G1 X45.4 Y83.1 E553.2 F505.2 ;horizontal move
G1 X45.1 Y83.3 E553.6 F1080.0 ;horizontal move
G1 X42.5 Y86.3 E557.5 ;horizontal move
G1 X42.2 Y86.6 E558.0 F359.8 ;horizontal move
G1 X42.6 E558.4 F1080.0 ;horizontal move
G1 X46.5 Y85.8 E562.3 ;horizontal move
G1 X46.9 Y85.7 E562.7 F503.9 ;horizontal move
G1 X46.7 Y85.4 E563.1 F1080.0 ;horizontal move
G1 X46.5 Y85.0 E563.6 ;horizontal move
G1 X46.3 Y84.8 E563.8 F676.3 ;horizontal move
G1 X46.6 Y84.6 E564.2 F1080.0 ;horizontal move
G1 X48.7 Y82.8 E567.0 ;horizontal move
G1 X50.6 Y80.9 E569.7 ;horizontal move
G1 X50.8 Y80.7 E569.9 F734.6 ;horizontal move
G1 X51.0 Y80.8 E570.2 F1080.0 ;horizontal move
G1 X53.1 Y81.9 E572.5 ;horizontal move
G1 X54.5 Y82.8 E574.2 ;horizontal move
G1 X54.7 Y82.9 E574.4 F875.4 ;horizontal move
G1 Y83.1 E574.6 F1080.0 ;horizontal move
G1 X54.8 Y85.1 E576.6 ;horizontal move
G1 X54.7 Y87.1 E578.6 ;horizontal move
G1 X54.6 Y87.4 E578.9 F729.7 ;horizontal move
G1 X54.4 Y87.5 E579.2 F1080.0 ;horizontal move
G1 X53.4 Y87.7 E580.2 ;horizontal move
G1 X51.4 Y88.2 E582.2 ;horizontal move
G1 X49.2 Y89.1 E584.6 ;horizontal move
G1 X48.9 Y89.2 E584.9 F672.8 ;horizontal move
G1 X48.7 Y88.9 E585.3 F1080.0 ;horizontal move
G1 X48.6 Y88.6 E585.6 ;horizontal move
G1 X48.4 Y88.3 E586.0 F504.6 ;horizontal move
G1 X48.1 Y88.6 E586.4 F1080.0 ;horizontal move
G1 X45.5 Y91.5 E590.3 ;horizontal move
G1 X45.2 Y91.8 E590.7 F359.8 ;horizontal move
G1 X45.6 E591.1 F1080.0 ;horizontal move
G1 X49.5 Y91.0 E595.1 ;horizontal move
G1 X49.9 Y90.9 E595.5 F505.3 ;horizontal move
G1 X49.7 Y90.6 E595.9 F1080.0 ;horizontal move
G1 X49.5 Y90.2 E596.3 ;horizontal move
G1 X49.3 Y89.9 E596.7 F535.6 ;horizontal move
G1 X49.7 Y89.8 E597.1 F1080.0 ;horizontal move
G1 X52.2 Y89.0 E599.7 ;horizontal move
G1 X54.1 Y88.6 E601.7 ;horizontal move
G1 X54.5 Y88.5 E602.1 F474.9 ;horizontal move
G1 X54.4 Y88.9 E602.5 F1080.0 ;horizontal move
G1 X53.9 Y91.2 E604.8 ;horizontal move
G1 X53.2 Y93.3 E607.0 ;horizontal move
G1 X53.1 Y93.7 E607.5 F537.8 ;horizontal move
G1 X52.8 Y93.5 E607.8 F1080.0 ;horizontal move
G1 X52.4 Y93.3 E608.3 ;horizontal move
G1 X52.1 Y93.1 E608.6 F505.3 ;horizontal move
G1 X52.0 Y93.5 E609.0 F1080.0 ;horizontal move
G1 X51.2 Y97.4 E613.0 ;horizontal move
G1 Y97.8 E613.4 F359.8 ;horizontal move
G1 X51.5 Y97.5 E613.8 F1080.0 ;horizontal move
G1 X54.4 Y94.9 E617.7 ;horizontal move
G1 X54.7 Y94.6 E618.2 F504.6 ;horizontal move
G1 X54.4 Y94.4 E618.5 F1080.0 ;horizontal move
G1 X54.1 Y94.3 E618.8 ;horizontal move
G1 X53.8 Y94.1 E619.2 F677.2 ;horizontal move
G1 X53.9 Y93.8 E619.5 F1080.0 ;horizontal move
G1 X54.9 Y91.3 E622.2 ;horizontal move
G1 X55.5 Y88.6 E625.0 ;horizontal move
G1 X55.6 Y88.4 E625.2 F742.3 ;horizontal move
G1 X55.9 Y88.3 E625.5 F1080.0 ;horizontal move
G1 X57.4 Y88.2 E627.0 ;horizontal move
G1 X60.0 Y88.3 E629.6 ;horizontal move
G1 X60.2 E629.8 F872.8 ;horizontal move
G1 X60.3 Y88.5 E630.0 F1080.0 ;horizontal move
G1 X61.3 Y90.0 E631.9 ;horizontal move
G1 X62.3 Y91.9 E634.0 ;horizontal move
G1 X62.4 Y92.1 E634.2 F725.9 ;horizontal move
G1 X62.2 Y92.3 E634.5 F1080.0 ;horizontal move
G1 X60.2 Y94.3 E637.3 ;horizontal move
G1 X58.4 Y96.4 E640.1 ;horizontal move
G1 X58.2 Y96.7 E640.5 F676.2 ;horizontal move
G1 X58.0 Y96.5 E640.7 F1080.0 ;horizontal move
G1 X57.6 Y96.3 E641.2 ;horizontal move
G1 X57.3 Y96.1 E641.6 F503.9 ;horizontal move
G1 X57.2 Y96.5 E642.0 F1080.0 ;horizontal move
G1 X56.4 Y100.4 E645.9 ;horizontal move
G1 Y100.8 E646.3 F359.8 ;horizontal move
G1 X56.7 Y100.5 E646.8 F1080.0 ;horizontal move
G1 X59.7 Y97.9 E650.7 ;horizontal move
G1 X59.9 Y97.6 E651.1 F505.2 ;horizontal move
G1 X59.6 Y97.4 E651.5 F1080.0 ;horizontal move
G1 X59.3 Y97.2 E651.8 ;horizontal move
G1 X58.9 Y97.1 E652.2 F537.7 ;horizontal move
G1 X59.2 Y96.8 E652.7 F1080.0 ;horizontal move
G1 X60.8 Y95.0 E655.1 ;horizontal move
G1 X62.6 Y93.4 E657.5 ;horizontal move
G1 X62.9 Y93.1 E657.9 F480.3 ;horizontal move
G1 X63.0 Y93.5 E658.3 F1080.0 ;horizontal move
G1 X63.6 Y95.3 E660.2 ;horizontal move
G1 X64.3 Y98.1 E663.1 ;horizontal move
G1 X64.6 Y101.0 E666.0 ;horizontal move
G1 X64.5 Y103.2 E668.2 ;horizontal move
G1 Y103.6 E668.6 F593.7 ;horizontal move
G1 X64.8 E668.9 F1080.0 ;horizontal move
G1 X65.1 E669.2 ;horizontal move
G1 X65.4 E669.5 F628.5 ;horizontal move
G1 Y103.2 E669.9 F1080.0 ;horizontal move
G1 X65.6 Y101.0 E672.1 ;horizontal move
G1 X65.4 Y98.2 E674.9 ;horizontal move
G1 X64.9 Y95.5 E677.7 ;horizontal move
G1 X64.0 Y92.7 E680.6 ;horizontal move
G1 X63.9 Y92.4 E680.9 F722.5 ;horizontal move
G1 X64.1 Y92.3 E681.2 F1080.0 ;horizontal move
G1 X65.7 Y91.2 E683.1 ;horizontal move
G1 X67.4 Y90.4 E685.0 ;horizontal move
G1 X67.6 Y90.3 E685.2 F883.7 ;horizontal move
G1 X67.7 E685.3 F1080.0 ;horizontal move
G1 X69.0 Y91.0 E686.8 ;horizontal move
G1 X70.9 Y92.1 E689.0 ;horizontal move
G1 X71.2 Y92.3 E689.3 F709.9 ;horizontal move
G1 X71.1 Y92.5 E689.6 F1080.0 ;horizontal move
G1 X70.1 Y95.5 E692.7 ;horizontal move
G1 X69.6 Y98.2 E695.5 ;horizontal move
G1 X69.4 Y101.0 E698.3 ;horizontal move
G1 X69.6 Y103.2 E700.5 ;horizontal move
G1 Y103.6 E700.9 F628.5 ;horizontal move
G1 X69.9 E701.2 F1080.0 ;horizontal move
G1 X70.2 E701.5 ;horizontal move
G1 X70.5 E701.8 F593.7 ;horizontal move
G1 Y103.2 E702.2 F1080.0 ;horizontal move
G1 X70.4 Y101.0 E704.4 ;horizontal move
G1 X70.7 Y98.1 E707.3 ;horizontal move
G1 X71.4 Y95.3 E710.2 ;horizontal move
G1 X72.1 Y93.4 E712.2 ;horizontal move
G1 X72.2 Y93.0 E712.6 F483.0 ;horizontal move
G1 X72.5 Y93.3 E713.0 F1080.0 ;horizontal move
G1 X74.5 Y95.1 E715.7 ;horizontal move
G1 X74.6 E715.8 ;horizontal move
G1 X76.3 Y97.1 E718.5 ;horizontal move
G1 X77.8 Y99.3 E721.1 ;horizontal move
G1 X78.8 Y101.0 E723.1 ;horizontal move
G1 X78.9 Y101.3 E723.4 F591.7 ;horizontal move
G1 X79.2 Y101.1 E723.8 F1080.0 ;horizontal move
G1 X79.4 Y101.0 E724.0 ;horizontal move
G1 X79.7 Y100.8 E724.4 F635.1 ;horizontal move
G1 X79.6 Y100.5 E724.7 F1080.0 ;horizontal move
G1 X78.9 Y99.0 E726.3 ;horizontal move
G1 X77.6 Y97.1 E728.6 ;horizontal move
G1 X76.2 Y95.3 E730.9 ;horizontal move
G1 X74.7 Y93.6 E733.2 ;horizontal move
G1 X72.9 Y92.1 E735.5 ;horizontal move
G1 X72.7 Y91.9 E735.8 F702.6 ;horizontal move
G1 X72.9 Y91.6 E736.2 F1080.0 ;horizontal move
G1 X73.7 Y90.0 E738.0 ;horizontal move
G1 X74.8 Y88.4 E739.9 ;horizontal move
G1 X74.9 Y88.3 E740.0 F883.3 ;horizontal move
G1 X75.0 E740.1 F1080.0 ;horizontal move
G1 X76.9 Y88.2 E742.0 ;horizontal move
G1 X78.8 E743.9 ;horizontal move
G1 X79.1 E744.2 F694.2 ;horizontal move
G1 Y88.5 E744.5 F1080.0 ;horizontal move
G1 X79.4 Y89.8 E745.9 ;horizontal move
G1 X80.0 Y92.3 E748.4 ;horizontal move
G1 X80.9 Y94.6 E750.9 ;horizontal move
G1 X82.1 Y96.9 E753.5 ;horizontal move
G1 X83.2 Y98.5 E755.4 ;horizontal move
G1 X83.3 Y98.8 E755.8 F630.6 ;horizontal move
G1 X83.6 Y98.6 E756.1 F1080.0 ;horizontal move
G1 X83.8 Y98.5 E756.3 ;horizontal move
G1 X84.1 Y98.3 E756.7 F593.0 ;horizontal move
G1 X83.9 Y98.0 E757.1 F1080.0 ;horizontal move
G1 X82.9 Y96.3 E759.0 ;horizontal move
G1 X81.8 Y93.8 E761.8 ;horizontal move
G1 X80.9 Y91.2 E764.5 ;horizontal move
G1 X80.4 Y88.7 E767.1 ;horizontal move
G1 X80.3 Y88.3 E767.5 F480.4 ;horizontal move
G1 X80.7 Y88.4 E767.9 F1080.0 ;horizontal move
G1 X83.4 Y89.0 E770.7 ;horizontal move
G1 X85.9 Y89.8 E773.3 ;horizontal move
G1 X88.4 Y90.9 E776.0 ;horizontal move
G1 X90.0 Y91.9 E777.9 ;horizontal move
G1 X90.3 Y92.1 E778.3 F592.3 ;horizontal move
G1 X90.5 Y91.8 E778.6 F1080.0 ;horizontal move
G1 X90.6 Y91.6 E778.9 ;horizontal move
G1 X90.8 Y91.3 E779.2 F632.9 ;horizontal move
G1 X90.5 Y91.1 E779.6 F1080.0 ;horizontal move
G1 X89.1 Y90.2 E781.2 ;horizontal move
G1 X87.1 Y89.1 E783.5 ;horizontal move
G1 X85.0 Y88.2 E785.8 ;horizontal move
G1 X84.9 E785.9 ;horizontal move
G1 X82.8 Y87.6 E788.1 ;horizontal move
G1 X80.5 Y87.1 E790.4 ;horizontal move
G1 X80.2 E790.7 F712.3 ;horizontal move
G1 Y86.8 E791.0 F1080.0 ;horizontal move
G1 Y85.8 E792.0 ;horizontal move
G1 X80.3 Y83.1 E794.7 ;horizontal move
G1 Y83.0 E794.8 F876.6 ;horizontal move
G1 X80.4 Y82.9 E795.0 F1080.0 ;horizontal move
G1 X81.9 Y81.9 E796.8 ;horizontal move
G1 X83.7 Y80.9 E798.8 ;horizontal move
G1 X83.9 Y80.8 E799.1 F718.1 ;horizontal move
G1 X84.1 Y81.0 E799.4 F1080.0 ;horizontal move
G1 X86.0 Y83.1 E802.2 ;horizontal move
G1 X88.2 Y85.0 E805.1 ;horizontal move
G1 X90.6 Y86.6 E808.0 ;horizontal move
G1 X92.5 Y87.6 E810.1 ;horizontal move
G1 X92.8 Y87.7 E810.4 F629.6 ;horizontal move
G1 X93.0 Y87.4 E810.8 F1080.0 ;horizontal move
G1 X93.1 Y87.2 E811.0 ;horizontal move
G1 X93.3 Y86.9 E811.4 F591.4 ;horizontal move
G1 X93.0 Y86.8 E811.7 F1080.0 ;horizontal move
G1 X91.3 Y85.9 E813.6 ;horizontal move
G1 X89.2 Y84.4 E816.2 ;horizontal move
G1 X87.2 Y82.6 E818.9 ;horizontal move
G1 X85.4 Y80.6 E821.6 ;horizontal move
G1 X85.1 Y80.3 E822.0 F480.3 ;horizontal move
G1 X85.5 Y80.2 E822.4 F1080.0 ;horizontal move
G1 X87.2 Y79.6 E824.2 ;horizontal move
G1 X90.1 Y78.9 E827.2 ;horizontal move
G1 X90.5 E827.6 F533.9 ;horizontal move
G1 Y79.2 E827.9 F1080.0 ;horizontal move
G1 Y79.6 E828.3 ;horizontal move
G1 Y80.0 E828.7 F505.1 ;horizontal move
G1 X90.8 Y79.9 E829.0 F1080.0 ;horizontal move
G1 X94.6 Y78.6 E833.0 ;horizontal move
G1 X95.0 Y78.5 E833.5 F360.0 ;horizontal move
G1 X94.6 Y78.4 E833.9 F1080.0 ;horizontal move
G1 X90.8 Y77.1 E837.9 ;horizontal move
G1 X90.5 Y77.0 E838.2 F505.1 ;horizontal move
G1 Y77.4 E838.6 F1080.0 ;horizontal move
G1 Y77.8 E839.0 ;horizontal move
G1 Y78.0 E839.2 F680.5 ;horizontal move
G1 X90.2 Y78.1 E839.5 F1080.0 ;horizontal move
G1 X87.4 Y78.6 E842.4 ;horizontal move
G1 X84.7 Y79.3 E845.1 ;horizontal move
G1 X84.5 Y79.4 E845.4 F729.6 ;horizontal move
G1 X84.3 Y79.2 E845.7 F1080.0 ;horizontal move
G1 X83.3 Y77.5 E847.6 ;horizontal move
G1 X82.4 Y75.7 E849.6 ;horizontal move
G1 X82.3 Y75.6 E849.8 F879.5 ;horizontal move
G1 X82.4 Y75.4 E850.0 F1080.0 ;horizontal move
G1 X83.2 Y73.9 E851.7 ;horizontal move
G1 X84.4 Y71.8 E854.1 ;horizontal move
G1 X84.6 Y71.6 E854.4 F733.1 ;horizontal move
G1 X84.8 Y71.7 E854.6 F1080.0 ;horizontal move
G1 X87.4 Y72.4 E857.3 ;horizontal move
G1 X90.2 Y72.9 E860.2 ;horizontal move
G1 X90.5 Y73.0 E860.5 F680.5 ;horizontal move
G1 Y73.2 E860.7 F1080.0 ;horizontal move
G1 Y73.6 E861.1 ;horizontal move
G1 Y74.0 E861.5 F505.1 ;horizontal move
G1 X90.8 Y73.9 E861.8 F1080.0 ;horizontal move
G1 X94.6 Y72.6 E865.8 ;horizontal move
G1 X95.0 Y72.5 E866.2 F360.0 ;horizontal move
G1 X94.6 Y72.4 E866.6 F1080.0 ;horizontal move
G1 X90.8 Y71.1 E870.7 ;horizontal move
G1 X90.5 Y71.0 E871.0 F505.1 ;horizontal move
G1 Y71.4 E871.4 F1080.0 ;horizontal move
G1 Y71.8 E871.8 ;horizontal move
G1 Y72.1 E872.1 F533.9 ;horizontal move
G1 X90.1 E872.5 F1080.0 ;horizontal move
G1 X87.2 Y71.4 E875.5 ;horizontal move
G1 X85.6 Y70.9 E877.1 ;horizontal move
G1 X85.2 Y70.8 E877.5 F476.3 ;horizontal move
G1 X85.5 Y70.5 E878.0 F1080.0 ;horizontal move
G1 X87.1 Y68.7 E880.4 ;horizontal move
G1 X88.8 Y67.2 E882.6 ;horizontal move
G1 X89.1 Y66.9 E883.1 F538.2 ;horizontal move
G1 X89.2 Y67.3 E883.5 F1080.0 ;horizontal move
G1 X89.4 Y67.6 E883.8 ;horizontal move
G1 X89.6 Y67.9 E884.2 F505.2 ;horizontal move
G1 X89.9 Y67.7 E884.6 F1080.0 ;horizontal move
G1 X92.5 Y64.7 E888.5 ;horizontal move
G1 X92.8 Y64.4 E889.0 F359.8 ;horizontal move
G1 X92.4 E889.4 F1080.0 ;horizontal move
G1 X88.5 Y65.2 E893.3 ;horizontal move
G1 X88.1 Y65.3 E893.8 F503.9 ;horizontal move
G1 X88.3 Y65.6 E894.1 F1080.0 ;horizontal move
G1 X88.5 Y66.0 E894.6 ;horizontal move
G1 X88.7 Y66.2 E894.8 F676.3 ;horizontal move
G1 X88.4 Y66.4 E895.2 F1080.0 ;horizontal move
G1 X86.3 Y68.2 E898.0 ;horizontal move
G1 X84.4 Y70.1 E900.7 ;horizontal move
G1 X84.2 Y70.3 E900.9 F734.6 ;horizontal move
G1 X84.0 Y70.2 E901.2 F1080.0 ;horizontal move
G1 X81.9 Y69.1 E903.5 ;horizontal move
G1 X80.5 Y68.2 E905.2 ;horizontal move
G1 X80.3 Y68.1 E905.4 F875.4 ;horizontal move
G1 Y67.9 E905.6 F1080.0 ;horizontal move
G1 X80.2 Y65.9 E907.6 ;horizontal move
G1 X80.3 Y63.9 E909.6 ;horizontal move
G1 X80.4 Y63.6 E909.9 F729.7 ;horizontal move
G1 X80.6 Y63.5 E910.2 F1080.0 ;horizontal move
G1 X81.6 Y63.3 E911.2 ;horizontal move
G1 X83.6 Y62.8 E913.2 ;horizontal move
G1 X85.8 Y61.9 E915.6 ;horizontal move
G1 X86.1 Y61.8 E915.9 F672.8 ;horizontal move
G1 X86.3 Y62.1 E916.3 F1080.0 ;horizontal move
G1 X86.4 Y62.4 E916.6 ;horizontal move
G1 X86.6 Y62.7 E917.0 F504.6 ;horizontal move
G1 X86.9 Y62.4 E917.4 F1080.0 ;horizontal move
G1 X89.5 Y59.5 E921.3 ;horizontal move
G1 X89.8 Y59.2 E921.7 F359.8 ;horizontal move
G1 X89.4 E922.1 F1080.0 ;horizontal move
G1 X85.5 Y60.0 E926.1 ;horizontal move
G1 X85.1 Y60.1 E926.5 F505.3 ;horizontal move
G1 X85.3 Y60.4 E926.9 F1080.0 ;horizontal move
G1 X85.5 Y60.8 E927.3 ;horizontal move
G1 X85.7 Y61.1 E927.7 F535.6 ;horizontal move
G1 X85.3 Y61.2 E928.1 F1080.0 ;horizontal move
G1 X82.8 Y62.0 E930.7 ;horizontal move
G1 X80.9 Y62.4 E932.7 ;horizontal move
G1 X80.5 Y62.5 E933.1 F474.9 ;horizontal move
G1 X80.6 Y62.1 E933.5 F1080.0 ;horizontal move
G1 X81.1 Y59.8 E935.8 ;horizontal move
G1 X81.8 Y57.7 E938.1 ;horizontal move
G1 X81.9 Y57.3 E938.5 F537.8 ;horizontal move
G1 X82.2 Y57.5 E938.8 F1080.0 ;horizontal move
G1 X82.6 Y57.7 E939.3 ;horizontal move
G1 X82.9 Y57.9 E939.6 F505.3 ;horizontal move
G1 X83.0 Y57.5 E940.0 F1080.0 ;horizontal move
G1 X83.8 Y53.6 E944.0 ;horizontal move
G1 Y53.2 E944.4 F314.9 ;horizontal move
G1 X83.6 Y53.6 E944.9 F1080.0 ;horizontal move
G1 X83.1 Y54.6 E946.0 ;horizontal move
G1 F1200.0; feed for start of next move
G1 E937.7; extruder retraction
G1 F600.0; feed for start of next move
G1 X82.9 Y54.9 F1200.0 ;horizontal move
G4 P100 ;delay
G1 E944.3; extruder dwell
G1 F600.0; feed for start of next move
G1 X81.4 Y56.3 E946.4 ;horizontal move
G1 F1200.0; feed for start of next move
G1 E938.0; extruder retraction
G1 F600.0; feed for start of next move
G1 X81.0 Y56.0 F1200.0 ;horizontal move
G1 X77.8 Y53.4 ;horizontal move
G1 X77.4 Y53.1 F600.0 ;horizontal move
G4 P100 ;delay
G1 F1200.0; feed for start of next move
G1 E944.7; extruder dwell
G1 F600.0; feed for start of next move
G1 X76.8 Y53.7 E945.6 ;horizontal move
G1 F1200.0; feed for start of next move
G1 E937.2; extruder retraction
G1 F600.0; feed for start of next move
G1 X76.6 Y54.1 F1200.0 ;horizontal move
G1 X72.8 Y59.9 ;horizontal move
G1 X72.6 Y60.3 F600.0 ;horizontal move
G4 P100 ;delay
G1 F1200.0; feed for start of next move
G1 E943.9; extruder dwell
G1 F600.0; feed for start of next move
G1 X72.7 E944.0 F514.1 ;horizontal move
G1 X73.2 Y61.3 E945.1 F480.4 ;horizontal move
G1 X73.6 Y61.8 E945.8 F575.2 ;horizontal move
G1 X73.5 Y61.9 E945.9 F568.3 ;horizontal move
G1 X74.2 Y63.2 E947.4 F523.9 ;horizontal move
G1 X74.4 Y63.3 E947.6 F508.6 ;horizontal move
G1 X74.5 E947.7 F600.0 ;horizontal move
G1 F1200.0; feed for start of next move
G1 E939.4; extruder retraction
G1 F600.0; feed for start of next move
G1 X74.8 Y63.7 F1200.0 ;horizontal move
G1 X75.2 Y64.2 ;horizontal move
G1 X75.5 Y64.6 F600.0 ;horizontal move
G4 P100 ;delay
G1 F1200.0; feed for start of next move
G1 E946.0; extruder dwell
G1 F600.0; feed for start of next move
G1 X75.6 E946.1 F591.1 ;horizontal move
G1 X76.7 Y65.8 E947.8 F596.4 ;horizontal move
G1 F1200.0; feed for start of next move
G1 E939.4; extruder retraction
G1 F600.0; feed for start of next move
G1 X77.0 Y66.1 F1174.0 ;horizontal move
G1 X77.3 Y66.4 F600.0 ;horizontal move
G4 P100 ;delay
G1 F1200.0; feed for start of next move
G1 E946.1; extruder dwell
G1 F600.0; feed for start of next move
G1 X77.8 Y66.9 E946.8 F480.7 ;horizontal move
G1 X77.9 Y67.0 E946.9 F586.0 ;horizontal move
G1 X78.0 E947.0 F600.0 ;horizontal move
G1 F1200.0; feed for start of next move
G1 E938.7; extruder retraction
G1 F600.0; feed for start of next move
G1 X78.4 Y67.2 F1200.0 ;horizontal move
G1 X79.3 Y67.5 ;horizontal move
G1 X79.7 Y67.7 F600.0 ;horizontal move
G4 P100 ;delay
G1 F1200.0; feed for start of next move
G1 E945.4; extruder dwell
G1 F600.0; feed for start of next move
G1 X79.6 Y67.8 E945.5 F510.4 ;horizontal move
G1 Y68.3 E946.0 F531.1 ;horizontal move
G1 X79.7 Y68.4 E946.2 F512.5 ;horizontal move
G1 X79.8 Y68.6 E946.4 F529.3 ;horizontal move
G1 X80.7 Y69.1 E947.4 F564.2 ;horizontal move
G1 F1200.0; feed for start of next move
G1 E939.1; extruder retraction
G1 F600.0; feed for start of next move
G1 Y69.5 F1200.0 ;horizontal move
G1 X80.4 Y71.4 ;horizontal move
G1 Y71.8 F600.0 ;horizontal move
G4 P100 ;delay
G1 F1200.0; feed for start of next move
G1 E945.7; extruder dwell
G1 F600.0; feed for start of next move
G1 X80.3 Y71.9 E945.9 F538.7 ;horizontal move
G1 X80.7 Y73.2 E947.2 F480.6 ;horizontal move
G1 X80.9 Y73.7 E947.8 F480.0 ;horizontal move
G1 F1200.0; feed for start of next move
G1 E939.4; extruder retraction
G1 F600.0; feed for start of next move
G1 X81.0 Y74.1 F1200.0 ;horizontal move
G1 X81.4 Y75.1 ;horizontal move
G1 X81.5 Y75.5 F600.0 ;horizontal move
G4 P100 ;delay
G1 F1200.0; feed for start of next move
G1 E946.1; extruder dwell
G1 F600.0; feed for start of next move
G1 X81.8 Y75.2 E946.5 F480.0 ;horizontal move
G1 X81.6 Y75.6 E947.0 ;horizontal move
G1 X82.0 Y76.3 E947.8 F600.0 ;horizontal move
G1 F1200.0; feed for start of next move
G1 E939.5; extruder retraction
G1 F600.0; feed for start of next move
G1 X82.2 Y76.7 F1177.0 ;horizontal move
G1 X82.3 Y77.1 F600.0 ;horizontal move
G4 P100 ;delay
G1 F1200.0; feed for start of next move
G1 E946.1; extruder dwell
G1 F600.0; feed for start of next move
G1 X83.2 Y78.6 E947.9 F529.7 ;horizontal move
G1 F1200.0; feed for start of next move
G1 E939.5; extruder retraction
G1 F600.0; feed for start of next move
G1 X82.8 F1200.0 ;horizontal move
G1 X80.9 Y78.9 ;horizontal move
G1 X80.5 F600.0 ;horizontal move
G4 P100 ;delay
G1 F1200.0; feed for start of next move
G1 E946.2; extruder dwell
G1 F600.0; feed for start of next move
G1 X80.4 Y79.0 E946.3 ;horizontal move
G1 F1200.0; feed for start of next move
G1 E938.0; extruder retraction
G1 F600.0; feed for start of next move
G1 X80.3 Y79.4 F1200.0 ;horizontal move
G1 X79.7 Y84.2 ;horizontal move
G1 X79.6 Y84.6 F600.0 ;horizontal move
G4 P100 ;delay
G1 F1200.0; feed for start of next move
G1 E944.7; extruder dwell
G1 F600.0; feed for start of next move
G1 X79.5 Y84.7 E944.8 F517.1 ;horizontal move
G1 Y87.0 E947.1 F480.0 ;horizontal move
G1 Y87.1 E947.2 F392.6 ;horizontal move
G1 X79.6 Y87.0 E947.4 F480.0 ;horizontal move
G1 F1200.0; feed for start of next move
G1 E939.0; extruder retraction
G1 F600.0; feed for start of next move
G1 X79.4 Y87.3 F1099.3 ;horizontal move
G1 X79.1 Y87.5 F600.0 ;horizontal move
G4 P100 ;delay
G1 F1200.0; feed for start of next move
G1 E945.7; extruder dwell
G1 F600.0; feed for start of next move
G1 X79.0 Y87.6 E945.8 F517.0 ;horizontal move
G1 X78.0 E946.8 F600.0 ;horizontal move
G1 F1200.0; feed for start of next move
G1 E938.5; extruder retraction
G1 F600.0; feed for start of next move
G1 X77.6 F1200.0 ;horizontal move
G1 X77.4 ;horizontal move
G1 X76.9 F600.0 ;horizontal move
G4 P100 ;delay
G1 F1200.0; feed for start of next move
G1 E945.2; extruder dwell
G1 F600.0; feed for start of next move
G1 X76.7 E945.4 F480.0 ;horizontal move
G1 X76.6 E945.5 F376.8 ;horizontal move
G1 X76.7 Y87.5 E945.6 F480.0 ;horizontal move
G1 F1200.0; feed for start of next move
G1 E937.3; extruder retraction
G1 F600.0; feed for start of next move
G1 X76.4 Y87.8 F1200.0 ;horizontal move
G1 X72.1 Y92.1 ;horizontal move
G1 X71.8 Y92.4 F600.0 ;horizontal move
G4 P100 ;delay
G1 F1200.0; feed for start of next move
G1 E943.9; extruder dwell
G1 F600.0; feed for start of next move
G1 X71.7 Y92.5 E944.1 ;horizontal move
G1 F1200.0; feed for start of next move
G1 E935.8; extruder retraction
G1 F600.0; feed for start of next move
G1 X71.4 Y92.2 F1200.0 ;horizontal move
G1 X69.3 Y90.6 ;horizontal move
G1 X69.0 Y90.3 F600.0 ;horizontal move
G4 P100 ;delay
G1 F1200.0; feed for start of next move
G1 E942.4; extruder dwell
G1 F600.0; feed for start of next move
G1 X70.1 Y89.3 E943.9 ;horizontal move
G1 F1200.0; feed for start of next move
G1 E935.6; extruder retraction
G1 F600.0; feed for start of next move
G1 X69.7 F1200.0 ;horizontal move
G1 X66.1 Y88.9 ;horizontal move
G1 X65.7 F600.0 ;horizontal move
G4 P100 ;delay
G1 F1200.0; feed for start of next move
G1 E942.2; extruder dwell
G1 F600.0; feed for start of next move
G1 X65.0 Y88.7 E943.0 F480.1 ;horizontal move
G1 X63.8 Y88.4 E944.2 F480.0 ;horizontal move
G1 X63.9 Y88.3 E944.3 ;horizontal move
G1 F1200.0; feed for start of next move
G1 E936.0; extruder retraction
G1 F600.0; feed for start of next move
G1 X63.8 Y88.7 F1200.0 ;horizontal move
G1 X63.0 Y91.3 ;horizontal move
G1 X62.9 Y91.7 F600.0 ;horizontal move
G4 P100 ;delay
G1 F1200.0; feed for start of next move
G1 E942.7; extruder dwell
G1 F600.0; feed for start of next move
G1 X62.0 Y90.2 E944.4 F565.6 ;horizontal move
G1 X62.1 Y90.1 E944.6 F568.3 ;horizontal move
G1 X61.2 Y88.6 E946.3 F520.8 ;horizontal move
G1 X61.1 Y88.7 E946.5 F538.0 ;horizontal move
G1 X60.5 Y87.7 E947.6 F531.8 ;horizontal move
G1 X59.7 E948.4 F480.0 ;horizontal move
G1 X59.8 Y87.6 E948.6 ;horizontal move
G1 F1200.0; feed for start of next move
G1 E940.2; extruder retraction
G1 F600.0; feed for start of next move
G1 X59.6 Y87.2 F1200.0 ;horizontal move
G1 X59.3 Y86.3 ;horizontal move
G1 X59.1 Y85.9 F600.0 ;horizontal move
G4 P100 ;delay
G1 F1200.0; feed for start of next move
G1 E946.9; extruder dwell
G1 F600.0; feed for start of next move
G1 X59.0 Y86.0 E947.0 F591.1 ;horizontal move
G1 X58.1 Y85.0 E948.4 F600.0 ;horizontal move
G1 F1200.0; feed for start of next move
G1 E940.1; extruder retraction
G1 F600.0; feed for start of next move
G1 X57.8 Y84.7 F1174.0 ;horizontal move
G1 X57.5 Y84.4 F600.0 ;horizontal move
G4 P100 ;delay
G1 F1200.0; feed for start of next move
G1 E946.7; extruder dwell
G1 F600.0; feed for start of next move
G1 X57.2 Y84.1 E947.1 F480.7 ;horizontal move
G1 X56.6 Y83.6 E947.9 F586.0 ;horizontal move
G1 F1200.0; feed for start of next move
G1 E939.6; extruder retraction
G1 F600.0; feed for start of next move
G1 X56.3 Y83.3 F1200.0 ;horizontal move
G1 X55.6 Y82.8 ;horizontal move
G1 X55.3 Y82.5 F600.0 ;horizontal move
G4 P100 ;delay
G1 F1200.0; feed for start of next move
G1 E946.3; extruder dwell
G1 F600.0; feed for start of next move
G1 X55.2 E946.4 ;horizontal move
G1 F1200.0; feed for start of next move
G1 E938.0; extruder retraction
G1 F600.0; feed for start of next move
G1 X55.1 Y82.1 F1200.0 ;horizontal move
G1 X55.0 Y80.8 ;horizontal move
G1 X54.9 Y80.4 F600.0 ;horizontal move
G4 P100 ;delay
G1 F1200.0; feed for start of next move
G1 E944.7; extruder dwell
G1 F600.0; feed for start of next move
G1 X54.7 Y79.9 E945.2 F485.6 ;horizontal move
G1 X54.6 Y79.0 E946.1 F482.1 ;horizontal move
G1 X54.5 Y78.5 E946.6 F542.8 ;horizontal move
G1 X54.3 Y77.8 E947.4 F480.6 ;horizontal move
G1 X53.9 Y76.6 E948.6 F480.0 ;horizontal move
G1 F1200.0; feed for start of next move
G1 E940.3; extruder retraction
G1 F600.0; feed for start of next move
G1 X53.8 Y76.2 F1200.0 ;horizontal move
G1 X53.4 Y75.2 ;horizontal move
G1 X53.3 Y74.8 F600.0 ;horizontal move
G4 P100 ;delay
G1 F1200.0; feed for start of next move
G1 E947.0; extruder dwell
G1 F600.0; feed for start of next move
G1 X53.2 Y75.0 E947.2 F507.7 ;horizontal move
G1 X52.4 Y73.4 E949.0 F563.1 ;horizontal move
G1 Y73.3 E949.1 F571.9 ;horizontal move
G1 X51.5 Y71.8 E950.8 F529.7 ;horizontal move
G1 X51.4 Y71.9 E951.0 F600.0 ;horizontal move
G1 F1200.0; feed for start of next move
G1 E942.6; extruder retraction
G1 F600.0; feed for start of next move
G1 X51.8 Y71.8 F1200.0 ;horizontal move
G1 X54.5 Y71.0 ;horizontal move
G1 X54.9 Y70.9 F600.0 ;horizontal move
G4 P100 ;delay
G1 F1200.0; feed for start of next move
G1 E949.3; extruder dwell
G1 F600.0; feed for start of next move
G1 X55.0 Y70.8 E949.5 ;horizontal move
G1 F1200.0; feed for start of next move
G1 E941.1; extruder retraction
G1 F600.0; feed for start of next move
G1 X54.8 Y70.4 F1200.0 ;horizontal move
G1 X54.4 Y69.5 ;horizontal move
G1 X54.2 Y69.1 F600.0 ;horizontal move
G4 P100 ;delay
G1 F1200.0; feed for start of next move
G1 E947.8; extruder dwell
G1 F600.0; feed for start of next move
G1 X54.3 E947.9 ;horizontal move
G1 F1200.0; feed for start of next move
G1 E939.6; extruder retraction
G1 F600.0; feed for start of next move
G1 X54.4 Y68.7 F1200.0 ;horizontal move
G1 X55.3 Y65.9 ;horizontal move
G1 X55.4 Y65.5 F600.0 ;horizontal move
G4 P100 ;delay
G1 F1200.0; feed for start of next move
G1 E946.2; extruder dwell
G1 F600.0; feed for start of next move
G1 X55.5 Y65.4 E946.4 ;horizontal move
G1 F1200.0; feed for start of next move
G1 E938.0; extruder retraction
G1 F600.0; feed for start of next move
G1 X55.8 Y65.1 F1200.0 ;horizontal move
G1 X57.2 Y63.7 ;horizontal move
G1 X57.5 Y63.4 F600.0 ;horizontal move
G4 P100 ;delay
G1 F1200.0; feed for start of next move
G1 E944.7; extruder dwell
G1 F600.0; feed for start of next move
G1 Y63.5 E944.8 F480.0 ;horizontal move
G1 X57.4 E944.9 F392.6 ;horizontal move
G1 X57.5 E945.0 F480.0 ;horizontal move
G1 X59.8 E947.3 ;horizontal move
G1 X60.0 Y63.3 E947.6 F600.0 ;horizontal move
G1 F1200.0; feed for start of next move
G1 E939.2; extruder retraction
G1 F600.0; feed for start of next move
G1 X60.3 Y63.0 F1200.0 ;horizontal move
G1 X61.0 Y62.3 ;horizontal move
G1 X61.3 Y62.0 F600.0 ;horizontal move
G4 P100 ;delay
G1 F1200.0; feed for start of next move
G1 E945.9; extruder dwell
G1 F600.0; feed for start of next move
G1 X61.6 Y61.7 E946.3 ;horizontal move
G1 F1200.0; feed for start of next move
G1 E938.0; extruder retraction
G1 F600.0; feed for start of next move
G1 X61.9 Y62.0 F1200.0 ;horizontal move
G1 X62.6 Y62.6 ;horizontal move
G1 X62.9 Y62.9 F600.0 ;horizontal move
G4 P100 ;delay
G1 F1200.0; feed for start of next move
G1 E944.7; extruder dwell
G1 F600.0; feed for start of next move
G1 X62.8 Y63.0 E944.8 ;horizontal move
G1 F1200.0; feed for start of next move
G1 E936.5; extruder retraction
G1 F600.0; feed for start of next move
G1 X63.0 Y62.6 F1200.0 ;horizontal move
G1 X64.4 Y60.3 ;horizontal move
G1 X64.6 Y59.9 F600.0 ;horizontal move
G4 P100 ;delay
G1 F1200.0; feed for start of next move
G1 E943.1; extruder dwell
G1 F600.0; feed for start of next move
G1 X63.9 Y59.4 E944.0 F570.9 ;horizontal move
G1 X63.8 Y59.5 E944.1 F600.0 ;horizontal move
G1 F1200.0; feed for start of next move
G1 E935.8; extruder retraction
G1 F600.0; feed for start of next move
G1 X64.2 Y59.7 F1200.0 ;horizontal move
G1 X66.4 Y61.1 ;horizontal move
G1 X66.8 Y61.3 F600.0 ;horizontal move
G4 P100 ;delay
G1 F1200.0; feed for start of next move
G1 E942.5; extruder dwell
G1 F600.0; feed for start of next move
G1 X67.0 Y61.2 E942.7 ;horizontal move
G1 F1200.0; feed for start of next move
G1 E934.4; extruder retraction
G1 F600.0; feed for start of next move
G1 X67.4 Y61.4 F1200.0 ;horizontal move
G1 X68.2 Y61.7 ;horizontal move
G1 X68.6 Y61.9 F600.0 ;horizontal move
G4 P100 ;delay
G1 F1200.0; feed for start of next move
G1 E941.0; extruder dwell
G1 F600.0; feed for start of next move
G1 X68.8 Y62.0 E941.3 F480.0 ;horizontal move
G1 X70.5 Y62.5 E943.0 F542.5 ;horizontal move
G1 Y62.4 E943.1 F600.0 ;horizontal move
G1 F1200.0; feed for start of next move
G1 E934.8; extruder retraction
G1 F600.0; feed for start of next move
G1 X70.9 Y62.6 F1200.0 ;horizontal move
G1 X90.7 Y73.0 ;horizontal move
G1 X91.1 Y73.2 F600.0 ;horizontal move
G4 P100 ;delay
G1 F1200.0; feed for start of next move
G1 E941.5; extruder dwell
G1 F600.0; feed for start of next move
G1 X92.0 Y72.2 E942.8 ;horizontal move
G1 F1200.0; feed for start of next move
G1 E934.5; extruder retraction
G1 F600.0; feed for start of next move
G1 X91.9 Y72.6 F1200.0 ;horizontal move
G1 X91.3 Y77.5 ;horizontal move
G1 X91.2 Y77.9 F600.0 ;horizontal move
G4 P100 ;delay
G1 F1200.0; feed for start of next move
G1 E941.1; extruder dwell
G1 F600.0; feed for start of next move
G1 X91.1 Y78.0 E941.3 F515.1 ;horizontal move
G1 Y79.2 E942.5 F505.1 ;horizontal move
G1 X92.8 Y78.6 E944.3 F492.7 ;horizontal move
G1 X93.0 Y78.5 E944.5 F600.0 ;horizontal move
G1 F1200.0; feed for start of next move
G1 E936.2; extruder retraction
G1 F600.0; feed for start of next move
G1 X92.8 Y78.1 F1200.0 ;horizontal move
G1 X86.5 Y61.4 ;horizontal move
G1 X86.3 Y61.0 F600.0 ;horizontal move
G4 P100 ;delay
G1 F1200.0; feed for start of next move
G1 E942.8; extruder dwell
G1 F600.0; feed for start of next move
G1 X87.0 Y60.3 E943.8 ;horizontal move
G1 F1200.0; feed for start of next move
G1 E935.5; extruder retraction
G1 F600.0; feed for start of next move
G1 X86.6 Y60.4 F1200.0 ;horizontal move
G1 X44.3 Y72.1 ;horizontal move
G1 X43.9 Y72.2 F600.0 ;horizontal move
G4 P100 ;delay
G1 F1200.0; feed for start of next move
G1 E942.2; extruder dwell
G1 F600.0; feed for start of next move
G1 X43.2 Y72.9 E943.2 ;horizontal move
G1 F1200.0; feed for start of next move
G1 E934.8; extruder retraction
G1 F600.0; feed for start of next move
G1 Y73.3 F1200.0 ;horizontal move
G1 X42.7 Y77.8 ;horizontal move
G1 Y78.2 F600.0 ;horizontal move
G4 P100 ;delay
G1 F1200.0; feed for start of next move
G1 E941.5; extruder dwell
G1 F600.0; feed for start of next move
G1 X42.3 Y78.6 E942.1 ;horizontal move
G1 F1200.0; feed for start of next move
G1 E933.7; extruder retraction
G1 F600.0; feed for start of next move
G1 X42.5 Y79.0 F1200.0 ;horizontal move
G1 X45.5 Y84.4 ;horizontal move
G1 X45.7 Y84.8 F600.0 ;horizontal move
G4 P100 ;delay
G1 F1200.0; feed for start of next move
G1 E940.4; extruder dwell
G1 F600.0; feed for start of next move
G1 X45.1 Y85.4 E941.2 ;horizontal move
G1 F1200.0; feed for start of next move
G1 E932.9; extruder retraction
G1 F600.0; feed for start of next move
G1 X45.4 Y85.8 F1200.0 ;horizontal move
G1 X48.0 Y89.0 ;horizontal move
G1 X48.3 Y89.4 F600.0 ;horizontal move
G4 P100 ;delay
G1 F1200.0; feed for start of next move
G1 E939.6; extruder dwell
G1 F600.0; feed for start of next move
G1 X46.9 Y90.9 E941.6 ;horizontal move
G1 F1200.0; feed for start of next move
G1 E933.3; extruder retraction
G1 F600.0; feed for start of next move
G1 X47.3 Y91.2 F1200.0 ;horizontal move
G1 X51.9 Y94.7 ;horizontal move
G1 X52.3 Y95.0 F600.0 ;horizontal move
G4 P100 ;delay
G1 F1200.0; feed for start of next move
G1 E940.0; extruder dwell
G1 F600.0; feed for start of next move
G1 X53.0 Y94.3 E940.9 ;horizontal move
G1 F1200.0; feed for start of next move
G1 E932.6; extruder retraction
G1 F600.0; feed for start of next move
M106 ;cooler on
G1 X52.6 F1200.0 ;horizontal move
G1 X-249.5 ;horizontal move
G1 X-250.0 F600.0 ;horizontal move
G92 X0 ;set x 0
G1 Y93.9 F1200.0 ;horizontal move
G1 Y-249.5 ;horizontal move
G1 Y-250.0 F600.0 ;horizontal move
G92 Y0 ;set y 0
G92 E0 ;zero the extruded length
;#!LAYER: 5/8
M107 ;cooler off
G4 P20 ;delay
G1 F40.0; feed for start of next move
G1 Z3.5 F67.8 ;z move
G1 Z4.0 F40.0 ;z move
G1 F600.0; feed for start of next move
G1 X0.3 Y0.4 F1200.0 ;horizontal move
G1 X31.7 Y39.6 ;horizontal move
G1 X32.0 Y40.0 F600.0 ;horizontal move
G4 P100 ;delay
G1 F1200.0; feed for start of next move
G1 E6.7; extruder dwell
G1 F600.0; feed for start of next move
G1 X30.0 Y49.9 E16.8 F480.0 ;horizontal move
G1 Y50.0 E16.9 F305.8 ;horizontal move
G1 Y49.9 E17.0 F480.0 ;horizontal move
G1 Y38.0 E28.9 ;horizontal move
G1 X52.0 E50.9 F600.0 ;horizontal move
G1 F1200.0; feed for start of next move
G1 E42.5; extruder retraction
G1 F600.0; feed for start of next move
G1 X52.1 Y38.4 F1200.0 ;horizontal move
G1 X55.4 Y64.7 ;horizontal move
G1 X55.5 Y65.1 F600.0 ;horizontal move
G4 P100 ;delay
G1 F1200.0; feed for start of next move
G1 E49.2; extruder dwell
G1 F600.0; feed for start of next move
G1 Y64.8 E49.5 F1080.0 ;horizontal move
G1 Y64.3 E50.0 ;horizontal move
G1 Y63.9 E50.4 F513.4 ;horizontal move
G1 X55.8 Y64.0 E50.7 F1080.0 ;horizontal move
G1 X56.0 Y64.1 E50.9 ;horizontal move
G1 X56.1 E51.0 F1065.2 ;horizontal move
G1 X58.6 E53.5 F1080.0 ;horizontal move
G1 X59.1 E54.0 F397.8 ;horizontal move
G1 X58.8 Y64.4 E54.5 F1080.0 ;horizontal move
G1 X57.7 Y65.6 E56.1 ;horizontal move
G1 X56.4 Y66.7 E57.8 ;horizontal move
G1 X56.1 Y67.0 E58.2 F400.8 ;horizontal move
G1 Y66.6 E58.6 F1080.0 ;horizontal move
G1 Y64.5 E60.7 ;horizontal move
G1 Y64.1 E61.1 F339.6 ;horizontal move
G1 X55.9 Y64.4 E61.5 F1080.0 ;horizontal move
G1 X55.6 Y64.8 E62.0 ;horizontal move
G1 F1200.0; feed for start of next move
G1 E53.6; extruder retraction
G1 F600.0; feed for start of next move
G1 X55.5 Y65.1 F1200.0 ;horizontal move
G1 F600.0; feed for start of next move
G1 Y65.5 F1200.0 ;horizontal move
G1 X55.3 Y68.1 ;horizontal move
G1 Y68.5 F600.0 ;horizontal move
G4 P100 ;delay
G1 F1200.0; feed for start of next move
G1 E60.3; extruder dwell
G1 F600.0; feed for start of next move
G1 X55.6 Y68.6 E60.6 F1080.0 ;horizontal move
G1 X55.8 E60.8 ;horizontal move
G1 X55.9 Y68.7 E61.0 F908.0 ;horizontal move
G1 X56.1 Y68.6 E61.2 F1080.0 ;horizontal move
G1 X57.6 Y67.4 E63.1 ;horizontal move
G1 X59.6 Y65.4 E65.9 ;horizontal move
G1 X60.8 Y64.0 E67.8 ;horizontal move
G1 Y63.9 E67.9 F968.8 ;horizontal move
G1 X60.9 E68.0 F1080.0 ;horizontal move
G1 X63.1 Y63.5 E70.2 ;horizontal move
G1 X65.2 Y62.9 E72.4 ;horizontal move
G1 X67.3 Y62.1 E74.7 ;horizontal move
G1 X67.4 E74.8 F955.0 ;horizontal move
G1 X67.5 E74.9 F1080.0 ;horizontal move
G1 X68.6 Y62.5 E76.0 ;horizontal move
G1 X71.2 Y63.3 E78.7 ;horizontal move
G1 X74.0 Y63.8 E81.6 ;horizontal move
G1 X74.1 E81.7 F965.7 ;horizontal move
G1 Y63.9 E81.8 F1080.0 ;horizontal move
G1 X75.4 Y65.4 E83.8 ;horizontal move
G1 X77.4 Y67.4 E86.6 ;horizontal move
G1 X79.1 Y68.7 E88.7 ;horizontal move
G1 X79.2 Y68.8 E88.9 F949.9 ;horizontal move
G1 Y68.9 E89.0 F1080.0 ;horizontal move
G1 X79.5 Y71.2 E91.3 ;horizontal move
G1 X80.1 Y73.4 E93.6 ;horizontal move
G1 X80.9 Y75.6 E95.9 ;horizontal move
G1 Y75.7 E96.0 ;horizontal move
G1 X80.1 Y77.7 E98.2 ;horizontal move
G1 X79.5 Y79.9 E100.5 ;horizontal move
G1 X79.1 Y82.2 E102.8 ;horizontal move
G1 Y82.3 E102.9 F959.5 ;horizontal move
G1 X79.0 Y82.4 E103.0 F1080.0 ;horizontal move
G1 X77.4 Y83.6 E105.0 ;horizontal move
G1 X75.4 Y85.6 E107.9 ;horizontal move
G1 X74.2 Y87.0 E109.7 ;horizontal move
G1 Y87.1 E109.8 F968.8 ;horizontal move
G1 X74.1 E109.9 F1080.0 ;horizontal move
G1 X71.9 Y87.5 E112.1 ;horizontal move
G1 X69.8 Y88.1 E114.3 ;horizontal move
G1 X67.3 Y89.1 E117.0 ;horizontal move
G1 X67.1 E117.2 F798.4 ;horizontal move
G1 X66.9 Y89.0 E117.4 F1080.0 ;horizontal move
G1 X66.4 Y88.5 E118.2 ;horizontal move
G1 Y88.4 E118.3 F1023.8 ;horizontal move
G1 X66.3 E118.4 F1080.0 ;horizontal move
G1 X63.8 Y87.7 E120.9 ;horizontal move
G1 X61.0 Y87.2 E123.8 ;horizontal move
G1 X60.9 E123.9 F965.7 ;horizontal move
G1 Y87.1 E124.0 F1080.0 ;horizontal move
G1 X59.6 Y85.6 E126.0 ;horizontal move
G1 X57.6 Y83.6 E128.8 ;horizontal move
G1 X55.9 Y82.3 E130.9 ;horizontal move
G1 X55.8 Y82.2 E131.1 F949.9 ;horizontal move
G1 Y82.1 E131.2 F1080.0 ;horizontal move
G1 X55.5 Y79.8 E133.5 ;horizontal move
G1 X54.9 Y77.6 E135.8 ;horizontal move
G1 X54.1 Y75.4 E138.1 ;horizontal move
G1 Y75.3 E138.2 ;horizontal move
G1 X54.9 Y73.3 E140.4 ;horizontal move
G1 X55.5 Y71.1 E142.7 ;horizontal move
G1 X55.9 Y69.0 E144.8 ;horizontal move
G1 Y68.7 E145.1 F613.3 ;horizontal move
G1 X55.6 Y68.6 E145.4 F1080.0 ;horizontal move
G1 F1200.0; feed for start of next move
G1 E137.1; extruder retraction
G1 F600.0; feed for start of next move
G1 X55.3 Y68.5 F1200.0 ;horizontal move
G1 F600.0; feed for start of next move
G1 X55.0 Y68.8 F1200.0 ;horizontal move
G1 X51.7 Y71.6 ;horizontal move
G1 X51.4 Y71.9 F600.0 ;horizontal move
G4 P100 ;delay
G1 F1200.0; feed for start of next move
G1 E143.7; extruder dwell
G1 F600.0; feed for start of next move
G1 X51.6 Y71.6 E144.1 F1080.0 ;horizontal move
G1 X51.7 Y71.2 E144.5 ;horizontal move
G1 Y71.1 E144.6 F941.7 ;horizontal move
G1 X51.8 Y71.0 E144.8 F1080.0 ;horizontal move
G1 X52.9 Y70.5 E146.0 ;horizontal move
G1 X54.2 Y69.8 E147.4 ;horizontal move
G1 X54.6 Y69.6 E147.9 F394.9 ;horizontal move
G1 X54.5 Y70.0 E148.3 F1080.0 ;horizontal move
G1 X53.8 Y72.7 E151.1 ;horizontal move
G1 X53.5 Y73.4 E151.9 ;horizontal move
G1 X53.4 Y73.8 E152.3 F408.5 ;horizontal move
G1 X53.2 Y73.5 E152.6 F1080.0 ;horizontal move
G1 X51.9 Y71.4 E155.1 ;horizontal move
G1 X51.7 Y71.1 E155.5 F410.4 ;horizontal move
G1 X51.6 Y71.5 E155.9 F1080.0 ;horizontal move
G1 Y71.6 E156.0 ;horizontal move
G1 F1200.0; feed for start of next move
G1 E147.6; extruder retraction
G1 F600.0; feed for start of next move
G1 X51.4 Y71.9 F1200.0 ;horizontal move
G1 F600.0; feed for start of next move
G1 X51.6 Y72.3 F1200.0 ;horizontal move
G1 X54.7 Y79.8 ;horizontal move
G1 X54.9 Y80.2 F600.0 ;horizontal move
G4 P100 ;delay
G1 F1200.0; feed for start of next move
G1 E154.3; extruder dwell
G1 F600.0; feed for start of next move
G1 X54.7 Y80.4 E154.6 F1080.0 ;horizontal move
G1 X54.5 Y80.6 E154.9 ;horizontal move
G1 X54.4 Y80.8 E155.1 F811.4 ;horizontal move
G1 X54.2 Y80.7 E155.3 F1080.0 ;horizontal move
G1 X52.5 Y80.3 E157.1 ;horizontal move
G1 X51.8 Y80.0 E157.8 ;horizontal move
G1 X51.5 Y79.8 E158.2 F558.8 ;horizontal move
G1 X51.7 Y79.5 E158.5 F1065.1 ;horizontal move
G1 X51.8 Y79.3 E158.8 F670.4 ;horizontal move
G1 X52.1 Y79.4 E159.1 F1080.0 ;horizontal move
G1 X54.2 Y80.4 E161.4 ;horizontal move
G1 X54.3 E161.5 F892.7 ;horizontal move
G1 Y80.5 E161.6 F962.2 ;horizontal move
G1 X54.4 Y80.8 E161.9 F421.4 ;horizontal move
G1 X54.7 Y80.5 E162.4 F1080.0 ;horizontal move
G1 Y80.4 E162.5 ;horizontal move
G1 F1200.0; feed for start of next move
G1 E154.1; extruder retraction
G1 F600.0; feed for start of next move
G1 X54.9 Y80.2 F1200.0 ;horizontal move
G1 F600.0; feed for start of next move
G1 X55.2 Y80.6 F1200.0 ;horizontal move
G1 X59.6 Y87.2 ;horizontal move
G1 X59.9 Y87.6 F600.0 ;horizontal move
G4 P100 ;delay
G1 F1200.0; feed for start of next move
G1 E160.8; extruder dwell
G1 F600.0; feed for start of next move
G1 X59.7 Y87.4 E161.1 F1080.0 ;horizontal move
G1 X59.3 Y87.1 E161.6 ;horizontal move
G1 X59.2 Y87.0 E161.7 F965.1 ;horizontal move
G1 X59.1 E161.8 F1080.0 ;horizontal move
G1 X56.1 Y87.2 E164.8 ;horizontal move
G1 X55.8 E165.1 F565.7 ;horizontal move
G1 Y86.9 E165.4 F1080.0 ;horizontal move
G1 X55.9 Y84.3 E168.0 ;horizontal move
G1 X56.0 Y83.9 E168.4 F409.6 ;horizontal move
G1 X56.3 Y84.1 E168.8 F1080.0 ;horizontal move
G1 X57.7 Y85.4 E170.7 ;horizontal move
G1 X59.2 Y87.0 E172.9 ;horizontal move
G1 X59.7 Y87.4 E173.5 ;horizontal move
G1 F1200.0; feed for start of next move
G1 E165.2; extruder retraction
G1 F600.0; feed for start of next move
G1 X59.9 Y87.6 F1200.0 ;horizontal move
G1 F600.0; feed for start of next move
G1 X60.2 Y87.9 F1200.0 ;horizontal move
G1 X61.0 Y88.7 ;horizontal move
G1 X61.3 Y89.0 F600.0 ;horizontal move
G4 P100 ;delay
G1 F1200.0; feed for start of next move
G1 E171.9; extruder dwell
G1 F600.0; feed for start of next move
G1 X61.6 Y88.8 E172.2 F1080.0 ;horizontal move
G1 X61.7 Y88.6 E172.5 ;horizontal move
G1 X61.9 Y88.5 E172.7 F886.9 ;horizontal move
G1 X62.0 E172.8 F1080.0 ;horizontal move
G1 X64.8 Y89.3 E175.7 ;horizontal move
G1 X65.7 Y89.5 E176.6 ;horizontal move
G1 X66.1 Y89.6 E177.0 F407.8 ;horizontal move
G1 X65.7 Y89.9 E177.5 F1080.0 ;horizontal move
G1 X63.7 Y91.2 E179.9 ;horizontal move
G1 X63.4 Y91.4 E180.3 F567.5 ;horizontal move
G1 X63.3 Y91.1 E180.6 F1080.0 ;horizontal move
G1 X62.8 Y90.2 E181.6 ;horizontal move
G1 X62.0 Y88.8 E183.2 ;horizontal move
G1 X61.9 Y88.5 E183.5 F551.7 ;horizontal move
G1 X61.6 Y88.7 E183.9 F1080.0 ;horizontal move
G1 Y88.8 E184.0 ;horizontal move
G1 F1200.0; feed for start of next move
G1 E175.7; extruder retraction
G1 F600.0; feed for start of next move
G1 X61.3 Y89.0 F1200.0 ;horizontal move
G1 F600.0; feed for start of next move
G1 X61.7 F1200.0 ;horizontal move
G1 X70.1 Y88.5 ;horizontal move
G1 X70.5 F600.0 ;horizontal move
G4 P100 ;delay
G1 F1200.0; feed for start of next move
G1 E182.3; extruder dwell
G1 F600.0; feed for start of next move
G1 X70.2 Y88.7 E182.7 F1080.0 ;horizontal move
G1 X69.8 Y89.2 E183.3 ;horizontal move
G1 X69.4 Y89.5 E183.8 F336.4 ;horizontal move
G1 X69.9 Y89.4 E184.4 F1080.0 ;horizontal move
G1 X72.7 Y88.6 E187.3 ;horizontal move
G1 X73.2 Y88.5 E187.8 F387.5 ;horizontal move
G1 X72.9 Y88.8 E188.2 F1080.0 ;horizontal move
G1 X72.2 Y90.1 E189.7 ;horizontal move
G1 Y90.2 E189.8 F1031.7 ;horizontal move
G1 X72.0 Y92.8 E192.4 F1080.0 ;horizontal move
G1 Y93.2 E192.8 F364.5 ;horizontal move
G1 X71.8 Y92.8 E193.2 F1080.0 ;horizontal move
G1 X71.7 E193.3 ;horizontal move
G1 Y92.7 E193.4 ;horizontal move
G1 X71.1 Y90.6 E195.6 ;horizontal move
G1 X71.0 Y90.3 E195.9 F577.1 ;horizontal move
G1 X70.7 Y90.4 E196.2 F1080.0 ;horizontal move
G1 X70.4 Y90.5 E196.6 ;horizontal move
G1 X70.2 Y90.6 E196.8 F725.2 ;horizontal move
G1 X70.0 Y90.3 E197.1 F1080.0 ;horizontal move
G1 X69.6 Y89.7 E197.9 ;horizontal move
G1 X69.4 Y89.5 E198.2 F678.7 ;horizontal move
G1 X69.7 Y89.3 E198.5 F1080.0 ;horizontal move
G1 X70.2 Y88.7 E199.3 ;horizontal move
G1 F1200.0; feed for start of next move
G1 E191.0; extruder retraction
G1 F600.0; feed for start of next move
G1 X70.5 Y88.5 F1200.0 ;horizontal move
G1 F600.0; feed for start of next move
G1 X70.9 Y88.3 F1200.0 ;horizontal move
G1 X75.9 Y85.8 ;horizontal move
G1 X76.3 Y85.6 F600.0 ;horizontal move
G4 P100 ;delay
G1 F1200.0; feed for start of next move
G1 E197.6; extruder dwell
G1 F600.0; feed for start of next move
G1 X76.5 Y85.4 E197.9 F1051.0 ;horizontal move
G1 X76.7 Y85.2 E198.2 F603.6 ;horizontal move
G1 X76.8 Y85.1 E198.3 F786.0 ;horizontal move
G1 X76.9 Y85.0 E198.5 F590.8 ;horizontal move
G1 X77.1 Y85.2 E198.8 F1041.1 ;horizontal move
G1 X77.3 Y85.4 E199.0 F614.7 ;horizontal move
G1 X77.6 Y85.2 E199.4 F1080.0 ;horizontal move
G1 X78.6 Y84.3 E200.7 ;horizontal move
G1 X78.9 Y84.0 E201.2 F400.8 ;horizontal move
G1 Y84.4 E201.6 F1080.0 ;horizontal move
G1 Y86.6 E203.8 ;horizontal move
G1 Y86.9 E204.1 F586.8 ;horizontal move
G1 X78.6 E204.4 F1080.0 ;horizontal move
G1 X76.4 E206.6 ;horizontal move
G1 X75.9 E207.1 F397.8 ;horizontal move
G1 X76.2 Y86.6 E207.5 F1080.0 ;horizontal move
G1 X77.0 Y85.8 E208.6 ;horizontal move
G1 X77.3 Y85.4 E209.1 F364.0 ;horizontal move
G1 X76.9 Y85.5 E209.5 F1080.0 ;horizontal move
G1 X76.6 E209.8 ;horizontal move
G1 F1200.0; feed for start of next move
G1 E201.5; extruder retraction
G1 F600.0; feed for start of next move
G1 X76.3 Y85.6 F1200.0 ;horizontal move
G1 F600.0; feed for start of next move
G1 X76.6 Y85.2 F1200.0 ;horizontal move
G1 X79.7 Y81.0 ;horizontal move
G1 X80.0 Y80.6 F600.0 ;horizontal move
G4 P100 ;delay
G1 F1200.0; feed for start of next move
G1 E208.2; extruder dwell
G1 F600.0; feed for start of next move
G1 Y80.2 E208.6 F1080.0 ;horizontal move
G1 X80.1 Y80.0 E208.8 ;horizontal move
G1 X80.2 Y79.5 E209.3 ;horizontal move
G1 X80.3 Y79.1 E209.7 F454.8 ;horizontal move
G1 X80.4 Y79.2 E209.9 F629.3 ;horizontal move
G1 X80.7 Y79.3 E210.2 F1080.0 ;horizontal move
G1 X82.9 Y79.8 E212.4 ;horizontal move
G1 X83.3 Y79.9 E212.8 F369.3 ;horizontal move
G1 X82.9 Y80.1 E213.3 F1080.0 ;horizontal move
G1 X82.1 Y80.5 E214.2 ;horizontal move
G1 X80.8 Y81.2 E215.7 ;horizontal move
G1 X80.4 Y81.4 E216.1 F394.9 ;horizontal move
G1 X80.5 Y81.0 E216.5 F1080.0 ;horizontal move
G1 X81.2 Y78.3 E219.3 ;horizontal move
G1 X81.5 Y77.6 E220.1 ;horizontal move
G1 X81.6 Y77.2 E220.5 F408.5 ;horizontal move
G1 X81.8 Y77.5 E220.8 F1080.0 ;horizontal move
G1 X83.1 Y79.6 E223.3 ;horizontal move
G1 X83.3 Y79.9 E223.7 F497.5 ;horizontal move
G1 X82.9 Y80.0 E224.1 F1080.0 ;horizontal move
G1 X80.3 Y80.5 E226.7 ;horizontal move
G1 F1200.0; feed for start of next move
G1 E218.4; extruder retraction
G1 F600.0; feed for start of next move
G1 X80.0 Y80.6 F1200.0 ;horizontal move
G1 F600.0; feed for start of next move
G1 X80.2 Y80.2 F1200.0 ;horizontal move
G1 X82.2 Y74.4 ;horizontal move
G1 X82.4 Y74.0 F600.0 ;horizontal move
G4 P100 ;delay
G1 F1200.0; feed for start of next move
G1 E225.1; extruder dwell
G1 F600.0; feed for start of next move
G1 X82.1 E225.4 F1080.0 ;horizontal move
G1 X81.9 E225.6 ;horizontal move
G1 X81.6 Y74.1 E225.9 F695.9 ;horizontal move
G1 Y73.8 E226.2 F1080.0 ;horizontal move
G1 X81.0 Y71.9 E228.2 ;horizontal move
G1 X80.6 Y70.1 E230.0 ;horizontal move
G1 X80.5 Y69.7 E230.4 F403.4 ;horizontal move
G1 X80.9 Y69.9 E230.9 F1080.0 ;horizontal move
G1 X82.1 Y70.5 E232.2 ;horizontal move
G1 X83.2 Y71.0 E233.4 ;horizontal move
G1 X83.5 Y71.2 E233.8 F558.8 ;horizontal move
G1 X83.3 Y71.5 E234.2 F1080.0 ;horizontal move
G1 X81.9 Y73.7 E236.8 ;horizontal move
G1 X81.6 Y74.1 E237.3 F414.5 ;horizontal move
G1 X82.1 Y74.0 E237.8 F1080.0 ;horizontal move
G1 F1200.0; feed for start of next move
G1 E229.4; extruder retraction
G1 F600.0; feed for start of next move
G1 X82.4 F1200.0 ;horizontal move
G1 F600.0; feed for start of next move
G1 X82.2 Y73.6 F1200.0 ;horizontal move
G1 X76.7 Y63.7 ;horizontal move
G1 X76.5 Y63.3 F600.0 ;horizontal move
G4 P100 ;delay
