; GCode generated by RepRap Java Host Software
; Created: 2010-02-25:18-49-07
G21 ;metric is good!
G90 ;absolute positioning
T0; select new extruder
M108 S0.6; set extruder PWM
G92 E0 ;zero the extruded length
G28; go home
G1 F600.0; feed for start of next move
G1 X0.3 Y0.3 F1200.0 ;horizontal move
G1 X4.7 Y4.7 ;horizontal move
G1 X5.0 Y5.0 F600.0 ;horizontal move
M109 S165.0 ;set temperature and wait
G1 F1200.0; feed for start of next move
G1 E200.0; extruder dwell
G1 F600.0; feed for start of next move
G28; go home
G92 E0 ;zero the extruded length
;#!LAYER: 1/12
M107 ;cooler off
G4 P20 ;delay
G1 F40.0; feed for start of next move
G1 Z-0.5 F67.8 ;z move
G1 Z0.0 F40.0 ;z move
G1 F600.0; feed for start of next move
G1 X-0.3 Y-0.3 F1200.0 ;horizontal move
G1 X-2.7 Y-2.7 ;horizontal move
G1 X-3.0 Y-3.0 F600.0 ;horizontal move
G1 F1200.0; feed for start of next move
G1 E20.0; extruder dwell
G1 F600.0; feed for start of next move
G1 F1200.0; feed for start of next move
G1 E30.0; extruder dwell
G1 F600.0; feed for start of next move
G1 X-5.0 Y6.9 E40.1 F480.0 ;horizontal move
G1 Y7.0 E40.2 F305.8 ;horizontal move
G1 Y6.9 E40.3 F480.0 ;horizontal move
G1 Y-5.0 E52.2 ;horizontal move
G1 X17.0 E74.2 F600.0 ;horizontal move
G1 F1200.0; feed for start of next move
G1 E64.2; extruder retraction
G1 F600.0; feed for start of next move
G1 X17.1 Y-4.6 F1200.0 ;horizontal move
G1 X38.7 Y85.6 ;horizontal move
G1 X38.8 Y86.0 F600.0 ;horizontal move
G1 F1200.0; feed for start of next move
G1 E79.2; extruder dwell
G1 F600.0; feed for start of next move
G1 F1200.0; feed for start of next move
G1 E89.2; extruder dwell
G1 F600.0; feed for start of next move
G1 X39.0 Y86.2 E89.5 F1080.0 ;horizontal move
G1 X39.2 Y86.5 E89.8 ;horizontal move
G1 X39.4 Y86.7 E90.1 F770.1 ;horizontal move
G1 X39.6 Y86.6 E90.3 F1080.0 ;horizontal move
G1 X40.4 Y86.2 E91.2 ;horizontal move
G1 X41.0 Y85.9 E91.9 ;horizontal move
G1 X42.9 Y85.4 E93.9 ;horizontal move
G1 X43.3 Y85.3 E94.3 F308.9 ;horizontal move
G1 X42.9 E94.7 F1080.0 ;horizontal move
G1 X42.8 E94.8 ;horizontal move
G1 X40.6 Y85.2 E97.0 ;horizontal move
G1 X39.0 Y85.0 E98.6 ;horizontal move
G1 X37.9 Y84.7 E99.7 ;horizontal move
G1 X37.0 Y84.4 E100.7 ;horizontal move
G1 X36.9 E100.8 F1062.1 ;horizontal move
G1 X36.2 Y83.9 E101.7 F1080.0 ;horizontal move
G1 X35.6 Y83.3 E102.5 ;horizontal move
G1 X35.1 Y82.6 E103.4 ;horizontal move
G1 X34.6 Y81.7 E104.4 ;horizontal move
G1 Y81.6 E104.5 ;horizontal move
G1 X34.2 Y80.6 E105.6 ;horizontal move
G1 X33.9 Y79.5 E106.7 ;horizontal move
G1 Y79.4 E106.8 F1074.0 ;horizontal move
G1 X33.8 Y78.3 E107.9 F1080.0 ;horizontal move
G1 X33.9 Y78.0 E108.2 ;horizontal move
G1 X34.0 Y76.9 E109.3 ;horizontal move
G1 Y76.8 E109.4 F1073.2 ;horizontal move
G1 X34.4 Y75.8 E110.5 F1080.0 ;horizontal move
G1 Y75.7 E110.6 ;horizontal move
G1 X34.9 Y74.7 E111.7 ;horizontal move
G1 X35.0 E111.8 F1074.9 ;horizontal move
G1 X35.9 Y73.5 E113.3 F1080.0 ;horizontal move
G1 Y73.4 E113.4 ;horizontal move
G1 X37.0 Y72.3 E115.0 ;horizontal move
G1 X38.6 Y71.1 E117.0 ;horizontal move
G1 X40.6 Y69.9 E119.3 ;horizontal move
G1 X42.6 Y69.0 E121.5 ;horizontal move
G1 X43.7 Y68.6 E122.7 ;horizontal move
G1 X44.5 Y68.4 E123.5 ;horizontal move
G1 X45.2 Y68.3 E124.2 ;horizontal move
G1 X45.8 Y68.4 E124.8 ;horizontal move
G1 X46.4 Y68.7 E125.5 ;horizontal move
G1 X46.9 Y68.8 E126.0 ;horizontal move
G1 X47.5 Y69.2 E126.7 ;horizontal move
G1 X48.0 Y69.6 E127.4 ;horizontal move
G1 X48.4 Y70.1 E128.0 ;horizontal move
G1 X48.7 Y70.6 E128.6 ;horizontal move
G1 X48.9 Y71.2 E129.2 ;horizontal move
G1 Y72.0 E130.0 ;horizontal move
G1 X49.0 Y73.1 E131.1 ;horizontal move
G1 X48.9 Y74.1 E132.1 ;horizontal move
G1 Y74.5 E132.5 F391.0 ;horizontal move
G1 X49.2 Y74.2 E133.0 F1080.0 ;horizontal move
G1 X50.3 Y73.3 E134.4 ;horizontal move
G1 X52.3 Y71.6 E137.0 ;horizontal move
G1 X53.9 Y69.9 E139.3 ;horizontal move
G1 X55.2 Y68.2 E141.5 ;horizontal move
G1 X56.3 Y66.3 E143.7 ;horizontal move
G1 X57.2 Y64.2 E146.0 ;horizontal move
G1 X58.0 Y61.8 E148.5 ;horizontal move
G1 X58.6 Y59.2 E151.2 ;horizontal move
G1 X59.0 Y56.6 E153.8 ;horizontal move
G1 X59.1 Y53.6 E156.8 ;horizontal move
G1 X58.9 Y50.8 E159.6 ;horizontal move
G1 X58.4 Y48.0 E162.4 ;horizontal move
G1 X57.7 Y45.2 E165.3 ;horizontal move
G1 X56.7 Y42.3 E168.4 ;horizontal move
G1 X55.4 Y39.7 E171.3 ;horizontal move
G1 Y39.6 E171.4 ;horizontal move
G1 X54.0 Y37.2 E174.2 ;horizontal move
G1 X52.4 Y35.0 E176.9 ;horizontal move
G1 X50.5 Y32.8 E179.8 ;horizontal move
G1 X48.2 Y30.6 E183.0 ;horizontal move
G1 X45.7 Y28.6 E186.2 ;horizontal move
G1 X43.4 Y27.0 E189.0 ;horizontal move
G1 X41.1 Y25.8 E191.6 ;horizontal move
G1 X39.0 Y24.8 E193.9 ;horizontal move
G1 X36.6 Y24.1 E196.4 ;horizontal move
G1 X34.0 Y23.5 E199.1 ;horizontal move
G1 X31.3 Y23.3 E201.8 ;horizontal move
G1 X27.8 E205.3 ;horizontal move
G1 X25.9 Y23.2 E207.2 ;horizontal move
G1 X25.8 E207.3 ;horizontal move
G1 X24.1 Y23.0 E209.0 ;horizontal move
G1 X22.3 Y22.4 E210.9 ;horizontal move
G1 X20.4 Y21.6 E213.0 ;horizontal move
G1 X18.7 Y20.5 E215.0 ;horizontal move
G1 X16.9 Y19.2 E217.2 ;horizontal move
G1 X15.0 Y17.5 E219.8 ;horizontal move
G1 X12.6 Y14.9 E223.3 ;horizontal move
G1 X0.6 Y1.3 E241.4 ;horizontal move
G1 X0.4 Y0.9 E241.9 F374.6 ;horizontal move
G1 Y1.4 E242.4 F1080.0 ;horizontal move
G1 Y48.0 E289.0 ;horizontal move
G1 X0.7 Y50.0 E291.0 ;horizontal move
G1 X1.2 Y52.1 E293.2 ;horizontal move
G1 X1.8 Y53.8 E295.0 ;horizontal move
G1 X2.6 Y55.2 E296.6 ;horizontal move
G1 X3.6 Y56.6 E298.3 ;horizontal move
G1 Y56.7 E298.4 F1074.1 ;horizontal move
G1 X4.8 Y57.9 E300.1 F1080.0 ;horizontal move
G1 X6.3 Y59.0 E302.0 ;horizontal move
G1 X7.9 Y59.9 E303.8 ;horizontal move
G1 X9.8 Y60.6 E305.8 ;horizontal move
G1 X11.5 Y60.9 E307.5 ;horizontal move
G1 X11.6 E307.6 ;horizontal move
G1 X13.3 Y61.0 E309.3 ;horizontal move
G1 X15.0 Y60.8 E311.1 ;horizontal move
G1 X16.3 Y60.5 E312.4 ;horizontal move
G1 X16.8 Y60.4 E312.9 F364.1 ;horizontal move
G1 X16.4 Y60.2 E313.3 F1080.0 ;horizontal move
G1 X14.7 Y59.3 E315.3 ;horizontal move
G1 X13.9 Y58.7 E316.3 ;horizontal move
G1 X13.2 Y58.2 E317.1 ;horizontal move
G1 X12.7 Y57.7 E317.8 ;horizontal move
G1 Y57.6 E317.9 ;horizontal move
G1 X12.4 Y57.1 E318.5 ;horizontal move
G1 X12.2 Y56.5 E319.2 ;horizontal move
G1 X12.1 Y55.8 E319.9 ;horizontal move
G1 Y55.1 E320.6 ;horizontal move
G1 X12.2 Y54.2 E321.5 ;horizontal move
G1 X12.4 Y53.2 E322.5 ;horizontal move
G1 X12.5 E322.6 ;horizontal move
G1 X12.7 Y52.8 E323.0 ;horizontal move
G1 X13.1 Y51.9 E324.0 ;horizontal move
G1 X13.6 Y51.1 E325.0 ;horizontal move
G1 X14.2 Y50.4 E325.9 ;horizontal move
G1 X14.9 Y49.9 E326.7 ;horizontal move
G1 X15.7 Y49.6 E327.6 ;horizontal move
G1 X16.7 Y49.3 E328.6 ;horizontal move
G1 X18.4 Y49.0 E330.4 ;horizontal move
G1 X20.9 Y48.9 E332.9 ;horizontal move
G1 X22.5 Y49.0 E334.5 ;horizontal move
G1 X23.8 Y49.2 E335.8 ;horizontal move
G1 X24.6 Y49.5 E336.6 ;horizontal move
G1 X25.5 Y50.0 E337.7 ;horizontal move
G1 X25.6 E337.8 F1073.8 ;horizontal move
G1 X26.4 Y50.7 E338.8 F1080.0 ;horizontal move
G1 X27.2 Y51.6 E340.0 ;horizontal move
G1 X27.3 E340.1 F1075.1 ;horizontal move
G1 X28.0 Y52.6 E341.4 F1080.0 ;horizontal move
G1 X28.6 Y53.9 E342.8 ;horizontal move
G1 X28.9 Y55.1 E344.0 ;horizontal move
G1 X29.1 Y56.4 E345.3 ;horizontal move
G1 X29.0 Y57.8 E346.7 ;horizontal move
G1 X28.7 Y59.1 E348.1 ;horizontal move
G1 X28.3 Y60.1 E349.2 ;horizontal move
G1 Y60.2 E349.3 ;horizontal move
G1 X27.7 Y61.1 E350.3 ;horizontal move
G1 X26.5 Y62.5 E352.2 ;horizontal move
G1 X24.3 Y64.8 E355.4 ;horizontal move
G1 X22.2 Y67.4 E358.7 ;horizontal move
G1 X20.3 Y70.2 E362.1 ;horizontal move
G1 X19.1 Y72.0 E364.3 ;horizontal move
G1 X18.4 Y73.6 E366.0 ;horizontal move
G1 X17.9 Y75.0 E367.5 ;horizontal move
G1 X17.7 Y76.1 E368.6 ;horizontal move
G1 Y77.1 E369.6 ;horizontal move
G1 X17.9 Y78.3 E370.8 ;horizontal move
G1 X18.4 Y79.7 E372.3 ;horizontal move
G1 Y79.8 E372.4 ;horizontal move
G1 X19.1 Y81.2 E374.0 ;horizontal move
G1 X20.1 Y82.8 E375.9 ;horizontal move
G1 X21.4 Y84.4 E377.9 ;horizontal move
G1 X22.9 Y85.8 E380.0 ;horizontal move
G1 X24.7 Y87.0 E382.1 ;horizontal move
G1 X26.4 Y87.9 E384.1 ;horizontal move
G1 X28.3 Y88.6 E386.1 ;horizontal move
G1 X30.3 Y88.9 E388.1 ;horizontal move
G1 X32.3 Y89.1 E390.1 ;horizontal move
G1 X34.3 Y88.9 E392.1 ;horizontal move
G1 X34.4 E392.2 ;horizontal move
G1 X36.3 Y88.5 E394.2 ;horizontal move
G1 X36.4 E394.3 ;horizontal move
G1 X38.4 Y87.8 E396.4 ;horizontal move
G1 X40.6 Y86.8 E398.8 ;horizontal move
G1 X42.9 Y85.5 E401.4 ;horizontal move
G1 X43.3 Y85.3 E401.9 F317.7 ;horizontal move
G1 X42.9 E402.3 F1080.0 ;horizontal move
G1 X39.1 Y86.0 E406.2 ;horizontal move
G1 F1200.0; feed for start of next move
G1 E396.2; extruder retraction
G1 F600.0; feed for start of next move
G1 X38.8 F1200.0 ;horizontal move
G1 E411.2; extruder dwell
G1 F600.0; feed for start of next move
G1 F1200.0; feed for start of next move
G1 E421.2; extruder dwell
G1 F600.0; feed for start of next move
G1 X38.1 Y85.4 E422.1 ;horizontal move
G1 F1200.0; feed for start of next move
G1 E412.1; extruder retraction
G1 F600.0; feed for start of next move
G1 X38.5 Y85.5 F1200.0 ;horizontal move
G1 X40.6 Y85.7 ;horizontal move
G1 X41.0 Y85.8 F600.0 ;horizontal move
G1 F1200.0; feed for start of next move
G1 E427.1; extruder dwell
G1 F600.0; feed for start of next move
G1 F1200.0; feed for start of next move
G1 E437.1; extruder dwell
G1 F600.0; feed for start of next move
G1 Y85.9 E437.2 ;horizontal move
G1 F1200.0; feed for start of next move
G1 E427.2; extruder retraction
G1 F600.0; feed for start of next move
G1 X41.3 Y85.5 F1200.0 ;horizontal move
G1 X49.5 Y73.4 ;horizontal move
G1 X49.8 Y73.0 F600.0 ;horizontal move
G1 F1200.0; feed for start of next move
G1 E442.2; extruder dwell
G1 F600.0; feed for start of next move
G1 F1200.0; feed for start of next move
G1 E452.2; extruder dwell
G1 F600.0; feed for start of next move
G1 X49.6 Y72.8 E452.5 F509.7 ;horizontal move
G1 X49.5 Y72.0 E453.3 F480.0 ;horizontal move
G1 Y71.1 E454.2 F484.6 ;horizontal move
G1 X49.2 Y70.4 E454.9 F482.5 ;horizontal move
G1 X48.9 Y69.7 E455.7 F481.4 ;horizontal move
G1 X48.6 Y69.5 E456.1 F480.0 ;horizontal move
G1 Y69.4 E456.2 F301.5 ;horizontal move
G1 X51.1 Y71.9 E459.7 F480.0 ;horizontal move
G1 X51.9 Y71.1 E460.8 F480.4 ;horizontal move
G1 X52.3 Y70.7 E461.4 F597.1 ;horizontal move
G1 X0.9 Y19.4 E534.0 F515.1 ;horizontal move
G1 Y17.0 E536.4 F480.0 ;horizontal move
G1 Y16.9 E536.5 F387.9 ;horizontal move
G1 X1.0 Y17.0 E536.6 F480.0 ;horizontal move
G1 X53.5 Y69.5 E610.9 ;horizontal move
G1 X54.5 Y68.1 E612.6 F584.2 ;horizontal move
G1 X0.9 Y14.5 E688.4 F515.1 ;horizontal move
G1 Y12.2 E690.7 F480.0 ;horizontal move
G1 Y12.1 E690.8 F387.9 ;horizontal move
G1 X1.0 Y12.2 E691.0 F480.0 ;horizontal move
G1 X55.4 Y66.6 E767.9 ;horizontal move
G1 X55.8 Y66.0 E768.6 F480.8 ;horizontal move
G1 X56.2 Y65.0 E769.7 F557.1 ;horizontal move
G1 X0.9 Y9.7 E847.9 F515.1 ;horizontal move
G1 Y7.4 E850.2 F480.0 ;horizontal move
G1 Y7.3 E850.3 F387.9 ;horizontal move
G1 X1.0 Y7.4 E850.4 F480.0 ;horizontal move
G1 X56.9 Y63.3 E929.5 ;horizontal move
G1 X57.4 Y61.7 E931.2 ;horizontal move
G1 X57.5 Y61.5 E931.4 F536.1 ;horizontal move
G1 X0.9 Y4.9 E1011.4 F515.1 ;horizontal move
G1 Y2.6 E1013.7 F480.0 ;horizontal move
G1 Y2.5 E1013.8 F374.6 ;horizontal move
G1 X1.0 Y2.6 E1014.0 F480.0 ;horizontal move
G1 X12.2 Y15.3 E1030.9 ;horizontal move
G1 X14.6 Y17.9 E1034.4 F480.3 ;horizontal move
G1 X16.5 Y19.6 E1037.0 F480.5 ;horizontal move
G1 X18.3 Y21.0 E1039.3 F480.8 ;horizontal move
G1 X20.2 Y22.1 E1041.5 ;horizontal move
G1 X20.9 Y22.5 E1042.3 F487.8 ;horizontal move
G1 X57.9 Y59.5 E1094.6 F480.0 ;horizontal move
G1 X58.0 Y59.1 E1095.0 ;horizontal move
G1 X58.3 Y57.4 E1096.7 F527.6 ;horizontal move
G1 X24.5 Y23.6 E1144.5 F480.0 ;horizontal move
G1 X24.4 E1144.6 F361.0 ;horizontal move
G1 X24.5 E1144.7 F480.0 ;horizontal move
G1 X25.8 Y23.8 E1146.1 ;horizontal move
G1 X27.1 E1147.4 F512.6 ;horizontal move
G1 X58.4 Y55.2 E1191.7 F480.0 ;horizontal move
G1 X58.5 Y53.6 E1193.3 ;horizontal move
G1 X58.4 Y52.8 E1194.1 F509.7 ;horizontal move
G1 X29.5 Y23.9 E1235.0 F480.0 ;horizontal move
G1 X29.6 E1235.1 ;horizontal move
G1 X31.2 E1236.7 ;horizontal move
G1 X32.0 Y24.0 E1237.5 F508.2 ;horizontal move
G1 X58.1 Y50.1 E1274.4 F480.0 ;horizontal move
G1 X58.2 E1274.5 F356.2 ;horizontal move
G1 X57.8 Y48.1 E1276.5 F480.0 ;horizontal move
G1 X57.6 Y47.1 E1277.6 F496.3 ;horizontal move
G1 X34.8 Y24.3 E1309.8 F480.0 ;horizontal move
G1 X36.4 Y24.6 E1311.4 ;horizontal move
G1 X38.0 Y25.1 E1313.1 F493.6 ;horizontal move
G1 X56.5 Y43.6 E1339.3 F480.0 ;horizontal move
G1 X56.1 Y42.6 E1340.3 ;horizontal move
G1 X54.9 Y39.9 E1343.3 F480.6 ;horizontal move
G1 X54.5 Y39.2 E1344.1 F483.9 ;horizontal move
G1 X42.4 Y27.2 E1361.1 F600.0 ;horizontal move
G1 F1200.0; feed for start of next move
G1 E1351.1; extruder retraction
G1 F600.0; feed for start of next move
G1 X42.2 Y27.6 F1200.0 ;horizontal move
G1 X29.7 Y54.7 ;horizontal move
G1 X29.5 Y55.1 F600.0 ;horizontal move
G1 F1200.0; feed for start of next move
G1 E1366.1; extruder dwell
G1 F600.0; feed for start of next move
G1 F1200.0; feed for start of next move
G1 E1376.1; extruder dwell
G1 F600.0; feed for start of next move
G1 X42.7 Y68.3 E1394.8 F480.0 ;horizontal move
G1 X42.3 Y68.5 E1395.3 ;horizontal move
G1 X41.1 Y69.1 E1396.6 F559.6 ;horizontal move
G1 X29.6 Y57.6 E1412.9 F480.0 ;horizontal move
G1 Y57.9 E1413.2 ;horizontal move
G1 X29.3 Y59.3 E1414.6 F481.5 ;horizontal move
G1 X29.1 Y59.6 E1415.0 F553.1 ;horizontal move
G1 X39.5 Y69.9 E1429.6 F523.2 ;horizontal move
G1 X38.2 Y70.6 E1431.1 F480.8 ;horizontal move
G1 X38.0 Y70.8 E1431.4 F583.3 ;horizontal move
G1 X28.3 Y61.2 E1445.0 F528.2 ;horizontal move
G1 X28.2 Y61.5 E1445.3 F481.8 ;horizontal move
G1 X27.3 Y62.5 E1446.7 F591.9 ;horizontal move
G1 X36.6 Y71.9 E1459.9 F541.1 ;horizontal move
G1 X35.4 Y73.1 E1461.6 F600.0 ;horizontal move
G1 X26.1 Y63.7 E1474.8 F594.7 ;horizontal move
G1 X24.9 Y65.0 E1476.6 F597.9 ;horizontal move
G1 X34.4 Y74.5 E1490.0 F564.3 ;horizontal move
G1 X33.9 Y75.5 E1491.1 F481.5 ;horizontal move
G1 X33.7 Y76.1 E1491.8 F480.0 ;horizontal move
G1 X23.8 Y66.3 E1505.7 ;horizontal move
G1 X22.8 Y67.6 E1507.3 F587.3 ;horizontal move
G1 X33.3 Y78.1 E1522.2 F521.0 ;horizontal move
G1 X33.2 Y78.3 E1522.4 F480.9 ;horizontal move
G1 X33.3 Y79.5 E1523.6 F481.5 ;horizontal move
G1 X33.6 Y80.8 E1524.9 F481.6 ;horizontal move
G1 Y80.9 E1525.0 F324.9 ;horizontal move
G1 Y80.8 E1525.1 F480.0 ;horizontal move
G1 X21.8 Y69.0 E1541.8 ;horizontal move
G1 X20.8 Y70.4 E1543.5 F577.9 ;horizontal move
G1 X37.7 Y87.4 E1567.5 F480.0 ;horizontal move
G1 X36.2 Y87.9 E1569.1 ;horizontal move
G1 X35.9 E1569.4 F534.5 ;horizontal move
G1 X19.9 Y72.0 E1592.0 F526.8 ;horizontal move
G1 X19.7 Y72.3 E1592.3 F480.5 ;horizontal move
G1 X19.1 Y73.5 E1593.7 F560.7 ;horizontal move
G1 X33.8 Y88.3 E1614.5 F480.0 ;horizontal move
G1 X33.9 E1614.6 F407.5 ;horizontal move
G1 X33.8 E1614.7 F480.0 ;horizontal move
G1 X32.2 Y88.5 E1616.3 ;horizontal move
G1 X31.5 Y88.4 E1617.0 F510.1 ;horizontal move
G1 X18.5 Y75.4 E1635.4 F480.0 ;horizontal move
G1 Y75.3 E1635.5 F425.6 ;horizontal move
G1 Y75.4 E1635.6 F480.0 ;horizontal move
G1 X18.3 Y76.2 E1636.4 ;horizontal move
G1 Y77.1 E1637.3 F481.7 ;horizontal move
G1 X18.4 Y77.7 E1638.0 F502.9 ;horizontal move
G1 X28.7 Y88.0 E1652.5 F480.0 ;horizontal move
G1 X28.8 E1652.6 F352.0 ;horizontal move
G1 X28.7 E1652.7 F480.0 ;horizontal move
G1 X28.5 E1652.9 ;horizontal move
G1 X26.7 Y87.4 E1654.8 F481.1 ;horizontal move
G1 X25.0 Y86.5 E1656.7 F481.3 ;horizontal move
G1 X24.5 Y86.2 E1657.3 F481.8 ;horizontal move
G1 X20.3 Y82.0 E1663.3 F600.0 ;horizontal move
G1 F1200.0; feed for start of next move
G1 E1653.3; extruder retraction
G1 F600.0; feed for start of next move
G1 X20.1 Y81.6 F1200.0 ;horizontal move
G1 X3.9 Y56.1 ;horizontal move
G1 X3.7 Y55.7 F600.0 ;horizontal move
G1 F1200.0; feed for start of next move
G1 E1668.3; extruder dwell
G1 F600.0; feed for start of next move
G1 F1200.0; feed for start of next move
G1 E1678.3; extruder dwell
G1 F600.0; feed for start of next move
G1 X5.8 Y57.9 E1681.3 F481.2 ;horizontal move
G1 X6.7 Y58.5 E1682.4 ;horizontal move
G1 X8.2 Y59.3 E1684.1 F481.4 ;horizontal move
G1 X9.9 Y60.0 E1685.9 ;horizontal move
G1 X10.4 Y60.1 E1686.4 F480.0 ;horizontal move
G1 Y60.0 E1686.5 ;horizontal move
G1 X1.7 Y51.3 E1698.8 ;horizontal move
G1 X1.3 Y49.8 E1700.4 F480.2 ;horizontal move
G1 X1.0 Y48.3 E1701.9 F480.0 ;horizontal move
G1 X13.1 Y60.4 E1719.0 ;horizontal move
G1 X13.3 E1719.2 F481.2 ;horizontal move
G1 X14.9 Y60.2 E1720.8 F480.9 ;horizontal move
G1 X15.0 E1720.9 F480.0 ;horizontal move
G1 X15.1 E1721.0 F376.1 ;horizontal move
G1 X15.0 Y60.1 E1721.2 F480.0 ;horizontal move
G1 X14.4 Y59.8 E1721.9 ;horizontal move
G1 X13.5 Y59.2 E1722.9 ;horizontal move
G1 X12.8 Y58.6 E1723.9 F484.1 ;horizontal move
G1 X12.2 Y58.0 E1724.7 F481.6 ;horizontal move
G1 X11.9 Y57.4 E1725.4 F481.9 ;horizontal move
G1 X11.6 Y56.6 E1726.2 F483.8 ;horizontal move
G1 Y56.4 E1726.4 F507.3 ;horizontal move
G1 X1.0 Y45.8 E1741.4 F515.1 ;horizontal move
G1 Y43.4 E1743.8 F480.0 ;horizontal move
G1 X11.6 Y54.1 E1758.9 ;horizontal move
G1 X11.9 Y53.0 E1760.0 ;horizontal move
G1 X12.1 Y52.6 E1760.5 F480.3 ;horizontal move
G1 X12.3 Y52.3 E1760.8 F560.6 ;horizontal move
G1 X1.0 Y41.0 E1776.8 F515.1 ;horizontal move
G1 X0.9 Y38.6 E1779.2 F480.0 ;horizontal move
G1 X1.0 E1779.3 ;horizontal move
G1 X13.1 Y50.7 E1796.4 ;horizontal move
G1 X13.8 Y50.0 E1797.4 F482.1 ;horizontal move
G1 X14.3 Y49.6 E1798.1 F556.7 ;horizontal move
G1 X0.9 Y36.2 E1817.0 F515.1 ;horizontal move
G1 Y33.8 E1819.4 F480.0 ;horizontal move
G1 X1.0 E1819.5 ;horizontal move
G1 X16.0 Y48.9 E1840.8 ;horizontal move
G1 X16.6 Y48.7 E1841.4 F481.6 ;horizontal move
G1 X18.0 Y48.4 E1842.9 F480.0 ;horizontal move
G1 X0.9 Y31.4 E1867.0 ;horizontal move
G1 Y29.0 E1869.4 ;horizontal move
G1 X1.0 E1869.5 ;horizontal move
G1 X20.3 Y48.3 E1896.8 ;horizontal move
G1 X20.9 E1897.4 F480.4 ;horizontal move
G1 X22.5 Y48.4 E1899.0 F481.4 ;horizontal move
G1 X22.8 E1899.3 F480.0 ;horizontal move
G1 X0.9 Y26.6 E1930.2 ;horizontal move
G1 X1.0 E1930.3 F515.1 ;horizontal move
G1 X0.9 Y24.2 E1932.7 F480.0 ;horizontal move
G1 X1.0 E1932.8 ;horizontal move
G1 X44.5 Y67.8 E1994.4 ;horizontal move
G1 X45.2 Y67.7 E1995.1 F481.9 ;horizontal move
G1 X46.0 Y67.8 E1995.9 F483.3 ;horizontal move
G1 X46.7 Y68.1 E1996.6 F480.0 ;horizontal move
G1 X47.1 Y68.3 E1997.1 F482.1 ;horizontal move
G1 X47.8 Y68.7 E1997.9 F480.6 ;horizontal move
G1 X48.2 Y69.0 E1998.4 F480.0 ;horizontal move
G1 Y69.1 E1998.5 F302.2 ;horizontal move
G1 Y69.0 E1998.6 F480.0 ;horizontal move
G1 X0.9 Y21.8 E2065.4 ;horizontal move
G1 F1200.0; feed for start of next move
G1 E2055.4; extruder retraction
G1 F600.0; feed for start of next move
M106 ;cooler on
G1 X0.5 F1200.0 ;horizontal move
G1 X-249.5 ;horizontal move
G1 X-250.0 F600.0 ;horizontal move
G92 X0 ;set x 0
G1 Y21.4 F1200.0 ;horizontal move
G1 Y-249.5 ;horizontal move
G1 Y-250.0 F600.0 ;horizontal move
G92 Y0 ;set y 0
G92 E0 ;zero the extruded length
;#!LAYER: 2/12
M107 ;cooler off
G4 P20 ;delay
G1 F40.0; feed for start of next move
G1 Z0.5 F67.8 ;z move
G1 Z1.0 F40.0 ;z move
G1 F600.0; feed for start of next move
G1 X-0.3 Y-0.3 F1200.0 ;horizontal move
G1 X-2.7 Y-2.7 ;horizontal move
G1 X-3.0 Y-3.0 F600.0 ;horizontal move
G1 F1200.0; feed for start of next move
G1 E66.7; extruder dwell
G1 F600.0; feed for start of next move
G1 F1200.0; feed for start of next move
G1 E100.0; extruder dwell
G1 F600.0; feed for start of next move
G1 X-5.0 Y6.9 E110.1 F480.0 ;horizontal move
G1 Y7.0 E110.2 F305.8 ;horizontal move
G1 Y6.9 E110.3 F480.0 ;horizontal move
G1 Y-5.0 E122.2 ;horizontal move
G1 X17.0 E144.2 F600.0 ;horizontal move
G1 F1200.0; feed for start of next move
G1 E110.9; extruder retraction
G1 F600.0; feed for start of next move
G1 X17.1 Y-4.6 F1200.0 ;horizontal move
G1 X39.4 Y64.8 ;horizontal move
G1 X39.5 Y65.2 F600.0 ;horizontal move
G1 F1200.0; feed for start of next move
G1 E160.9; extruder dwell
G1 F600.0; feed for start of next move
G1 F1200.0; feed for start of next move
G1 E194.2; extruder dwell
G1 F600.0; feed for start of next move
G1 X39.2 Y65.5 E194.6 F1080.0 ;horizontal move
G1 X21.6 Y83.1 E219.5 ;horizontal move
G1 X21.3 Y83.3 E219.9 F648.9 ;horizontal move
G1 X21.5 Y83.6 E220.2 F1080.0 ;horizontal move
G1 X21.7 Y83.7 E220.5 ;horizontal move
G1 X21.9 Y84.0 E220.8 F631.7 ;horizontal move
G1 X21.6 Y84.2 E221.2 F1043.7 ;horizontal move
G1 X21.4 Y84.4 E221.5 F580.2 ;horizontal move
G1 X21.7 Y84.6 E221.8 F1080.0 ;horizontal move
G1 X22.9 Y85.8 E223.5 ;horizontal move
G1 X24.6 Y87.0 E225.6 ;horizontal move
G1 X26.4 Y87.9 E227.6 ;horizontal move
G1 X28.2 Y88.5 E229.5 ;horizontal move
G1 X30.2 Y88.9 E231.6 ;horizontal move
G1 X32.3 Y89.1 E233.7 ;horizontal move
G1 X34.2 Y88.9 E235.6 ;horizontal move
G1 X34.3 E235.7 ;horizontal move
G1 X36.2 Y88.5 E237.6 ;horizontal move
G1 X36.3 E237.7 F1077.0 ;horizontal move
G1 X38.3 Y87.8 E239.8 F1080.0 ;horizontal move
G1 X40.5 Y86.8 E242.2 ;horizontal move
G1 X42.9 Y85.5 E245.0 ;horizontal move
G1 X43.3 Y85.3 E245.4 F335.6 ;horizontal move
G1 X42.9 E245.8 F1060.4 ;horizontal move
G1 X40.7 Y85.2 E248.0 F1080.0 ;horizontal move
G1 X39.1 Y85.0 E249.6 ;horizontal move
G1 X37.9 Y84.7 E250.9 ;horizontal move
G1 X37.0 Y84.4 E251.8 ;horizontal move
G1 X36.9 E251.9 ;horizontal move
G1 X36.3 Y84.0 E252.6 ;horizontal move
G1 X35.6 Y83.4 E253.6 ;horizontal move
G1 X35.1 Y82.6 E254.5 ;horizontal move
G1 X34.6 Y81.7 E255.5 ;horizontal move
G1 X34.2 Y80.7 E256.6 ;horizontal move
G1 X33.9 Y79.5 E257.9 ;horizontal move
G1 X33.8 Y78.3 E259.1 ;horizontal move
G1 X33.9 Y78.0 E259.4 ;horizontal move
G1 X34.0 Y76.9 E260.5 ;horizontal move
G1 X34.4 Y75.8 E261.7 ;horizontal move
G1 X34.9 Y74.8 E262.8 ;horizontal move
G1 X35.8 Y73.5 E264.3 ;horizontal move
G1 X36.9 Y72.4 E265.9 ;horizontal move
G1 X38.5 Y71.2 E267.9 ;horizontal move
G1 X40.5 Y70.0 E270.2 ;horizontal move
G1 X42.5 Y69.0 E272.5 ;horizontal move
G1 X43.7 Y68.6 E273.7 ;horizontal move
G1 X44.4 Y68.4 E274.5 ;horizontal move
G1 X44.5 E274.6 ;horizontal move
G1 X45.1 Y68.3 E275.2 ;horizontal move
G1 X45.2 E275.3 F1056.7 ;horizontal move
G1 X45.8 Y68.4 E275.9 F1080.0 ;horizontal move
G1 X46.4 Y68.6 E276.5 ;horizontal move
G1 X46.8 Y68.8 E277.0 ;horizontal move
G1 X47.5 Y69.2 E277.8 ;horizontal move
G1 X48.0 Y69.6 E278.4 ;horizontal move
G1 X48.4 Y70.1 E279.0 ;horizontal move
G1 X48.7 Y70.6 E279.6 ;horizontal move
G1 X48.9 Y71.2 E280.3 ;horizontal move
G1 Y72.0 E281.1 ;horizontal move
G1 X49.0 Y73.0 E282.1 ;horizontal move
G1 X48.9 Y74.1 E283.2 ;horizontal move
G1 Y74.5 E283.6 F392.0 ;horizontal move
G1 X49.2 Y74.2 E284.0 F1080.0 ;horizontal move
G1 X50.2 Y73.4 E285.3 ;horizontal move
G1 X52.2 Y71.7 E287.9 ;horizontal move
G1 X53.8 Y70.0 E290.2 ;horizontal move
G1 X55.1 Y68.3 E292.4 ;horizontal move
G1 X56.2 Y66.4 E294.6 ;horizontal move
G1 X56.3 E294.7 ;horizontal move
G1 X57.2 Y64.3 E297.0 ;horizontal move
G1 X58.0 Y62.0 E299.4 ;horizontal move
G1 X58.6 Y59.4 E302.1 ;horizontal move
G1 X59.0 Y56.6 E304.9 ;horizontal move
G1 X59.1 Y53.8 E307.7 ;horizontal move
G1 X58.9 Y50.9 E310.6 ;horizontal move
G1 X58.4 Y48.1 E313.4 ;horizontal move
G1 X57.7 Y45.3 E316.3 ;horizontal move
G1 X56.7 Y42.5 E319.3 ;horizontal move
G1 X55.4 Y39.7 E322.4 ;horizontal move
G1 Y39.6 E322.5 ;horizontal move
G1 X54.1 Y37.3 E325.1 ;horizontal move
G1 X52.4 Y35.0 E328.0 ;horizontal move
G1 X50.5 Y32.8 E330.9 ;horizontal move
G1 X48.3 Y30.7 E333.9 ;horizontal move
G1 X45.9 Y28.7 E337.1 ;horizontal move
G1 X45.8 E337.2 ;horizontal move
G1 X43.5 Y27.1 E340.0 ;horizontal move
G1 X41.3 Y25.8 E342.5 ;horizontal move
G1 X39.0 Y24.8 E345.0 ;horizontal move
G1 X36.6 Y24.1 E347.5 ;horizontal move
G1 X34.0 Y23.5 E350.2 ;horizontal move
G1 X31.4 Y23.3 E352.8 ;horizontal move
G1 X27.9 E356.3 ;horizontal move
G1 X25.9 Y23.2 E358.3 ;horizontal move
G1 X24.2 Y23.0 E360.0 ;horizontal move
G1 X24.1 E360.1 F1074.8 ;horizontal move
G1 X22.3 Y22.4 E362.0 F1080.0 ;horizontal move
G1 X20.5 Y21.7 E363.9 ;horizontal move
G1 X18.7 Y20.6 E366.1 ;horizontal move
G1 X17.0 Y19.3 E368.2 ;horizontal move
G1 X15.2 Y17.6 E370.7 ;horizontal move
G1 X12.7 Y15.0 E374.3 ;horizontal move
G1 X0.6 Y1.3 E392.6 ;horizontal move
G1 X0.4 Y0.9 E393.0 F374.5 ;horizontal move
G1 Y1.4 E393.5 F1080.0 ;horizontal move
G1 X0.3 Y48.0 E440.1 ;horizontal move
G1 X0.4 E440.2 ;horizontal move
G1 X0.7 Y49.8 E442.0 ;horizontal move
G1 X1.2 Y52.0 E444.3 ;horizontal move
G1 X1.8 Y53.7 E446.1 ;horizontal move
G1 X2.5 Y55.2 E447.7 ;horizontal move
G1 X3.5 Y56.6 E449.5 ;horizontal move
G1 X4.8 Y57.8 E451.2 ;horizontal move
G1 X6.3 Y59.0 E453.2 ;horizontal move
G1 X7.9 Y59.9 E455.0 ;horizontal move
G1 X9.7 Y60.5 E456.9 ;horizontal move
G1 X11.5 Y60.9 E458.7 ;horizontal move
G1 X13.2 Y61.0 E460.4 ;horizontal move
G1 X15.0 Y60.8 E462.2 ;horizontal move
G1 X16.3 Y60.5 E463.6 ;horizontal move
G1 X16.8 Y60.4 E464.1 F363.1 ;horizontal move
G1 X16.4 Y60.2 E464.5 F975.4 ;horizontal move
G1 X14.7 Y59.3 E466.5 F1080.0 ;horizontal move
G1 X13.9 Y58.7 E467.5 ;horizontal move
G1 X13.2 Y58.2 E468.3 ;horizontal move
G1 X12.8 Y57.7 E469.0 ;horizontal move
G1 X12.7 E469.1 F1072.4 ;horizontal move
G1 X12.4 Y57.2 E469.6 F1080.0 ;horizontal move
G1 Y57.1 E469.7 ;horizontal move
G1 X12.2 Y56.5 E470.4 ;horizontal move
G1 X12.1 Y55.9 E471.0 ;horizontal move
G1 Y55.2 E471.7 ;horizontal move
G1 Y55.1 E471.8 F1072.0 ;horizontal move
G1 X12.2 Y54.3 E472.6 F1080.0 ;horizontal move
G1 X12.4 Y53.3 E473.6 ;horizontal move
G1 Y53.2 E473.7 F1053.1 ;horizontal move
G1 X12.7 Y52.9 E474.1 F1080.0 ;horizontal move
G1 X13.1 Y51.9 E475.2 ;horizontal move
G1 X13.6 Y51.1 E476.2 ;horizontal move
G1 X14.2 Y50.4 E477.1 ;horizontal move
G1 X14.8 Y50.0 E477.8 ;horizontal move
G1 Y49.9 E477.9 F1058.7 ;horizontal move
G1 X15.7 Y49.6 E478.8 F1080.0 ;horizontal move
G1 X16.7 Y49.3 E479.9 ;horizontal move
G1 X18.4 Y49.0 E481.6 ;horizontal move
G1 X20.8 Y48.9 E484.0 ;horizontal move
G1 X22.5 Y49.0 E485.7 ;horizontal move
G1 X23.7 Y49.2 E486.9 ;horizontal move
G1 X24.5 Y49.5 E487.8 ;horizontal move
G1 X25.5 Y50.0 E488.9 ;horizontal move
G1 X26.4 Y50.7 E490.1 ;horizontal move
G1 X27.2 Y51.5 E491.2 ;horizontal move
G1 X28.0 Y52.6 E492.5 ;horizontal move
G1 X28.6 Y53.8 E493.9 ;horizontal move
G1 X28.9 Y55.1 E495.2 ;horizontal move
G1 X29.1 Y56.4 E496.5 ;horizontal move
G1 X29.0 Y57.7 E497.8 ;horizontal move
G1 X28.7 Y59.0 E499.2 ;horizontal move
G1 Y59.1 E499.3 F1073.9 ;horizontal move
G1 X28.3 Y60.1 E500.4 F1080.0 ;horizontal move
G1 X27.7 Y61.1 E501.5 ;horizontal move
G1 X26.6 Y62.4 E503.2 ;horizontal move
G1 X24.3 Y64.8 E506.5 ;horizontal move
G1 X22.2 Y67.4 E509.9 ;horizontal move
G1 X20.3 Y70.1 E513.2 ;horizontal move
G1 X19.2 Y71.9 E515.3 ;horizontal move
G1 X18.4 Y73.5 E517.1 ;horizontal move
G1 X17.9 Y75.0 E518.7 ;horizontal move
G1 X17.7 Y76.0 E519.7 ;horizontal move
G1 Y76.1 E519.8 F1073.5 ;horizontal move
G1 Y77.1 E520.8 F1080.0 ;horizontal move
G1 X17.9 Y78.3 E522.0 ;horizontal move
G1 Y78.4 E522.1 ;horizontal move
G1 X18.4 Y79.7 E523.5 ;horizontal move
G1 X19.1 Y81.2 E525.2 ;horizontal move
G1 X20.1 Y82.8 E527.0 ;horizontal move
G1 X21.2 Y84.1 E528.7 ;horizontal move
G1 X21.4 Y84.4 E529.1 F560.4 ;horizontal move
G1 X21.7 Y84.1 E529.5 F1080.0 ;horizontal move
G1 X39.2 Y65.5 E555.1 ;horizontal move
G1 F1200.0; feed for start of next move
G1 E521.7; extruder retraction
G1 F600.0; feed for start of next move
G1 X39.5 Y65.2 F1200.0 ;horizontal move
G1 E571.7; extruder dwell
G1 F600.0; feed for start of next move
G1 F1200.0; feed for start of next move
G1 E605.1; extruder dwell
G1 F600.0; feed for start of next move
G1 X57.6 Y47.1 E630.7 F538.9 ;horizontal move
G1 X57.2 Y45.5 E632.3 F480.5 ;horizontal move
G1 X57.1 Y45.2 E632.6 F480.0 ;horizontal move
G1 X20.3 Y82.0 E684.7 ;horizontal move
G1 X19.6 Y80.9 E686.0 F480.8 ;horizontal move
G1 X19.4 Y80.5 E686.4 F560.0 ;horizontal move
G1 X56.4 Y43.4 E738.8 F548.6 ;horizontal move
G1 X56.2 Y42.7 E739.5 F480.4 ;horizontal move
G1 X55.7 Y41.7 E740.7 F495.0 ;horizontal move
G1 X18.7 Y78.8 E793.1 F480.0 ;horizontal move
G1 X18.5 Y78.1 E793.8 ;horizontal move
G1 X18.3 Y77.0 E794.9 F481.4 ;horizontal move
G1 Y76.7 E795.2 F514.4 ;horizontal move
G1 X55.0 Y40.1 E847.0 F558.0 ;horizontal move
G1 X54.9 Y39.9 E847.3 F480.6 ;horizontal move
G1 X54.1 Y38.6 E848.8 F523.6 ;horizontal move
G1 X19.1 Y73.6 E898.3 F480.0 ;horizontal move
G1 X19.0 E898.4 F316.1 ;horizontal move
G1 X19.1 E898.5 F480.0 ;horizontal move
G1 X19.7 Y72.2 E900.0 ;horizontal move
G1 X20.8 Y70.4 E902.1 F480.2 ;horizontal move
G1 X22.7 Y67.7 E905.4 F480.4 ;horizontal move
G1 X23.2 Y67.1 E906.2 F480.7 ;horizontal move
G1 X53.2 Y37.1 E948.6 F580.0 ;horizontal move
G1 X52.2 Y35.7 E950.3 F550.0 ;horizontal move
G1 X29.5 Y58.4 E982.5 F480.0 ;horizontal move
G1 Y58.3 E982.6 ;horizontal move
G1 X29.6 Y57.8 E983.1 ;horizontal move
G1 X29.7 Y56.4 E984.5 F481.5 ;horizontal move
G1 X29.6 Y55.8 E985.1 F525.0 ;horizontal move
G1 X51.1 Y34.4 E1015.4 F591.9 ;horizontal move
G1 X50.0 Y33.2 E1017.0 F480.4 ;horizontal move
G1 X49.9 Y33.1 E1017.2 F597.8 ;horizontal move
G1 X29.2 Y53.8 E1046.5 F480.0 ;horizontal move
G1 Y53.9 E1046.6 F455.5 ;horizontal move
G1 Y53.8 E1046.7 F480.0 ;horizontal move
G1 X29.1 Y53.6 E1046.9 ;horizontal move
G1 X28.5 Y52.3 E1048.3 F481.8 ;horizontal move
G1 X28.4 Y52.2 E1048.4 F579.5 ;horizontal move
G1 X48.7 Y31.9 E1077.2 F594.4 ;horizontal move
G1 X47.9 Y31.1 E1078.3 F480.4 ;horizontal move
G1 X47.5 Y30.8 E1078.8 F587.4 ;horizontal move
G1 X27.4 Y50.8 E1107.1 F596.3 ;horizontal move
G1 X26.8 Y50.2 E1108.0 F481.4 ;horizontal move
G1 X26.1 Y49.7 E1108.9 F558.7 ;horizontal move
G1 X46.1 Y29.7 E1137.1 F568.5 ;horizontal move
G1 X45.5 Y29.2 E1137.9 F480.4 ;horizontal move
G1 X44.8 Y28.7 E1138.8 F578.2 ;horizontal move
G1 X24.6 Y48.9 E1167.3 F548.0 ;horizontal move
G1 X23.9 Y48.6 E1168.1 F481.3 ;horizontal move
G1 X22.6 Y48.4 E1169.4 F480.0 ;horizontal move
G1 X43.3 Y27.7 E1198.7 ;horizontal move
G1 X43.2 Y27.6 E1198.8 F480.5 ;horizontal move
G1 X41.8 Y26.8 E1200.4 F567.4 ;horizontal move
G1 X20.3 Y48.3 E1230.9 F511.7 ;horizontal move
G1 X18.3 Y48.4 E1232.9 F480.9 ;horizontal move
G1 X17.8 Y48.5 E1233.4 F480.0 ;horizontal move
G1 X17.7 E1233.5 F355.7 ;horizontal move
G1 X40.2 Y26.0 E1265.3 F480.0 ;horizontal move
G1 X38.8 Y25.4 E1266.8 F480.7 ;horizontal move
G1 X38.5 Y25.3 E1267.1 F544.5 ;horizontal move
G1 X13.9 Y49.9 E1301.9 F600.0 ;horizontal move
G1 F1200.0; feed for start of next move
G1 E1268.6; extruder retraction
G1 F600.0; feed for start of next move
G1 Y50.4 F1200.0 ;horizontal move
G1 Y59.1 ;horizontal move
G1 Y59.5 F600.0 ;horizontal move
G1 F1200.0; feed for start of next move
G1 E1318.6; extruder dwell
G1 F600.0; feed for start of next move
G1 F1200.0; feed for start of next move
G1 E1351.9; extruder dwell
G1 F600.0; feed for start of next move
G1 X13.1 Y60.4 E1353.1 F519.0 ;horizontal move
G1 X11.5 Y60.3 E1354.7 F481.4 ;horizontal move
G1 X10.9 Y60.2 E1355.3 F480.0 ;horizontal move
G1 X12.6 Y58.4 E1357.8 ;horizontal move
G1 X12.3 Y58.0 E1358.3 F481.9 ;horizontal move
G1 X11.9 Y57.4 E1359.0 F483.4 ;horizontal move
G1 X11.7 Y56.9 E1359.6 F480.0 ;horizontal move
G1 X9.0 Y59.6 E1363.4 ;horizontal move
G1 X8.2 Y59.3 E1364.2 F481.4 ;horizontal move
G1 X7.3 Y58.9 E1365.2 F517.0 ;horizontal move
G1 X11.5 Y54.7 E1371.2 F505.0 ;horizontal move
G1 X11.6 Y54.2 E1371.7 F480.5 ;horizontal move
G1 X11.9 Y53.0 E1372.9 F486.7 ;horizontal move
G1 X12.1 Y52.6 E1373.4 F480.7 ;horizontal move
G1 X12.6 Y51.7 E1374.4 F480.3 ;horizontal move
G1 X13.1 Y50.7 E1375.5 F483.0 ;horizontal move
G1 X13.3 Y50.5 E1375.8 F480.0 ;horizontal move
G1 X5.9 Y57.9 E1386.3 ;horizontal move
G1 X5.2 Y57.4 E1387.1 F481.2 ;horizontal move
G1 X4.6 Y56.8 E1388.0 F599.1 ;horizontal move
G1 X36.7 Y24.7 E1433.4 F480.0 ;horizontal move
G1 X36.4 Y24.6 E1433.7 ;horizontal move
G1 X34.7 Y24.3 E1435.4 F533.7 ;horizontal move
G1 X3.5 Y55.5 E1479.5 F550.7 ;horizontal move
G1 X3.0 Y54.9 E1480.3 F481.5 ;horizontal move
G1 X2.6 Y54.0 E1481.3 F562.1 ;horizontal move
G1 X32.6 Y24.0 E1523.7 F480.0 ;horizontal move
G1 X31.4 Y23.9 E1524.9 ;horizontal move
G1 X30.3 E1526.0 F516.1 ;horizontal move
G1 X1.9 Y52.3 E1566.2 F480.0 ;horizontal move
G1 X1.8 Y51.8 E1566.7 ;horizontal move
G1 X1.4 Y50.4 E1568.2 F536.9 ;horizontal move
G1 X27.9 Y23.9 E1605.6 F480.0 ;horizontal move
G1 X25.9 Y23.8 E1607.6 ;horizontal move
G1 X25.6 E1607.9 F526.9 ;horizontal move
G1 X1.0 Y48.3 E1642.6 F480.0 ;horizontal move
G1 Y48.4 E1642.7 F431.0 ;horizontal move
G1 Y48.3 E1642.8 F480.0 ;horizontal move
G1 X0.9 Y48.0 E1643.2 ;horizontal move
G1 X1.0 Y46.0 E1645.2 F515.1 ;horizontal move
G1 X23.5 Y23.4 E1677.1 F480.0 ;horizontal move
G1 X23.6 E1677.2 F454.3 ;horizontal move
G1 X23.5 E1677.3 F480.0 ;horizontal move
G1 X22.1 Y23.0 E1678.7 ;horizontal move
G1 X21.7 Y22.9 E1679.1 F556.7 ;horizontal move
G1 X1.0 Y43.6 E1708.4 F480.0 ;horizontal move
G1 X0.9 Y41.2 E1710.8 ;horizontal move
G1 X20.1 Y22.1 E1737.9 F526.7 ;horizontal move
G1 X18.6 Y21.2 E1739.6 F570.7 ;horizontal move
G1 X1.0 Y38.8 E1764.5 F480.0 ;horizontal move
G1 X0.9 E1764.6 F387.9 ;horizontal move
G1 Y36.4 E1767.0 F480.0 ;horizontal move
G1 X17.2 Y20.2 E1790.0 F558.4 ;horizontal move
G1 X16.6 Y19.7 E1790.8 F480.5 ;horizontal move
G1 X15.9 Y19.1 E1791.7 F594.8 ;horizontal move
G1 X1.0 Y34.0 E1812.8 F480.0 ;horizontal move
G1 X0.9 E1812.9 F387.9 ;horizontal move
G1 Y31.6 E1815.3 F480.0 ;horizontal move
G1 X14.6 Y17.9 E1834.7 F596.5 ;horizontal move
G1 X13.5 Y16.7 E1836.3 F591.2 ;horizontal move
G1 X1.0 Y29.2 E1854.0 F480.0 ;horizontal move
G1 X0.9 E1854.1 F387.9 ;horizontal move
G1 Y26.8 E1856.5 F480.0 ;horizontal move
G1 X12.3 Y15.4 E1872.6 F596.5 ;horizontal move
G1 X12.2 E1872.7 F480.1 ;horizontal move
G1 X11.2 Y14.2 E1874.2 F580.5 ;horizontal move
G1 X1.0 Y24.4 E1888.7 F480.0 ;horizontal move
G1 X0.9 E1888.8 F387.9 ;horizontal move
G1 X1.0 Y22.0 E1891.2 F480.0 ;horizontal move
G1 X10.0 Y12.9 E1904.0 F592.2 ;horizontal move
G1 X8.9 Y11.6 E1905.7 F580.5 ;horizontal move
G1 X1.0 Y19.6 E1916.9 F480.0 ;horizontal move
G1 Y19.5 E1917.0 ;horizontal move
G1 X0.9 Y17.2 E1919.3 ;horizontal move
G1 X7.8 Y10.3 E1929.1 F592.2 ;horizontal move
G1 X6.7 Y9.0 E1930.8 F580.5 ;horizontal move
G1 X1.0 Y14.8 E1938.9 F480.0 ;horizontal move
G1 X0.9 E1939.0 F387.9 ;horizontal move
G1 Y14.7 E1939.1 F480.0 ;horizontal move
G1 Y12.4 E1941.4 ;horizontal move
G1 X5.6 Y7.8 E1948.0 F592.2 ;horizontal move
G1 X4.4 Y6.5 E1949.8 F580.5 ;horizontal move
G1 X1.0 Y9.9 E1954.6 F480.0 ;horizontal move
G1 X0.9 Y10.0 E1954.7 F387.9 ;horizontal move
G1 Y9.9 E1954.8 F480.0 ;horizontal move
G1 Y7.6 E1957.1 ;horizontal move
G1 X3.3 Y5.2 E1960.5 F592.2 ;horizontal move
G1 X2.2 Y3.9 E1962.2 F580.5 ;horizontal move
G1 X1.0 Y5.1 E1963.9 F480.0 ;horizontal move
G1 X0.9 Y5.2 E1964.0 F387.9 ;horizontal move
G1 Y5.1 E1964.1 F480.0 ;horizontal move
G1 X1.0 Y2.8 E1966.4 ;horizontal move
G1 X1.1 Y2.6 E1966.7 F600.0 ;horizontal move
G1 F1200.0; feed for start of next move
G1 E1933.3; extruder retraction
G1 F600.0; feed for start of next move
G1 X1.3 Y3.0 F1200.0 ;horizontal move
G1 X33.6 Y75.3 ;horizontal move
G1 X33.8 Y75.7 F600.0 ;horizontal move
G1 F1200.0; feed for start of next move
G1 E1983.3; extruder dwell
G1 F600.0; feed for start of next move
G1 F1200.0; feed for start of next move
G1 E2016.7; extruder dwell
G1 F600.0; feed for start of next move
G1 X23.8 Y85.7 E2030.8 F549.0 ;horizontal move
G1 X24.9 Y86.5 E2032.2 F481.2 ;horizontal move
G1 X25.2 Y86.6 E2032.5 F563.1 ;horizontal move
G1 X33.2 Y78.7 E2043.7 F480.0 ;horizontal move
G1 X33.3 Y78.6 E2043.9 F399.4 ;horizontal move
G1 Y78.7 E2044.0 F480.0 ;horizontal move
G1 Y79.6 E2044.9 ;horizontal move
G1 X33.6 Y80.7 E2046.0 F535.9 ;horizontal move
G1 X26.9 Y87.4 E2055.5 F480.0 ;horizontal move
G1 X28.4 Y88.0 E2057.1 ;horizontal move
G1 X28.7 E2057.4 F533.0 ;horizontal move
G1 X34.3 Y82.4 E2065.3 F524.9 ;horizontal move
G1 X34.6 Y83.0 E2066.0 F480.1 ;horizontal move
G1 X35.2 Y83.8 E2067.0 F484.4 ;horizontal move
G1 Y83.9 E2067.1 F580.7 ;horizontal move
G1 X30.8 Y88.3 E2073.3 F480.0 ;horizontal move
G1 X30.7 Y88.4 E2073.5 F401.6 ;horizontal move
G1 X30.8 E2073.6 F480.0 ;horizontal move
G1 X32.3 Y88.5 E2075.1 ;horizontal move
G1 X33.1 Y88.4 E2075.9 F508.4 ;horizontal move
G1 X36.6 Y84.9 E2080.8 F575.9 ;horizontal move
G1 X36.7 Y85.0 E2081.0 F485.3 ;horizontal move
G1 X37.7 Y85.3 E2082.0 F480.1 ;horizontal move
G1 X38.4 Y85.4 E2082.7 F480.0 ;horizontal move
G1 X38.5 Y85.5 E2082.9 F447.2 ;horizontal move
G1 X36.0 Y87.9 E2086.3 F480.0 ;horizontal move
G1 X36.1 E2086.4 ;horizontal move
G1 X38.1 Y87.2 E2088.5 F480.6 ;horizontal move
G1 X39.8 Y86.5 E2090.4 F488.0 ;horizontal move
G1 X40.5 Y85.8 E2091.4 F600.0 ;horizontal move
G1 F1200.0; feed for start of next move
G1 E2058.0; extruder retraction
G1 F600.0; feed for start of next move
G1 X40.1 F1200.0 ;horizontal move
G1 X22.3 Y84.0 ;horizontal move
G1 X21.9 F600.0 ;horizontal move
G1 F1200.0; feed for start of next move
G1 E2108.0; extruder dwell
G1 F600.0; feed for start of next move
G1 F1200.0; feed for start of next move
G1 E2141.4; extruder dwell
G1 F600.0; feed for start of next move
G1 X22.5 Y84.6 E2142.2 F596.4 ;horizontal move
G1 X58.0 Y49.1 E2192.4 F480.0 ;horizontal move
G1 X58.3 Y51.0 E2194.3 ;horizontal move
G1 Y51.2 E2194.5 F520.6 ;horizontal move
G1 X39.7 Y69.8 E2220.8 F480.0 ;horizontal move
G1 X40.3 Y69.5 E2221.5 ;horizontal move
G1 X42.3 Y68.5 E2223.8 F480.7 ;horizontal move
G1 X43.5 Y68.1 E2225.0 F480.1 ;horizontal move
G1 X44.0 Y67.9 E2225.6 F493.9 ;horizontal move
G1 X58.4 Y53.5 E2245.9 F480.0 ;horizontal move
G1 X58.5 Y53.4 E2246.1 F401.6 ;horizontal move
G1 Y53.5 E2246.2 F480.0 ;horizontal move
G1 Y53.8 E2246.5 ;horizontal move
G1 X58.4 Y55.9 E2248.6 F512.3 ;horizontal move
G1 X46.3 Y68.0 E2265.7 F480.0 ;horizontal move
G1 X46.6 Y68.1 E2266.0 ;horizontal move
G1 X47.1 Y68.3 E2266.5 F480.7 ;horizontal move
G1 X47.8 Y68.7 E2267.3 F481.4 ;horizontal move
G1 X47.9 Y68.8 E2267.5 F589.4 ;horizontal move
G1 X58.1 Y58.6 E2281.9 F480.0 ;horizontal move
G1 X58.0 Y59.3 E2282.6 ;horizontal move
G1 X57.5 Y61.7 E2285.1 F498.1 ;horizontal move
G1 X49.1 Y70.0 E2296.9 F572.9 ;horizontal move
G1 X49.2 Y70.3 E2297.2 F484.4 ;horizontal move
G1 X49.5 Y71.1 E2298.0 F482.4 ;horizontal move
G1 Y71.9 E2298.8 F480.0 ;horizontal move
G1 Y72.0 E2298.9 F402.9 ;horizontal move
G1 X49.6 Y71.9 E2299.1 F480.0 ;horizontal move
G1 X56.0 Y65.5 E2308.1 ;horizontal move
G1 F1200.0; feed for start of next move
G1 E2274.8; extruder retraction
G1 F600.0; feed for start of next move
M106 ;cooler on
G1 X55.6 F1200.0 ;horizontal move
G1 X-249.5 ;horizontal move
G1 X-250.0 F600.0 ;horizontal move
G92 X0 ;set x 0
G1 Y65.1 F1200.0 ;horizontal move
G1 Y-249.5 ;horizontal move
G1 Y-250.0 F600.0 ;horizontal move
G92 Y0 ;set y 0
G92 E0 ;zero the extruded length
;#!LAYER: 3/12
M107 ;cooler off
G4 P20 ;delay
G1 F40.0; feed for start of next move
G1 Z1.5 F67.8 ;z move
G1 Z2.0 F40.0 ;z move
G1 F600.0; feed for start of next move
G1 X-0.3 Y-0.3 F1200.0 ;horizontal move
G1 X-2.7 Y-2.7 ;horizontal move
G1 X-3.0 Y-3.0 F600.0 ;horizontal move
G1 F1200.0; feed for start of next move
G1 E66.7; extruder dwell
G1 F600.0; feed for start of next move
G1 F1200.0; feed for start of next move
G1 E100.0; extruder dwell
G1 F600.0; feed for start of next move
G1 X-5.0 Y6.9 E110.1 F480.0 ;horizontal move
G1 Y7.0 E110.2 F305.8 ;horizontal move
G1 Y6.9 E110.3 F480.0 ;horizontal move
G1 Y-5.0 E122.2 ;horizontal move
G1 X17.0 E144.2 F600.0 ;horizontal move
G1 F1200.0; feed for start of next move
G1 E110.9; extruder retraction
G1 F600.0; feed for start of next move
G1 X16.7 Y-4.6 F1200.0 ;horizontal move
G1 X6.9 Y8.5 ;horizontal move
G1 X6.6 Y8.9 F600.0 ;horizontal move
G1 F1200.0; feed for start of next move
G1 E160.9; extruder dwell
G1 F600.0; feed for start of next move
G1 F1200.0; feed for start of next move
G1 E194.2; extruder dwell
G1 F600.0; feed for start of next move
G1 X6.4 Y8.7 E194.5 F1080.0 ;horizontal move
G1 X0.6 Y1.3 E203.9 ;horizontal move
G1 X0.4 Y0.9 E204.3 F363.2 ;horizontal move
G1 Y1.4 E204.8 F1080.0 ;horizontal move
G1 X0.3 Y48.0 E251.4 ;horizontal move
G1 X0.4 E251.5 ;horizontal move
G1 X0.7 Y49.8 E253.4 ;horizontal move
G1 X1.2 Y52.0 E255.6 ;horizontal move
G1 X1.8 Y53.7 E257.4 ;horizontal move
G1 X2.5 Y55.2 E259.1 ;horizontal move
G1 X3.5 Y56.6 E260.8 ;horizontal move
G1 X4.8 Y57.8 E262.6 ;horizontal move
G1 X6.3 Y59.0 E264.5 ;horizontal move
G1 X7.9 Y59.9 E266.3 ;horizontal move
G1 X9.7 Y60.5 E268.2 ;horizontal move
G1 X11.5 Y60.9 E270.1 ;horizontal move
G1 X13.2 Y61.0 E271.8 ;horizontal move
G1 X15.0 Y60.8 E273.6 ;horizontal move
G1 X16.3 Y60.5 E274.9 ;horizontal move
G1 X16.8 Y60.4 E275.4 F363.1 ;horizontal move
G1 X16.4 Y60.2 E275.9 F975.4 ;horizontal move
G1 X14.7 Y59.3 E277.8 F1080.0 ;horizontal move
G1 X13.9 Y58.7 E278.8 ;horizontal move
G1 X13.2 Y58.2 E279.6 ;horizontal move
G1 X12.8 Y57.7 E280.3 ;horizontal move
G1 X12.7 E280.4 F1072.4 ;horizontal move
G1 X12.4 Y57.2 E281.0 F1080.0 ;horizontal move
G1 Y57.1 E281.1 ;horizontal move
G1 X12.2 Y56.5 E281.7 ;horizontal move
G1 X12.1 Y55.9 E282.3 ;horizontal move
G1 Y55.2 E283.0 ;horizontal move
G1 Y55.1 E283.1 F1072.0 ;horizontal move
G1 X12.2 Y54.3 E283.9 F1080.0 ;horizontal move
G1 X12.4 Y53.3 E284.9 ;horizontal move
G1 Y53.2 E285.0 F1053.1 ;horizontal move
G1 X12.7 Y52.9 E285.5 F1080.0 ;horizontal move
G1 X13.1 Y51.9 E286.5 ;horizontal move
G1 X13.6 Y51.1 E287.5 ;horizontal move
G1 X14.2 Y50.4 E288.4 ;horizontal move
G1 X14.8 Y50.0 E289.1 ;horizontal move
G1 Y49.9 E289.2 F1058.7 ;horizontal move
G1 X15.7 Y49.6 E290.2 F1080.0 ;horizontal move
G1 X16.7 Y49.3 E291.2 ;horizontal move
G1 X18.4 Y49.0 E292.9 ;horizontal move
G1 X20.8 Y48.9 E295.3 ;horizontal move
G1 X22.5 Y49.0 E297.0 ;horizontal move
G1 X23.7 Y49.2 E298.3 ;horizontal move
G1 X24.5 Y49.5 E299.1 ;horizontal move
G1 X25.5 Y50.0 E300.2 ;horizontal move
G1 X26.4 Y50.7 E301.4 ;horizontal move
G1 X27.2 Y51.5 E302.5 ;horizontal move
G1 X28.0 Y52.6 E303.9 ;horizontal move
G1 X28.6 Y53.8 E305.2 ;horizontal move
G1 X28.9 Y55.1 E306.5 ;horizontal move
G1 X29.1 Y56.4 E307.9 ;horizontal move
G1 X29.0 Y57.7 E309.2 ;horizontal move
G1 X28.7 Y59.0 E310.5 ;horizontal move
G1 Y59.1 E310.6 F1073.9 ;horizontal move
G1 X28.3 Y60.1 E311.7 F1080.0 ;horizontal move
G1 X27.7 Y61.1 E312.8 ;horizontal move
G1 X26.6 Y62.4 E314.5 ;horizontal move
G1 X24.3 Y64.8 E317.9 ;horizontal move
G1 X22.2 Y67.4 E321.2 ;horizontal move
G1 X20.3 Y70.1 E324.5 ;horizontal move
G1 X19.2 Y71.9 E326.6 ;horizontal move
G1 X18.4 Y73.5 E328.4 ;horizontal move
G1 X17.9 Y75.0 E330.0 ;horizontal move
G1 X17.7 Y76.0 E331.0 ;horizontal move
G1 Y76.1 E331.1 F1073.5 ;horizontal move
G1 Y77.1 E332.1 F1080.0 ;horizontal move
G1 X17.9 Y78.4 E333.4 ;horizontal move
G1 X18.0 Y78.5 E333.6 ;horizontal move
G1 X18.4 Y79.7 E334.8 ;horizontal move
G1 X19.1 Y81.2 E336.5 ;horizontal move
G1 X20.1 Y82.8 E338.4 ;horizontal move
G1 X21.4 Y84.4 E340.4 ;horizontal move
G1 X22.9 Y85.8 E342.5 ;horizontal move
G1 X24.6 Y87.0 E344.6 ;horizontal move
G1 X26.4 Y87.9 E346.6 ;horizontal move
G1 X28.2 Y88.5 E348.5 ;horizontal move
G1 X30.2 Y88.9 E350.5 ;horizontal move
G1 X32.3 Y89.1 E352.6 ;horizontal move
G1 X34.2 Y88.9 E354.5 ;horizontal move
G1 X34.3 E354.6 ;horizontal move
G1 X36.2 Y88.5 E356.6 ;horizontal move
G1 X36.3 E356.7 F1077.0 ;horizontal move
G1 X38.3 Y87.8 E358.8 F1080.0 ;horizontal move
G1 X40.5 Y86.8 E361.2 ;horizontal move
G1 X42.9 Y85.5 E363.9 ;horizontal move
G1 X43.3 Y85.3 E364.4 F335.6 ;horizontal move
G1 X42.9 E364.8 F1060.4 ;horizontal move
G1 X40.7 Y85.2 E367.0 F1080.0 ;horizontal move
G1 X39.1 Y85.0 E368.6 ;horizontal move
G1 X37.9 Y84.7 E369.8 ;horizontal move
G1 X37.0 Y84.4 E370.8 ;horizontal move
G1 X36.9 E370.9 ;horizontal move
G1 X36.3 Y84.0 E371.6 ;horizontal move
G1 X35.6 Y83.4 E372.5 ;horizontal move
G1 X35.1 Y82.6 E373.5 ;horizontal move
G1 X34.6 Y81.7 E374.5 ;horizontal move
G1 X34.2 Y80.7 E375.6 ;horizontal move
G1 X33.9 Y79.5 E376.8 ;horizontal move
G1 X33.8 Y78.3 E378.0 ;horizontal move
G1 X33.9 Y78.0 E378.3 ;horizontal move
G1 X34.0 Y76.9 E379.4 ;horizontal move
G1 X34.4 Y75.8 E380.6 ;horizontal move
G1 X34.9 Y74.8 E381.7 ;horizontal move
G1 X35.8 Y73.5 E383.3 ;horizontal move
G1 X36.9 Y72.4 E384.9 ;horizontal move
G1 X38.5 Y71.2 E386.9 ;horizontal move
G1 X40.5 Y70.0 E389.2 ;horizontal move
G1 X42.5 Y69.0 E391.4 ;horizontal move
G1 X43.7 Y68.6 E392.7 ;horizontal move
G1 X44.4 Y68.4 E393.4 ;horizontal move
G1 X44.5 E393.5 ;horizontal move
G1 X45.1 Y68.3 E394.1 ;horizontal move
G1 X45.2 E394.2 F1056.7 ;horizontal move
G1 X45.8 Y68.4 E394.9 F1080.0 ;horizontal move
G1 X46.4 Y68.6 E395.5 ;horizontal move
G1 X46.8 Y68.8 E395.9 ;horizontal move
G1 X47.5 Y69.2 E396.7 ;horizontal move
G1 X48.0 Y69.6 E397.4 ;horizontal move
G1 X48.4 Y70.1 E398.0 ;horizontal move
G1 X48.7 Y70.6 E398.6 ;horizontal move
G1 X48.9 Y71.2 E399.2 ;horizontal move
G1 Y72.0 E400.0 ;horizontal move
G1 X49.0 Y73.0 E401.0 ;horizontal move
G1 X48.9 Y74.1 E402.1 ;horizontal move
G1 Y74.5 E402.5 F392.0 ;horizontal move
G1 X49.2 Y74.2 E403.0 F1080.0 ;horizontal move
G1 X50.2 Y73.4 E404.2 ;horizontal move
G1 X52.2 Y71.7 E406.9 ;horizontal move
G1 X53.8 Y70.0 E409.2 ;horizontal move
G1 X55.1 Y68.3 E411.3 ;horizontal move
G1 X56.2 Y66.4 E413.5 ;horizontal move
G1 X56.3 E413.6 ;horizontal move
G1 X57.2 Y64.3 E415.9 ;horizontal move
G1 X58.0 Y62.0 E418.4 ;horizontal move
G1 X58.6 Y59.4 E421.0 ;horizontal move
G1 X59.0 Y56.6 E423.9 ;horizontal move
G1 X59.1 Y53.8 E426.7 ;horizontal move
G1 X58.9 Y50.9 E429.6 ;horizontal move
G1 X58.4 Y48.1 E432.4 ;horizontal move
G1 X57.7 Y45.3 E435.3 ;horizontal move
G1 X56.7 Y42.5 E438.3 ;horizontal move
G1 X55.4 Y39.7 E441.4 ;horizontal move
G1 Y39.6 E441.5 ;horizontal move
G1 X54.1 Y37.3 E444.1 ;horizontal move
G1 X52.4 Y35.0 E447.0 ;horizontal move
G1 X50.5 Y32.8 E449.9 ;horizontal move
G1 X48.3 Y30.7 E452.9 ;horizontal move
G1 X45.9 Y28.7 E456.0 ;horizontal move
G1 X45.8 E456.1 ;horizontal move
G1 X43.5 Y27.1 E458.9 ;horizontal move
G1 X41.3 Y25.8 E461.5 ;horizontal move
G1 X39.0 Y24.8 E464.0 ;horizontal move
G1 X36.6 Y24.1 E466.5 ;horizontal move
G1 X34.0 Y23.5 E469.2 ;horizontal move
G1 X31.4 Y23.3 E471.8 ;horizontal move
G1 X27.9 E475.3 ;horizontal move
G1 X25.9 Y23.2 E477.3 ;horizontal move
G1 X24.2 Y23.0 E479.0 ;horizontal move
G1 X24.1 E479.1 F1074.8 ;horizontal move
G1 X22.3 Y22.4 E481.0 F1080.0 ;horizontal move
G1 X20.5 Y21.7 E482.9 ;horizontal move
G1 X18.7 Y20.6 E485.0 ;horizontal move
G1 X17.0 Y19.3 E487.2 ;horizontal move
G1 X15.2 Y17.6 E489.6 ;horizontal move
G1 X12.7 Y15.0 E493.3 ;horizontal move
G1 X0.6 Y1.3 E511.5 ;horizontal move
G1 X0.4 Y0.9 E512.0 F300.5 ;horizontal move
G1 X0.6 Y1.3 E512.4 F1080.0 ;horizontal move
G1 X6.4 Y8.7 E521.8 ;horizontal move
G1 F1200.0; feed for start of next move
G1 E488.5; extruder retraction
G1 F600.0; feed for start of next move
G1 X6.6 Y8.9 F1200.0 ;horizontal move
G1 E538.5; extruder dwell
G1 F600.0; feed for start of next move
G1 F1200.0; feed for start of next move
G1 E571.8; extruder dwell
G1 F600.0; feed for start of next move
G1 X12.2 Y15.4 E580.4 F480.1 ;horizontal move
G1 X14.7 Y18.0 E584.0 F480.3 ;horizontal move
G1 X16.6 Y19.7 E586.6 F480.5 ;horizontal move
G1 X18.4 Y21.1 E588.8 F480.7 ;horizontal move
G1 X20.2 Y22.2 E591.0 F480.9 ;horizontal move
G1 X20.9 Y22.5 E591.7 F488.1 ;horizontal move
G1 X57.9 Y59.5 E644.0 F480.0 ;horizontal move
G1 X58.0 E644.1 F441.5 ;horizontal move
G1 Y59.3 E644.3 F480.0 ;horizontal move
G1 X58.3 Y57.4 E646.3 F527.6 ;horizontal move
G1 X24.5 Y23.6 E694.1 F480.0 ;horizontal move
G1 X25.9 Y23.8 E695.5 ;horizontal move
G1 X27.1 E696.7 F512.6 ;horizontal move
G1 X58.4 Y55.2 E741.0 F480.0 ;horizontal move
G1 X58.5 Y53.8 E742.4 ;horizontal move
G1 X58.4 Y52.8 E743.4 F510.0 ;horizontal move
G1 X29.6 Y23.9 E784.2 F480.0 ;horizontal move
G1 X29.5 E784.3 F385.5 ;horizontal move
G1 X29.6 E784.4 F480.0 ;horizontal move
G1 X31.4 E786.2 ;horizontal move
G1 X32.0 Y24.0 E786.8 F507.8 ;horizontal move
G1 X58.1 Y50.1 E823.7 F480.0 ;horizontal move
G1 X58.2 E823.8 F356.8 ;horizontal move
G1 X57.9 Y48.2 E825.8 F480.0 ;horizontal move
G1 X57.6 Y47.1 E826.9 F496.7 ;horizontal move
G1 X34.8 Y24.3 E859.1 F480.0 ;horizontal move
G1 X36.4 Y24.6 E860.8 ;horizontal move
G1 X38.0 Y25.1 E862.5 F493.6 ;horizontal move
G1 X56.5 Y43.6 E888.6 F480.0 ;horizontal move
G1 X56.2 Y42.7 E889.6 ;horizontal move
G1 X54.9 Y39.9 E892.7 F480.6 ;horizontal move
G1 X54.5 Y39.2 E893.5 F484.0 ;horizontal move
G1 X42.4 Y27.2 E910.5 F600.0 ;horizontal move
G1 F1200.0; feed for start of next move
G1 E877.2; extruder retraction
G1 F600.0; feed for start of next move
G1 X42.2 Y27.6 F1200.0 ;horizontal move
G1 X29.7 Y54.7 ;horizontal move
G1 X29.5 Y55.1 F600.0 ;horizontal move
G1 F1200.0; feed for start of next move
G1 E927.2; extruder dwell
G1 F600.0; feed for start of next move
G1 F1200.0; feed for start of next move
G1 E960.5; extruder dwell
G1 F600.0; feed for start of next move
G1 X42.7 Y68.3 E979.2 F480.0 ;horizontal move
G1 X42.3 Y68.5 E979.6 ;horizontal move
G1 X41.1 Y69.1 E981.0 F560.4 ;horizontal move
G1 X29.6 Y57.6 E997.2 F480.0 ;horizontal move
G1 Y57.8 E997.4 ;horizontal move
G1 X29.3 Y59.2 E998.9 F481.5 ;horizontal move
G1 X29.2 Y59.6 E999.3 F552.2 ;horizontal move
G1 X39.5 Y69.9 E1013.8 F523.7 ;horizontal move
G1 X38.1 Y70.7 E1015.4 F481.0 ;horizontal move
G1 X38.0 Y70.8 E1015.6 F584.4 ;horizontal move
G1 X28.3 Y61.2 E1029.2 F528.1 ;horizontal move
G1 X28.2 Y61.5 E1029.5 F481.8 ;horizontal move
G1 X27.3 Y62.5 E1030.9 F591.6 ;horizontal move
G1 X36.6 Y71.9 E1044.1 F561.0 ;horizontal move
G1 X36.5 E1044.2 F481.1 ;horizontal move
G1 X35.4 Y73.0 E1045.8 F598.6 ;horizontal move
G1 X26.1 Y63.7 E1058.9 F594.3 ;horizontal move
G1 X24.9 Y65.0 E1060.7 F597.7 ;horizontal move
G1 X34.4 Y74.4 E1074.1 F575.2 ;horizontal move
G1 Y74.5 E1074.2 F481.3 ;horizontal move
G1 X33.8 Y75.6 E1075.4 F481.5 ;horizontal move
G1 X33.7 Y76.1 E1075.9 F480.0 ;horizontal move
G1 X33.6 E1076.0 ;horizontal move
G1 X23.8 Y66.3 E1089.9 ;horizontal move
G1 X22.8 Y67.6 E1091.5 F587.3 ;horizontal move
G1 X33.2 Y78.1 E1106.3 F518.5 ;horizontal move
G1 Y78.3 E1106.5 F480.5 ;horizontal move
G1 X33.3 Y79.6 E1107.8 F481.7 ;horizontal move
G1 X33.6 Y80.8 E1109.0 F480.0 ;horizontal move
G1 X21.8 Y69.0 E1125.7 ;horizontal move
G1 X20.8 Y70.4 E1127.4 F480.2 ;horizontal move
G1 X37.7 Y87.4 E1151.4 F480.0 ;horizontal move
G1 X36.1 Y87.9 E1153.1 ;horizontal move
G1 X35.9 E1153.3 F534.0 ;horizontal move
G1 X19.9 Y71.9 E1175.9 F528.4 ;horizontal move
G1 X19.7 Y72.2 E1176.3 F480.5 ;horizontal move
G1 X19.1 Y73.5 E1177.7 F561.2 ;horizontal move
G1 X33.9 Y88.3 E1198.6 F480.0 ;horizontal move
G1 X33.8 E1198.7 ;horizontal move
G1 X32.3 Y88.5 E1200.3 ;horizontal move
G1 X31.6 Y88.4 E1201.0 F510.0 ;horizontal move
G1 X18.5 Y75.3 E1219.5 F480.0 ;horizontal move
G1 Y75.4 E1219.6 ;horizontal move
G1 X18.3 Y76.1 E1220.3 ;horizontal move
G1 Y77.0 E1221.2 F481.4 ;horizontal move
G1 X18.4 Y77.7 E1221.9 F503.9 ;horizontal move
G1 X28.7 Y88.0 E1236.5 F480.0 ;horizontal move
G1 X28.8 E1236.6 F351.2 ;horizontal move
G1 X28.7 E1236.7 F480.0 ;horizontal move
G1 X28.4 E1237.0 ;horizontal move
G1 X26.6 Y87.3 E1238.9 F481.1 ;horizontal move
G1 X24.9 Y86.5 E1240.8 F481.2 ;horizontal move
G1 X24.6 Y86.2 E1241.2 F481.7 ;horizontal move
G1 X20.3 Y82.0 E1247.2 F600.0 ;horizontal move
G1 F1200.0; feed for start of next move
G1 E1213.9; extruder retraction
G1 F600.0; feed for start of next move
G1 X20.7 Y82.1 F1200.0 ;horizontal move
G1 X37.7 Y85.3 ;horizontal move
G1 X38.1 Y85.4 F600.0 ;horizontal move
G1 F1200.0; feed for start of next move
G1 E1263.9; extruder dwell
G1 F600.0; feed for start of next move
G1 F1200.0; feed for start of next move
G1 E1297.2; extruder dwell
G1 F600.0; feed for start of next move
G1 X39.4 Y86.7 E1299.1 F557.0 ;horizontal move
G1 X40.2 Y86.3 E1300.0 F480.4 ;horizontal move
G1 X41.0 Y85.9 E1300.9 F516.6 ;horizontal move
G1 Y85.8 E1301.0 F600.0 ;horizontal move
G1 F1200.0; feed for start of next move
G1 E1267.6; extruder retraction
G1 F600.0; feed for start of next move
G1 X41.3 Y85.4 F1200.0 ;horizontal move
G1 X49.5 Y73.4 ;horizontal move
G1 X49.8 Y73.0 F600.0 ;horizontal move
G1 F1200.0; feed for start of next move
G1 E1317.6; extruder dwell
G1 F600.0; feed for start of next move
G1 F1200.0; feed for start of next move
G1 E1351.0; extruder dwell
G1 F600.0; feed for start of next move
G1 X49.6 Y72.8 E1351.2 F509.5 ;horizontal move
G1 X49.5 Y71.9 E1352.2 F480.0 ;horizontal move
G1 Y71.1 E1353.0 F482.4 ;horizontal move
G1 X49.2 Y70.3 E1353.8 F484.4 ;horizontal move
G1 X48.9 Y69.7 E1354.5 F481.9 ;horizontal move
G1 X48.5 Y69.3 E1355.0 F480.0 ;horizontal move
G1 X48.4 Y69.2 E1355.2 F300.4 ;horizontal move
G1 X48.5 E1355.3 F480.0 ;horizontal move
G1 X51.1 Y71.9 E1359.0 ;horizontal move
G1 X51.8 Y71.2 E1360.0 F480.4 ;horizontal move
G1 X52.3 Y70.7 E1360.7 F597.5 ;horizontal move
G1 X0.9 Y19.3 E1433.4 F515.1 ;horizontal move
G1 Y17.0 E1435.7 F480.0 ;horizontal move
G1 Y16.9 E1435.8 F387.9 ;horizontal move
G1 X1.0 Y17.0 E1436.0 F480.0 ;horizontal move
G1 X53.5 Y69.5 E1510.2 ;horizontal move
G1 X54.5 Y68.1 E1511.9 F584.9 ;horizontal move
G1 X0.9 Y14.5 E1587.7 F515.1 ;horizontal move
G1 Y12.2 E1590.0 F480.0 ;horizontal move
G1 Y12.1 E1590.1 F387.9 ;horizontal move
G1 X1.0 Y12.2 E1590.3 F480.0 ;horizontal move
G1 X55.4 Y66.6 E1667.2 ;horizontal move
G1 X55.7 Y66.1 E1667.8 F480.8 ;horizontal move
G1 X56.2 Y65.0 E1669.0 F557.7 ;horizontal move
G1 X0.9 Y9.7 E1747.2 F515.1 ;horizontal move
G1 Y7.4 E1749.5 F480.0 ;horizontal move
G1 Y7.3 E1749.6 F387.9 ;horizontal move
G1 X1.0 E1749.7 F480.0 ;horizontal move
G1 X56.9 Y63.3 E1828.8 ;horizontal move
G1 X57.4 Y61.8 E1830.4 ;horizontal move
G1 X57.5 Y61.5 E1830.7 F536.6 ;horizontal move
G1 X0.9 Y4.9 E1910.8 F515.1 ;horizontal move
G1 Y2.6 E1913.1 F480.0 ;horizontal move
G1 Y2.5 E1913.2 F374.5 ;horizontal move
G1 X1.0 Y2.6 E1913.3 F480.0 ;horizontal move
G1 X6.6 Y8.9 E1921.7 ;horizontal move
G1 F1200.0; feed for start of next move
G1 E1888.4; extruder retraction
G1 F600.0; feed for start of next move
G1 X6.4 Y9.3 F1200.0 ;horizontal move
G1 X1.1 Y21.3 ;horizontal move
G1 X0.9 Y21.7 F600.0 ;horizontal move
G1 F1200.0; feed for start of next move
G1 E1938.4; extruder dwell
G1 F600.0; feed for start of next move
G1 F1200.0; feed for start of next move
G1 E1971.7; extruder dwell
G1 F600.0; feed for start of next move
G1 X48.3 Y69.1 E2038.8 F480.0 ;horizontal move
G1 X48.4 Y69.2 E2038.9 F301.2 ;horizontal move
G1 X48.3 Y69.1 E2039.1 F480.0 ;horizontal move
G1 X47.8 Y68.7 E2039.7 ;horizontal move
G1 X47.1 Y68.3 E2040.5 F480.7 ;horizontal move
G1 X46.6 Y68.1 E2041.0 F481.8 ;horizontal move
G1 X45.9 Y67.9 E2041.8 F480.3 ;horizontal move
G1 X45.2 Y67.7 E2042.5 F485.8 ;horizontal move
G1 X44.6 Y67.8 E2043.1 F525.4 ;horizontal move
G1 X1.0 Y24.2 E2104.8 F480.0 ;horizontal move
G1 X0.9 Y24.1 E2104.9 F387.9 ;horizontal move
G1 Y24.2 E2105.0 F480.0 ;horizontal move
G1 Y26.6 E2107.4 ;horizontal move
G1 X22.8 Y48.4 E2138.3 ;horizontal move
G1 X22.5 E2138.6 ;horizontal move
G1 X20.8 Y48.3 E2140.3 F480.5 ;horizontal move
G1 X20.3 E2140.8 F518.8 ;horizontal move
G1 X1.0 Y29.0 E2168.1 F480.0 ;horizontal move
G1 X0.9 E2168.2 F387.9 ;horizontal move
G1 X1.0 Y31.4 E2170.6 F480.0 ;horizontal move
G1 X18.0 Y48.4 E2194.7 ;horizontal move
G1 X16.6 Y48.7 E2196.1 ;horizontal move
G1 X16.1 Y48.9 E2196.6 F547.3 ;horizontal move
G1 X1.0 Y33.8 E2218.0 F480.0 ;horizontal move
G1 X0.9 E2218.1 F387.9 ;horizontal move
G1 Y36.2 E2220.5 F480.0 ;horizontal move
G1 X14.3 Y49.6 E2239.4 F560.1 ;horizontal move
G1 X13.8 Y50.0 E2240.1 F482.0 ;horizontal move
G1 X13.1 Y50.7 E2241.1 F585.5 ;horizontal move
G1 X1.0 Y38.6 E2258.2 F480.0 ;horizontal move
G1 X0.9 E2258.3 F387.9 ;horizontal move
G1 X1.0 Y41.0 E2260.7 F480.0 ;horizontal move
G1 X12.3 Y52.3 E2276.7 F560.1 ;horizontal move
G1 X12.1 Y52.6 E2277.0 F480.7 ;horizontal move
G1 X11.9 Y53.0 E2277.5 F486.7 ;horizontal move
G1 X11.6 Y54.0 E2278.5 F480.0 ;horizontal move
G1 Y54.1 E2278.6 F439.7 ;horizontal move
G1 X1.0 Y43.4 E2293.7 F480.0 ;horizontal move
G1 Y45.8 E2296.1 ;horizontal move
G1 X11.6 Y56.4 E2311.1 F504.0 ;horizontal move
G1 Y56.7 E2311.4 F481.7 ;horizontal move
G1 X11.9 Y57.4 E2312.1 F483.4 ;horizontal move
G1 X12.3 Y58.0 E2312.8 F481.9 ;horizontal move
G1 X12.8 Y58.7 E2313.7 F482.7 ;horizontal move
G1 X13.5 Y59.2 E2314.6 F480.0 ;horizontal move
G1 X14.4 Y59.8 E2315.6 F481.0 ;horizontal move
G1 X15.0 Y60.1 E2316.3 F480.0 ;horizontal move
G1 Y60.2 E2316.4 F375.4 ;horizontal move
G1 X14.9 E2316.5 F480.0 ;horizontal move
G1 X13.2 Y60.4 E2318.2 F481.4 ;horizontal move
G1 X13.1 E2318.3 F511.5 ;horizontal move
G1 X1.0 Y48.3 E2335.4 F480.0 ;horizontal move
G1 Y48.2 E2335.5 F352.1 ;horizontal move
G1 Y48.3 E2335.6 F480.0 ;horizontal move
G1 X1.3 Y49.7 E2337.1 ;horizontal move
G1 X1.7 Y51.3 E2338.7 F497.9 ;horizontal move
G1 X10.4 Y60.1 E2351.1 F480.0 ;horizontal move
G1 X9.8 Y60.0 E2351.7 ;horizontal move
G1 X8.2 Y59.3 E2353.4 F481.4 ;horizontal move
G1 X6.6 Y58.5 E2355.2 F481.3 ;horizontal move
G1 X5.9 Y57.9 E2356.2 F481.1 ;horizontal move
G1 X3.6 Y55.7 E2359.3 F600.0 ;horizontal move
G1 F1200.0; feed for start of next move
G1 E2326.0; extruder retraction
G1 F600.0; feed for start of next move
M106 ;cooler on
G1 X3.2 F1200.0 ;horizontal move
G1 X-249.5 ;horizontal move
G1 X-250.0 F600.0 ;horizontal move
G92 X0 ;set x 0
G1 Y55.3 F1200.0 ;horizontal move
G1 Y-249.5 ;horizontal move
G1 Y-250.0 F600.0 ;horizontal move
G92 Y0 ;set y 0
G92 E0 ;zero the extruded length
;#!LAYER: 4/12
M107 ;cooler off
G4 P20 ;delay
G1 F40.0; feed for start of next move
G1 Z2.5 F67.8 ;z move
G1 Z3.0 F40.0 ;z move
G1 F600.0; feed for start of next move
G1 X-0.3 Y-0.3 F1200.0 ;horizontal move
G1 X-2.7 Y-2.7 ;horizontal move
G1 X-3.0 Y-3.0 F600.0 ;horizontal move
G1 F1200.0; feed for start of next move
G1 E66.7; extruder dwell
G1 F600.0; feed for start of next move
G1 F1200.0; feed for start of next move
G1 E100.0; extruder dwell
G1 F600.0; feed for start of next move
G1 X-5.0 Y6.9 E110.1 F480.0 ;horizontal move
G1 Y7.0 E110.2 F305.8 ;horizontal move
G1 Y6.9 E110.3 F480.0 ;horizontal move
G1 Y-5.0 E122.2 ;horizontal move
G1 X17.0 E144.2 F600.0 ;horizontal move
G1 F1200.0; feed for start of next move
G1 E110.9; extruder retraction
G1 F600.0; feed for start of next move
G1 X17.2 Y-4.6 F1200.0 ;horizontal move
G1 X40.1 Y44.7 ;horizontal move
G1 X40.3 Y45.1 F600.0 ;horizontal move
G1 F1200.0; feed for start of next move
G1 E160.9; extruder dwell
G1 F600.0; feed for start of next move
G1 F1200.0; feed for start of next move
G1 E194.2; extruder dwell
G1 F600.0; feed for start of next move
G1 X40.6 Y44.9 E194.6 F1080.0 ;horizontal move
G1 X50.9 Y34.5 E209.2 ;horizontal move
G1 X51.1 Y34.4 E209.4 F796.3 ;horizontal move
G1 X51.0 Y34.2 E209.6 F1080.0 ;horizontal move
G1 X50.5 Y32.8 E211.1 ;horizontal move
G1 X50.4 Y32.7 E211.3 ;horizontal move
G1 X48.3 Y30.7 E214.2 ;horizontal move
G1 X45.9 Y28.7 E217.3 ;horizontal move
G1 X45.8 E217.4 ;horizontal move
G1 X43.5 Y27.1 E220.2 ;horizontal move
G1 X41.3 Y25.8 E222.8 ;horizontal move
G1 X39.0 Y24.8 E225.3 ;horizontal move
G1 X36.6 Y24.1 E227.8 ;horizontal move
G1 X34.0 Y23.5 E230.4 ;horizontal move
G1 X31.4 Y23.3 E233.0 ;horizontal move
G1 X27.9 E236.5 ;horizontal move
G1 X25.9 Y23.2 E238.5 ;horizontal move
G1 X24.2 Y23.0 E240.3 ;horizontal move
G1 X24.1 E240.4 F1074.8 ;horizontal move
G1 X22.3 Y22.4 E242.2 F1080.0 ;horizontal move
G1 X20.5 Y21.7 E244.2 ;horizontal move
G1 X18.7 Y20.6 E246.3 ;horizontal move
G1 X17.0 Y19.3 E248.4 ;horizontal move
G1 X15.2 Y17.6 E250.9 ;horizontal move
G1 X12.7 Y15.0 E254.5 ;horizontal move
G1 X0.6 Y1.3 E272.8 ;horizontal move
G1 X0.4 Y0.9 E273.2 F374.5 ;horizontal move
G1 Y1.4 E273.7 F1080.0 ;horizontal move
G1 X0.3 Y48.0 E320.3 ;horizontal move
G1 X0.4 E320.4 ;horizontal move
G1 X0.7 Y49.8 E322.3 ;horizontal move
G1 X1.2 Y52.0 E324.5 ;horizontal move
G1 X1.8 Y53.7 E326.3 ;horizontal move
G1 X2.5 Y55.2 E328.0 ;horizontal move
G1 X3.5 Y56.6 E329.7 ;horizontal move
G1 X4.8 Y57.8 E331.5 ;horizontal move
G1 X6.3 Y59.0 E333.4 ;horizontal move
G1 X7.9 Y59.9 E335.2 ;horizontal move
G1 X9.7 Y60.5 E337.1 ;horizontal move
G1 X11.5 Y60.9 E339.0 ;horizontal move
G1 X13.2 Y61.0 E340.7 ;horizontal move
G1 X15.0 Y60.8 E342.5 ;horizontal move
G1 X16.3 Y60.5 E343.8 ;horizontal move
G1 X16.8 Y60.4 E344.3 F363.1 ;horizontal move
G1 X16.4 Y60.2 E344.8 F975.4 ;horizontal move
G1 X14.7 Y59.3 E346.7 F1080.0 ;horizontal move
G1 X13.9 Y58.7 E347.7 ;horizontal move
G1 X13.2 Y58.2 E348.6 ;horizontal move
G1 X12.8 Y57.7 E349.2 ;horizontal move
G1 X12.7 E349.3 F1072.4 ;horizontal move
G1 X12.4 Y57.2 E349.9 F1080.0 ;horizontal move
G1 Y57.1 E350.0 ;horizontal move
G1 X12.2 Y56.5 E350.6 ;horizontal move
G1 X12.1 Y55.9 E351.2 ;horizontal move
G1 Y55.2 E351.9 ;horizontal move
G1 Y55.1 E352.0 F1072.0 ;horizontal move
G1 X12.2 Y54.3 E352.8 F1080.0 ;horizontal move
G1 X12.4 Y53.3 E353.8 ;horizontal move
G1 Y53.2 E353.9 F1053.1 ;horizontal move
G1 X12.7 Y52.9 E354.4 F1080.0 ;horizontal move
G1 X13.1 Y51.9 E355.4 ;horizontal move
G1 X13.6 Y51.1 E356.4 ;horizontal move
G1 X14.2 Y50.4 E357.3 ;horizontal move
G1 X14.8 Y50.0 E358.0 ;horizontal move
G1 Y49.9 E358.1 F1058.7 ;horizontal move
G1 X15.7 Y49.6 E359.1 F1080.0 ;horizontal move
G1 X16.7 Y49.3 E360.1 ;horizontal move
G1 X18.4 Y49.0 E361.9 ;horizontal move
G1 X20.8 Y48.9 E364.3 ;horizontal move
G1 X22.5 Y49.0 E366.0 ;horizontal move
G1 X23.7 Y49.2 E367.2 ;horizontal move
G1 X24.5 Y49.5 E368.0 ;horizontal move
G1 X25.5 Y50.0 E369.1 ;horizontal move
G1 X26.4 Y50.7 E370.3 ;horizontal move
G1 X27.2 Y51.5 E371.4 ;horizontal move
G1 X28.0 Y52.6 E372.8 ;horizontal move
G1 X28.6 Y53.8 E374.1 ;horizontal move
G1 X28.9 Y55.1 E375.5 ;horizontal move
G1 X29.1 Y56.4 E376.8 ;horizontal move
G1 X29.0 Y57.7 E378.1 ;horizontal move
G1 X28.7 Y59.0 E379.4 ;horizontal move
G1 Y59.1 E379.5 F1073.9 ;horizontal move
G1 X28.3 Y60.1 E380.6 F1080.0 ;horizontal move
G1 X27.7 Y61.1 E381.8 ;horizontal move
G1 X26.6 Y62.4 E383.5 ;horizontal move
G1 X24.3 Y64.8 E386.8 ;horizontal move
G1 X22.2 Y67.4 E390.1 ;horizontal move
G1 X20.3 Y70.1 E393.4 ;horizontal move
G1 X19.2 Y71.9 E395.5 ;horizontal move
G1 X18.4 Y73.5 E397.3 ;horizontal move
G1 X17.9 Y75.0 E398.9 ;horizontal move
G1 X17.7 Y76.0 E399.9 ;horizontal move
G1 Y76.1 E400.0 F1073.5 ;horizontal move
G1 Y77.1 E401.0 F1080.0 ;horizontal move
G1 X17.9 Y78.5 E402.4 ;horizontal move
G1 X18.0 Y78.6 E402.6 ;horizontal move
G1 Y78.7 E402.7 ;horizontal move
G1 X18.4 Y79.7 E403.8 ;horizontal move
G1 X19.1 Y81.2 E405.4 ;horizontal move
G1 X20.1 Y82.8 E407.3 ;horizontal move
G1 X21.4 Y84.4 E409.4 ;horizontal move
G1 X22.9 Y85.8 E411.4 ;horizontal move
G1 X24.6 Y87.0 E413.5 ;horizontal move
G1 X26.4 Y87.9 E415.5 ;horizontal move
G1 X28.2 Y88.5 E417.4 ;horizontal move
G1 X30.2 Y88.9 E419.4 ;horizontal move
G1 X32.3 Y89.1 E421.5 ;horizontal move
G1 X34.2 Y88.9 E423.5 ;horizontal move
G1 X34.3 E423.6 ;horizontal move
G1 X36.2 Y88.5 E425.5 ;horizontal move
G1 X36.3 E425.6 F1077.0 ;horizontal move
G1 X38.3 Y87.8 E427.7 F1080.0 ;horizontal move
G1 X40.5 Y86.8 E430.1 ;horizontal move
G1 X42.9 Y85.5 E432.9 ;horizontal move
G1 X43.3 Y85.3 E433.3 F335.6 ;horizontal move
G1 X42.9 E433.7 F1060.4 ;horizontal move
G1 X40.7 Y85.2 E435.9 F1080.0 ;horizontal move
G1 X39.1 Y85.0 E437.5 ;horizontal move
G1 X37.9 Y84.7 E438.8 ;horizontal move
G1 X37.0 Y84.4 E439.7 ;horizontal move
G1 X36.9 E439.8 ;horizontal move
G1 X36.3 Y84.0 E440.5 ;horizontal move
G1 X35.6 Y83.4 E441.5 ;horizontal move
G1 X35.1 Y82.6 E442.4 ;horizontal move
G1 X34.6 Y81.7 E443.4 ;horizontal move
G1 X34.2 Y80.7 E444.5 ;horizontal move
G1 X33.9 Y79.5 E445.7 ;horizontal move
G1 X33.8 Y78.2 E447.0 ;horizontal move
G1 X34.0 Y76.9 E448.4 ;horizontal move
G1 X34.4 Y75.8 E449.5 ;horizontal move
G1 X34.9 Y74.8 E450.7 ;horizontal move
G1 X35.8 Y73.5 E452.2 ;horizontal move
G1 X36.9 Y72.4 E453.8 ;horizontal move
G1 X38.5 Y71.2 E455.8 ;horizontal move
G1 X40.5 Y70.0 E458.1 ;horizontal move
G1 X42.5 Y69.0 E460.4 ;horizontal move
G1 X43.7 Y68.6 E461.6 ;horizontal move
G1 X44.4 Y68.4 E462.3 ;horizontal move
G1 X44.5 E462.4 ;horizontal move
G1 X45.1 Y68.3 E463.1 ;horizontal move
G1 X45.2 E463.2 F1056.7 ;horizontal move
G1 X45.8 Y68.4 E463.8 F1080.0 ;horizontal move
G1 X46.4 Y68.6 E464.4 ;horizontal move
G1 X46.8 Y68.8 E464.8 ;horizontal move
G1 X47.5 Y69.2 E465.7 ;horizontal move
G1 X48.0 Y69.6 E466.3 ;horizontal move
G1 X48.4 Y70.1 E466.9 ;horizontal move
G1 X48.7 Y70.6 E467.5 ;horizontal move
G1 X48.9 Y71.2 E468.1 ;horizontal move
G1 Y72.0 E468.9 ;horizontal move
G1 X49.0 Y73.0 E470.0 ;horizontal move
G1 X48.9 Y74.1 E471.1 ;horizontal move
G1 Y74.5 E471.5 F392.0 ;horizontal move
G1 X49.2 Y74.2 E471.9 F1080.0 ;horizontal move
G1 X50.2 Y73.4 E473.2 ;horizontal move
G1 X52.2 Y71.7 E475.8 ;horizontal move
G1 X53.8 Y70.0 E478.1 ;horizontal move
G1 X55.1 Y68.3 E480.3 ;horizontal move
G1 X56.2 Y66.4 E482.5 ;horizontal move
G1 X56.3 E482.6 ;horizontal move
G1 X57.2 Y64.3 E484.8 ;horizontal move
G1 X58.0 Y62.0 E487.3 ;horizontal move
G1 X58.6 Y59.4 E489.9 ;horizontal move
G1 X59.0 Y56.6 E492.8 ;horizontal move
G1 X59.1 Y53.8 E495.6 ;horizontal move
G1 X58.9 Y50.9 E498.5 ;horizontal move
G1 X58.4 Y48.1 E501.3 ;horizontal move
G1 X57.7 Y45.3 E504.2 ;horizontal move
G1 X56.7 Y42.5 E507.2 ;horizontal move
G1 X55.4 Y39.7 E510.3 ;horizontal move
G1 Y39.6 E510.4 ;horizontal move
G1 X54.1 Y37.3 E513.0 ;horizontal move
G1 X52.4 Y35.0 E515.9 ;horizontal move
G1 X50.7 Y33.0 E518.5 ;horizontal move
G1 X50.5 Y32.8 E518.8 F550.1 ;horizontal move
G1 X50.2 Y33.0 E519.1 F1080.0 ;horizontal move
G1 X40.6 Y44.8 E534.4 ;horizontal move
G1 F1200.0; feed for start of next move
G1 E501.0; extruder retraction
G1 F600.0; feed for start of next move
G1 X40.3 Y45.1 F1200.0 ;horizontal move
G1 E551.0; extruder dwell
G1 F600.0; feed for start of next move
G1 F1200.0; feed for start of next move
G1 E584.4; extruder dwell
G1 F600.0; feed for start of next move
G1 X29.6 Y55.8 E599.5 F525.0 ;horizontal move
G1 X29.7 Y56.4 E600.1 F481.5 ;horizontal move
G1 X29.6 Y57.8 E601.5 F481.7 ;horizontal move
G1 X29.5 Y58.3 E602.0 F480.0 ;horizontal move
G1 Y58.4 E602.1 F347.4 ;horizontal move
G1 X52.2 Y35.7 E634.2 F480.0 ;horizontal move
G1 X53.2 Y37.1 E635.9 F580.0 ;horizontal move
G1 X23.2 Y67.1 E678.4 F480.7 ;horizontal move
G1 X22.7 Y67.7 E679.1 F480.4 ;horizontal move
G1 X20.8 Y70.4 E682.4 F480.2 ;horizontal move
G1 X19.7 Y72.2 E684.6 F480.5 ;horizontal move
G1 X19.1 Y73.6 E686.1 F480.0 ;horizontal move
G1 X19.0 E686.2 F316.1 ;horizontal move
G1 X19.1 E686.3 F480.0 ;horizontal move
G1 X54.1 Y38.6 E735.8 ;horizontal move
G1 X54.9 Y39.9 E737.3 F480.6 ;horizontal move
G1 X55.0 Y40.1 E737.5 F558.0 ;horizontal move
G1 X18.3 Y76.7 E789.4 F514.4 ;horizontal move
G1 Y77.0 E789.7 F481.4 ;horizontal move
G1 X18.5 Y78.3 E791.0 F500.6 ;horizontal move
G1 X18.6 E791.1 F490.8 ;horizontal move
G1 X18.7 Y78.8 E791.6 F480.0 ;horizontal move
G1 X55.7 Y41.7 E844.0 ;horizontal move
G1 X56.2 Y42.7 E845.1 F480.4 ;horizontal move
G1 X56.4 Y43.4 E845.8 F548.6 ;horizontal move
G1 X19.4 Y80.5 E898.2 F560.0 ;horizontal move
G1 X19.6 Y80.9 E898.7 F480.8 ;horizontal move
G1 X20.3 Y82.0 E900.0 F534.0 ;horizontal move
G1 X57.1 Y45.2 E952.0 F480.0 ;horizontal move
G1 X57.2 Y45.5 E952.3 ;horizontal move
G1 X57.6 Y47.1 E954.0 F538.9 ;horizontal move
G1 X21.3 Y83.3 E1005.2 F587.8 ;horizontal move
G1 X21.9 Y84.0 E1006.2 F481.0 ;horizontal move
G1 X22.5 Y84.6 E1007.0 F596.4 ;horizontal move
G1 X58.0 Y49.1 E1057.2 F480.0 ;horizontal move
G1 X58.3 Y51.0 E1059.1 ;horizontal move
G1 Y51.2 E1059.3 F520.6 ;horizontal move
G1 X39.7 Y69.8 E1085.6 F480.0 ;horizontal move
G1 X40.3 Y69.5 E1086.3 ;horizontal move
G1 X42.3 Y68.5 E1088.6 F480.7 ;horizontal move
G1 X43.5 Y68.1 E1089.8 F480.1 ;horizontal move
G1 X44.0 Y67.9 E1090.4 F493.9 ;horizontal move
G1 X58.4 Y53.5 E1110.7 F480.0 ;horizontal move
G1 X58.5 Y53.4 E1110.9 F401.6 ;horizontal move
G1 Y53.5 E1111.0 F480.0 ;horizontal move
G1 Y53.8 E1111.3 ;horizontal move
G1 X58.4 Y55.9 E1113.4 F512.3 ;horizontal move
G1 X46.3 Y68.0 E1130.5 F480.0 ;horizontal move
G1 X46.6 Y68.1 E1130.8 ;horizontal move
G1 X47.1 Y68.3 E1131.3 F480.7 ;horizontal move
G1 X47.8 Y68.7 E1132.1 F481.4 ;horizontal move
G1 X47.9 Y68.8 E1132.3 F589.4 ;horizontal move
G1 X58.1 Y58.6 E1146.7 F480.0 ;horizontal move
G1 X58.0 Y59.3 E1147.4 ;horizontal move
G1 X57.5 Y61.7 E1149.9 F498.1 ;horizontal move
G1 X49.1 Y70.0 E1161.7 F572.9 ;horizontal move
G1 X49.2 Y70.3 E1162.0 F484.4 ;horizontal move
G1 X49.5 Y71.1 E1162.8 F482.4 ;horizontal move
G1 Y71.9 E1163.6 F480.0 ;horizontal move
G1 Y72.0 E1163.7 F402.9 ;horizontal move
G1 X49.6 Y71.9 E1163.9 F480.0 ;horizontal move
G1 X56.0 Y65.5 E1172.9 ;horizontal move
G1 F1200.0; feed for start of next move
G1 E1139.6; extruder retraction
G1 F600.0; feed for start of next move
G1 X55.6 Y65.7 F1200.0 ;horizontal move
G1 X34.2 Y75.5 ;horizontal move
G1 X33.8 Y75.7 F600.0 ;horizontal move
G1 F1200.0; feed for start of next move
G1 E1189.6; extruder dwell
G1 F600.0; feed for start of next move
G1 F1200.0; feed for start of next move
G1 E1222.9; extruder dwell
G1 F600.0; feed for start of next move
G1 X23.8 Y85.7 E1237.1 F549.0 ;horizontal move
G1 X24.9 Y86.5 E1238.4 F481.2 ;horizontal move
G1 X25.2 Y86.6 E1238.8 F563.1 ;horizontal move
G1 X33.2 Y78.7 E1250.0 F480.0 ;horizontal move
G1 X33.3 Y78.6 E1250.1 F398.5 ;horizontal move
G1 Y78.7 E1250.2 F480.0 ;horizontal move
G1 Y79.6 E1251.1 ;horizontal move
G1 X33.6 Y80.7 E1252.3 F535.9 ;horizontal move
G1 X26.9 Y87.4 E1261.8 F480.0 ;horizontal move
G1 X28.4 Y88.0 E1263.4 ;horizontal move
G1 X28.7 E1263.7 F533.0 ;horizontal move
G1 X34.3 Y82.4 E1271.6 F524.9 ;horizontal move
G1 X34.6 Y83.0 E1272.3 F480.1 ;horizontal move
G1 X35.2 Y83.8 E1273.3 F484.4 ;horizontal move
G1 Y83.9 E1273.4 F580.7 ;horizontal move
G1 X30.8 Y88.3 E1279.6 F480.0 ;horizontal move
G1 X30.7 Y88.4 E1279.7 F401.6 ;horizontal move
G1 X30.8 E1279.8 F480.0 ;horizontal move
G1 X32.3 Y88.5 E1281.3 ;horizontal move
G1 X33.1 Y88.4 E1282.1 F508.4 ;horizontal move
G1 X36.6 Y84.9 E1287.1 F575.9 ;horizontal move
G1 X36.7 Y85.0 E1287.2 F485.3 ;horizontal move
G1 X37.7 Y85.3 E1288.3 F480.1 ;horizontal move
G1 X38.4 Y85.4 E1289.0 F480.0 ;horizontal move
G1 X38.5 Y85.5 E1289.1 F447.2 ;horizontal move
G1 X36.0 Y87.9 E1292.6 F480.0 ;horizontal move
G1 X36.1 E1292.7 ;horizontal move
G1 X38.1 Y87.2 E1294.8 F480.6 ;horizontal move
G1 X39.8 Y86.5 E1296.6 F488.0 ;horizontal move
G1 X40.5 Y85.8 E1297.6 F600.0 ;horizontal move
G1 F1200.0; feed for start of next move
G1 E1264.3; extruder retraction
G1 F600.0; feed for start of next move
G1 X40.2 Y85.5 F1200.0 ;horizontal move
G1 X14.2 Y59.8 ;horizontal move
G1 X13.9 Y59.5 F600.0 ;horizontal move
G1 F1200.0; feed for start of next move
G1 E1314.3; extruder dwell
G1 F600.0; feed for start of next move
G1 F1200.0; feed for start of next move
G1 E1347.6; extruder dwell
G1 F600.0; feed for start of next move
G1 X13.1 Y60.4 E1348.8 F519.0 ;horizontal move
G1 X11.5 Y60.3 E1350.4 F481.4 ;horizontal move
G1 X10.9 Y60.2 E1351.0 F480.0 ;horizontal move
G1 X12.6 Y58.4 E1353.5 ;horizontal move
G1 X12.3 Y58.0 E1354.0 F481.9 ;horizontal move
G1 X11.9 Y57.4 E1354.7 F483.4 ;horizontal move
G1 X11.7 Y56.9 E1355.3 F480.0 ;horizontal move
G1 X9.0 Y59.6 E1359.1 ;horizontal move
G1 X8.2 Y59.3 E1360.0 F481.4 ;horizontal move
G1 X7.3 Y58.9 E1360.9 F517.0 ;horizontal move
G1 X11.5 Y54.7 E1366.9 F505.0 ;horizontal move
G1 X11.6 Y54.2 E1367.4 F480.5 ;horizontal move
G1 X11.9 Y53.0 E1368.6 F486.7 ;horizontal move
G1 X12.1 Y52.6 E1369.1 F480.7 ;horizontal move
G1 X12.6 Y51.7 E1370.1 F480.3 ;horizontal move
G1 X13.1 Y50.7 E1371.2 F483.0 ;horizontal move
G1 X13.3 Y50.5 E1371.5 F480.0 ;horizontal move
G1 X5.9 Y57.9 E1382.0 ;horizontal move
G1 X5.2 Y57.4 E1382.8 F481.2 ;horizontal move
G1 X4.6 Y56.8 E1383.7 F599.1 ;horizontal move
G1 X36.7 Y24.7 E1429.1 F480.0 ;horizontal move
G1 X36.4 Y24.6 E1429.4 ;horizontal move
G1 X34.7 Y24.3 E1431.1 F533.7 ;horizontal move
G1 X3.5 Y55.5 E1475.2 F550.7 ;horizontal move
G1 X3.0 Y54.9 E1476.0 F481.5 ;horizontal move
G1 X2.6 Y54.0 E1477.0 F562.1 ;horizontal move
G1 X32.6 Y24.0 E1519.4 F480.0 ;horizontal move
G1 X31.4 Y23.9 E1520.6 ;horizontal move
G1 X30.3 E1521.7 F516.1 ;horizontal move
G1 X1.9 Y52.3 E1561.9 F480.0 ;horizontal move
G1 X1.8 Y51.8 E1562.4 ;horizontal move
G1 X1.4 Y50.4 E1563.9 F536.9 ;horizontal move
G1 X27.9 Y23.9 E1601.3 F480.0 ;horizontal move
G1 X25.9 Y23.8 E1603.3 ;horizontal move
G1 X25.6 E1603.6 F526.9 ;horizontal move
G1 X1.0 Y48.3 E1638.4 F480.0 ;horizontal move
G1 Y48.4 E1638.5 F431.0 ;horizontal move
G1 Y48.3 E1638.6 F480.0 ;horizontal move
G1 X0.9 Y48.0 E1638.9 ;horizontal move
G1 X1.0 Y46.0 E1640.9 F515.1 ;horizontal move
G1 X23.5 Y23.4 E1672.8 F480.0 ;horizontal move
G1 X23.6 E1672.9 F454.3 ;horizontal move
G1 X23.5 E1673.0 F480.0 ;horizontal move
G1 X22.1 Y23.0 E1674.4 ;horizontal move
G1 X21.7 Y22.9 E1674.8 F556.7 ;horizontal move
G1 X1.0 Y43.6 E1704.1 F480.0 ;horizontal move
G1 X0.9 Y41.2 E1706.5 ;horizontal move
G1 X20.1 Y22.1 E1733.6 F526.7 ;horizontal move
G1 X18.6 Y21.2 E1735.3 F570.7 ;horizontal move
G1 X1.0 Y38.8 E1760.2 F480.0 ;horizontal move
G1 X0.9 E1760.3 F387.9 ;horizontal move
G1 Y36.4 E1762.7 F480.0 ;horizontal move
G1 X17.2 Y20.2 E1785.7 F558.4 ;horizontal move
G1 X16.6 Y19.7 E1786.5 F480.5 ;horizontal move
G1 X15.9 Y19.1 E1787.4 F594.8 ;horizontal move
G1 X1.0 Y34.0 E1808.5 F480.0 ;horizontal move
G1 X0.9 E1808.6 F387.9 ;horizontal move
G1 Y31.6 E1811.0 F480.0 ;horizontal move
G1 X14.6 Y17.9 E1830.4 F596.5 ;horizontal move
G1 X13.5 Y16.7 E1832.0 F591.2 ;horizontal move
G1 X1.0 Y29.2 E1849.7 F480.0 ;horizontal move
G1 X0.9 E1849.8 F387.9 ;horizontal move
G1 Y26.8 E1852.2 F480.0 ;horizontal move
G1 X12.3 Y15.4 E1868.3 F596.5 ;horizontal move
G1 X12.2 E1868.4 F480.1 ;horizontal move
G1 X11.2 Y14.2 E1870.0 F580.5 ;horizontal move
G1 X1.0 Y24.4 E1884.4 F480.0 ;horizontal move
G1 X0.9 E1884.5 F387.9 ;horizontal move
G1 X1.0 Y22.0 E1886.9 F480.0 ;horizontal move
G1 X10.0 Y12.9 E1899.7 F592.2 ;horizontal move
G1 X8.9 Y11.6 E1901.4 F580.5 ;horizontal move
G1 X1.0 Y19.6 E1912.6 F480.0 ;horizontal move
G1 Y19.5 E1912.7 ;horizontal move
G1 X0.9 Y17.2 E1915.0 ;horizontal move
G1 X7.8 Y10.3 E1924.8 F592.2 ;horizontal move
G1 X6.7 Y9.0 E1926.5 F580.5 ;horizontal move
G1 X1.0 Y14.8 E1934.6 F480.0 ;horizontal move
G1 X0.9 E1934.7 F387.9 ;horizontal move
G1 Y14.7 E1934.8 F480.0 ;horizontal move
G1 Y12.4 E1937.1 ;horizontal move
G1 X5.6 Y7.8 E1943.7 F592.2 ;horizontal move
G1 X4.4 Y6.5 E1945.5 F580.5 ;horizontal move
G1 X1.0 Y9.9 E1950.3 F480.0 ;horizontal move
G1 X0.9 Y10.0 E1950.4 F387.9 ;horizontal move
G1 Y9.9 E1950.5 F480.0 ;horizontal move
G1 Y7.6 E1952.8 ;horizontal move
G1 X3.3 Y5.2 E1956.2 F592.2 ;horizontal move
G1 X2.2 Y3.9 E1957.9 F580.5 ;horizontal move
G1 X1.0 Y5.1 E1959.6 F480.0 ;horizontal move
G1 X0.9 Y5.2 E1959.8 F387.9 ;horizontal move
G1 Y5.1 E1959.9 F480.0 ;horizontal move
G1 X1.0 Y2.8 E1962.2 ;horizontal move
G1 X1.1 Y2.6 E1962.4 F600.0 ;horizontal move
G1 F1200.0; feed for start of next move
G1 E1929.0; extruder retraction
G1 F600.0; feed for start of next move
G1 X1.2 Y3.0 F1200.0 ;horizontal move
G1 X13.8 Y49.5 ;horizontal move
G1 X13.9 Y49.9 F600.0 ;horizontal move
G1 F1200.0; feed for start of next move
G1 E1979.0; extruder dwell
G1 F600.0; feed for start of next move
G1 F1200.0; feed for start of next move
G1 E2012.4; extruder dwell
G1 F600.0; feed for start of next move
G1 X38.5 Y25.3 E2047.2 F544.5 ;horizontal move
G1 X38.8 Y25.4 E2047.5 F480.7 ;horizontal move
G1 X40.2 Y26.0 E2049.0 F491.4 ;horizontal move
G1 X17.7 Y48.5 E2080.8 F480.0 ;horizontal move
G1 X17.8 E2080.9 ;horizontal move
G1 X18.3 Y48.4 E2081.4 ;horizontal move
G1 X20.3 Y48.3 E2083.4 F511.7 ;horizontal move
G1 X41.8 Y26.8 E2113.8 F567.4 ;horizontal move
G1 X43.2 Y27.6 E2115.5 F480.5 ;horizontal move
G1 X43.3 Y27.7 E2115.6 F545.4 ;horizontal move
G1 X22.6 Y48.4 E2144.9 F480.0 ;horizontal move
G1 X23.9 Y48.6 E2146.2 ;horizontal move
G1 X24.6 Y48.9 E2147.0 F548.0 ;horizontal move
G1 X44.8 Y28.7 E2175.5 F578.2 ;horizontal move
G1 X45.5 Y29.2 E2176.4 F480.4 ;horizontal move
G1 X46.1 Y29.7 E2177.2 F568.5 ;horizontal move
G1 X26.1 Y49.7 E2205.4 F558.7 ;horizontal move
G1 X26.8 Y50.2 E2206.3 F481.4 ;horizontal move
G1 X27.4 Y50.8 E2207.2 F596.3 ;horizontal move
G1 X47.5 Y30.8 E2235.5 F587.4 ;horizontal move
G1 X47.9 Y31.1 E2236.0 F480.4 ;horizontal move
G1 X48.7 Y31.9 E2237.1 F594.4 ;horizontal move
G1 X28.4 Y52.2 E2265.8 F579.5 ;horizontal move
G1 X28.5 Y52.3 E2266.0 F481.8 ;horizontal move
G1 X29.1 Y53.6 E2267.4 F481.5 ;horizontal move
G1 X29.2 Y53.8 E2267.6 F480.0 ;horizontal move
G1 Y53.9 E2267.7 F455.5 ;horizontal move
G1 Y53.8 E2267.8 F480.0 ;horizontal move
G1 X49.9 Y33.1 E2297.1 ;horizontal move
G1 X50.0 Y33.2 E2297.3 F480.4 ;horizontal move
G1 X51.1 Y34.4 E2298.9 F600.0 ;horizontal move
G1 F1200.0; feed for start of next move
G1 E2265.6; extruder retraction
G1 F600.0; feed for start of next move
M106 ;cooler on
G1 X50.7 F1200.0 ;horizontal move
G1 X-249.6 ;horizontal move
G1 X-250.0 F600.0 ;horizontal move
G92 X0 ;set x 0
G1 Y33.9 F1200.0 ;horizontal move
G1 Y-249.5 ;horizontal move
G1 Y-250.0 F600.0 ;horizontal move
G92 Y0 ;set y 0
G92 E0 ;zero the extruded length
;#!LAYER: 5/12
M107 ;cooler off
G4 P20 ;delay
G1 F40.0; feed for start of next move
G1 Z3.5 F67.8 ;z move
G1 Z4.0 F40.0 ;z move
G1 F600.0; feed for start of next move
G1 X-0.3 Y-0.3 F1200.0 ;horizontal move
G1 X-2.7 Y-2.7 ;horizontal move
G1 X-3.0 Y-3.0 F600.0 ;horizontal move
G1 F1200.0; feed for start of next move
G1 E66.7; extruder dwell
G1 F600.0; feed for start of next move
G1 F1200.0; feed for start of next move
G1 E100.0; extruder dwell
G1 F600.0; feed for start of next move
G1 X-5.0 Y6.9 E110.1 F480.0 ;horizontal move
G1 Y7.0 E110.2 F305.8 ;horizontal move
G1 Y6.9 E110.3 F480.0 ;horizontal move
G1 Y-5.0 E122.2 ;horizontal move
G1 X17.0 E144.2 F600.0 ;horizontal move
G1 F1200.0; feed for start of next move
G1 E110.9; extruder retraction
G1 F600.0; feed for start of next move
G1 X17.1 Y-4.6 F1200.0 ;horizontal move
G1 X38.7 Y85.6 ;horizontal move
G1 X38.8 Y86.0 F600.0 ;horizontal move
G1 F1200.0; feed for start of next move
G1 E160.9; extruder dwell
G1 F600.0; feed for start of next move
G1 F1200.0; feed for start of next move
G1 E194.2; extruder dwell
G1 F600.0; feed for start of next move
G1 X39.0 Y86.3 E194.6 F1080.0 ;horizontal move
G1 X39.3 Y86.5 E194.9 ;horizontal move
G1 X39.4 Y86.7 E195.1 F772.1 ;horizontal move
G1 X39.6 Y86.6 E195.4 F1080.0 ;horizontal move
G1 X40.2 Y86.3 E196.0 ;horizontal move
G1 X41.0 Y85.9 E196.9 ;horizontal move
G1 X42.9 Y85.4 E198.9 ;horizontal move
G1 X43.3 Y85.3 E199.3 F308.3 ;horizontal move
G1 X42.9 E199.7 F1052.1 ;horizontal move
G1 X40.7 Y85.2 E201.9 F1080.0 ;horizontal move
G1 X39.1 Y85.0 E203.5 ;horizontal move
G1 X37.9 Y84.7 E204.8 ;horizontal move
G1 X37.0 Y84.4 E205.7 ;horizontal move
G1 X36.9 E205.8 ;horizontal move
G1 X36.3 Y84.0 E206.5 ;horizontal move
G1 X35.6 Y83.4 E207.5 ;horizontal move
G1 X35.1 Y82.6 E208.4 ;horizontal move
G1 X34.6 Y81.7 E209.4 ;horizontal move
G1 X34.2 Y80.7 E210.5 ;horizontal move
G1 X33.9 Y79.5 E211.7 ;horizontal move
G1 X33.8 Y78.2 E213.0 ;horizontal move
G1 X34.0 Y76.9 E214.4 ;horizontal move
G1 X34.4 Y75.8 E215.5 ;horizontal move
G1 X34.9 Y74.8 E216.6 ;horizontal move
G1 X35.8 Y73.5 E218.2 ;horizontal move
G1 X36.9 Y72.4 E219.8 ;horizontal move
G1 X38.5 Y71.2 E221.8 ;horizontal move
G1 X40.5 Y70.0 E224.1 ;horizontal move
G1 X42.5 Y69.0 E226.4 ;horizontal move
G1 X43.7 Y68.6 E227.6 ;horizontal move
G1 X44.4 Y68.4 E228.3 ;horizontal move
G1 X44.5 E228.4 ;horizontal move
G1 X45.1 Y68.3 E229.1 ;horizontal move
G1 X45.2 E229.2 F1056.7 ;horizontal move
G1 X45.8 Y68.4 E229.8 F1080.0 ;horizontal move
G1 X46.4 Y68.6 E230.4 ;horizontal move
G1 X46.8 Y68.8 E230.8 ;horizontal move
G1 X47.5 Y69.2 E231.6 ;horizontal move
G1 X48.0 Y69.6 E232.3 ;horizontal move
G1 X48.4 Y70.1 E232.9 ;horizontal move
G1 X48.7 Y70.6 E233.5 ;horizontal move
G1 X48.9 Y71.2 E234.1 ;horizontal move
G1 Y72.0 E234.9 ;horizontal move
G1 X49.0 Y73.0 E236.0 ;horizontal move
G1 X48.9 Y74.1 E237.1 ;horizontal move
G1 Y74.5 E237.5 F392.0 ;horizontal move
G1 X49.2 Y74.2 E237.9 F1080.0 ;horizontal move
G1 X50.2 Y73.4 E239.2 ;horizontal move
G1 X52.2 Y71.7 E241.8 ;horizontal move
G1 X53.8 Y70.0 E244.1 ;horizontal move
G1 X55.1 Y68.3 E246.3 ;horizontal move
G1 X56.2 Y66.4 E248.5 ;horizontal move
G1 X56.3 E248.6 ;horizontal move
G1 X57.2 Y64.3 E250.8 ;horizontal move
G1 X58.0 Y62.0 E253.3 ;horizontal move
G1 X58.6 Y59.4 E255.9 ;horizontal move
G1 X59.0 Y56.6 E258.8 ;horizontal move
G1 X59.1 Y53.8 E261.6 ;horizontal move
G1 X58.9 Y50.9 E264.5 ;horizontal move
G1 X58.4 Y48.1 E267.3 ;horizontal move
G1 X57.7 Y45.3 E270.2 ;horizontal move
G1 X56.7 Y42.5 E273.2 ;horizontal move
G1 X55.4 Y39.7 E276.3 ;horizontal move
G1 Y39.6 E276.4 ;horizontal move
G1 X54.1 Y37.3 E279.0 ;horizontal move
G1 X52.4 Y35.0 E281.9 ;horizontal move
G1 X50.5 Y32.8 E284.8 ;horizontal move
G1 X48.3 Y30.7 E287.8 ;horizontal move
G1 X45.9 Y28.7 E290.9 ;horizontal move
G1 X45.8 E291.0 ;horizontal move
G1 X43.5 Y27.1 E293.8 ;horizontal move
G1 X41.3 Y25.8 E296.4 ;horizontal move
G1 X39.0 Y24.8 E298.9 ;horizontal move
G1 X36.6 Y24.1 E301.4 ;horizontal move
G1 X34.0 Y23.5 E304.1 ;horizontal move
G1 X31.4 Y23.3 E306.7 ;horizontal move
G1 X27.9 E310.2 ;horizontal move
G1 X25.9 Y23.2 E312.2 ;horizontal move
G1 X24.2 Y23.0 E313.9 ;horizontal move
G1 X24.1 E314.0 F1074.8 ;horizontal move
G1 X22.3 Y22.4 E315.9 F1080.0 ;horizontal move
G1 X20.5 Y21.7 E317.8 ;horizontal move
G1 X18.7 Y20.6 E319.9 ;horizontal move
G1 X17.0 Y19.3 E322.1 ;horizontal move
G1 X15.2 Y17.6 E324.6 ;horizontal move
G1 X12.7 Y15.0 E328.2 ;horizontal move
G1 X0.6 Y1.3 E346.4 ;horizontal move
G1 X0.4 Y0.9 E346.9 F374.5 ;horizontal move
G1 Y1.4 E347.4 F1080.0 ;horizontal move
G1 X0.3 Y48.0 E394.0 ;horizontal move
G1 X0.4 E394.1 ;horizontal move
G1 X0.7 Y49.8 E395.9 ;horizontal move
G1 X1.2 Y52.0 E398.2 ;horizontal move
G1 X1.8 Y53.7 E400.0 ;horizontal move
G1 X2.5 Y55.2 E401.6 ;horizontal move
G1 X3.5 Y56.6 E403.3 ;horizontal move
G1 X4.8 Y57.8 E405.1 ;horizontal move
G1 X6.3 Y59.0 E407.0 ;horizontal move
G1 X7.9 Y59.9 E408.9 ;horizontal move
G1 X9.7 Y60.5 E410.8 ;horizontal move
G1 X11.5 Y60.9 E412.6 ;horizontal move
G1 X13.2 Y61.0 E414.3 ;horizontal move
G1 X15.0 Y60.8 E416.1 ;horizontal move
G1 X16.3 Y60.5 E417.5 ;horizontal move
G1 X16.8 Y60.4 E418.0 F363.1 ;horizontal move
G1 X16.4 Y60.2 E418.4 F975.4 ;horizontal move
G1 X14.7 Y59.3 E420.3 F1080.0 ;horizontal move
G1 X13.9 Y58.7 E421.3 ;horizontal move
G1 X13.2 Y58.2 E422.2 ;horizontal move
G1 X12.8 Y57.7 E422.8 ;horizontal move
G1 X12.7 E422.9 F1072.4 ;horizontal move
G1 X12.4 Y57.2 E423.5 F1080.0 ;horizontal move
G1 Y57.1 E423.6 ;horizontal move
G1 X12.2 Y56.5 E424.3 ;horizontal move
G1 X12.1 Y55.9 E424.9 ;horizontal move
G1 Y55.2 E425.6 ;horizontal move
G1 Y55.1 E425.7 F1072.0 ;horizontal move
G1 X12.2 Y54.3 E426.5 F1080.0 ;horizontal move
G1 X12.4 Y53.3 E427.5 ;horizontal move
G1 Y53.2 E427.6 F1053.1 ;horizontal move
G1 X12.7 Y52.9 E428.0 F1080.0 ;horizontal move
G1 X13.1 Y51.9 E429.1 ;horizontal move
G1 X13.6 Y51.1 E430.0 ;horizontal move
G1 X14.2 Y50.4 E431.0 ;horizontal move
G1 X14.8 Y50.0 E431.7 ;horizontal move
G1 Y49.9 E431.8 F1058.7 ;horizontal move
G1 X15.7 Y49.6 E432.7 F1080.0 ;horizontal move
G1 X16.7 Y49.3 E433.8 ;horizontal move
G1 X18.4 Y49.0 E435.5 ;horizontal move
G1 X20.8 Y48.9 E437.9 ;horizontal move
G1 X22.5 Y49.0 E439.6 ;horizontal move
G1 X23.7 Y49.2 E440.8 ;horizontal move
G1 X24.5 Y49.5 E441.7 ;horizontal move
G1 X25.5 Y50.0 E442.8 ;horizontal move
G1 X26.4 Y50.7 E443.9 ;horizontal move
G1 X27.2 Y51.5 E445.1 ;horizontal move
G1 X28.0 Y52.6 E446.4 ;horizontal move
G1 X28.6 Y53.8 E447.8 ;horizontal move
G1 X28.9 Y55.1 E449.1 ;horizontal move
G1 X29.1 Y56.4 E450.4 ;horizontal move
G1 X29.0 Y57.7 E451.7 ;horizontal move
G1 X28.7 Y59.0 E453.1 ;horizontal move
G1 Y59.1 E453.2 F1073.9 ;horizontal move
G1 X28.3 Y60.1 E454.2 F1080.0 ;horizontal move
G1 X27.7 Y61.1 E455.4 ;horizontal move
G1 X26.6 Y62.4 E457.1 ;horizontal move
G1 X24.3 Y64.8 E460.4 ;horizontal move
G1 X22.2 Y67.4 E463.8 ;horizontal move
G1 X20.3 Y70.1 E467.1 ;horizontal move
G1 X19.2 Y71.9 E469.2 ;horizontal move
G1 X18.4 Y73.5 E471.0 ;horizontal move
G1 X17.9 Y75.0 E472.5 ;horizontal move
G1 X17.7 Y76.0 E473.6 ;horizontal move
G1 Y76.1 E473.7 F1073.5 ;horizontal move
G1 Y76.7 E474.3 F1080.0 ;horizontal move
G1 Y77.1 E474.7 F462.4 ;horizontal move
G1 X17.9 Y76.7 E475.1 F1080.0 ;horizontal move
G1 X18.5 Y75.5 E476.5 ;horizontal move
G1 X18.7 Y75.1 E476.9 F312.7 ;horizontal move
G1 Y75.5 E477.3 F1080.0 ;horizontal move
G1 X18.1 Y78.9 E480.8 ;horizontal move
G1 Y79.0 E480.9 ;horizontal move
G1 X18.4 Y79.7 E481.6 ;horizontal move
G1 X19.1 Y81.2 E483.3 ;horizontal move
G1 X20.1 Y82.8 E485.2 ;horizontal move
G1 X21.4 Y84.4 E487.2 ;horizontal move
G1 X22.9 Y85.8 E489.3 ;horizontal move
G1 X24.6 Y87.0 E491.4 ;horizontal move
G1 X26.4 Y87.9 E493.4 ;horizontal move
G1 X28.2 Y88.5 E495.3 ;horizontal move
G1 X30.2 Y88.9 E497.3 ;horizontal move
G1 X32.3 Y89.1 E499.4 ;horizontal move
G1 X34.2 Y88.9 E501.3 ;horizontal move
G1 X34.3 E501.4 ;horizontal move
G1 X36.2 Y88.5 E503.4 ;horizontal move
G1 X36.3 E503.5 F1077.0 ;horizontal move
G1 X38.3 Y87.8 E505.6 F1080.0 ;horizontal move
G1 X40.5 Y86.8 E508.0 ;horizontal move
G1 X42.9 Y85.5 E510.7 ;horizontal move
G1 X43.3 Y85.3 E511.2 F317.6 ;horizontal move
G1 X42.9 Y85.4 E511.6 F1080.0 ;horizontal move
G1 X39.1 Y86.0 E515.4 ;horizontal move
G1 F1200.0; feed for start of next move
G1 E482.1; extruder retraction
G1 F600.0; feed for start of next move
G1 X38.8 F1200.0 ;horizontal move
G1 E532.1; extruder dwell
G1 F600.0; feed for start of next move
G1 F1200.0; feed for start of next move
G1 E565.4; extruder dwell
G1 F600.0; feed for start of next move
G1 X38.1 Y85.4 E566.4 ;horizontal move
G1 F1200.0; feed for start of next move
G1 E533.0; extruder retraction
G1 F600.0; feed for start of next move
G1 X38.5 Y85.5 F1200.0 ;horizontal move
G1 X40.6 Y85.7 ;horizontal move
G1 X41.0 Y85.8 F600.0 ;horizontal move
G1 F1200.0; feed for start of next move
G1 E583.0; extruder dwell
G1 F600.0; feed for start of next move
G1 F1200.0; feed for start of next move
G1 E616.4; extruder dwell
G1 F600.0; feed for start of next move
G1 Y85.9 E616.5 ;horizontal move
G1 F1200.0; feed for start of next move
G1 E583.1; extruder retraction
G1 F600.0; feed for start of next move
G1 X41.3 Y85.5 F1200.0 ;horizontal move
G1 X49.5 Y73.4 ;horizontal move
G1 X49.8 Y73.0 F600.0 ;horizontal move
G1 F1200.0; feed for start of next move
G1 E633.1; extruder dwell
G1 F600.0; feed for start of next move
G1 F1200.0; feed for start of next move
G1 E666.5; extruder dwell
G1 F600.0; feed for start of next move
G1 X49.6 Y72.8 E666.7 F509.5 ;horizontal move
G1 X49.5 Y71.9 E667.6 F480.0 ;horizontal move
G1 Y71.1 E668.4 F482.4 ;horizontal move
G1 X49.2 Y70.3 E669.3 F484.4 ;horizontal move
G1 X48.9 Y69.7 E670.0 F481.9 ;horizontal move
G1 X48.5 Y69.3 E670.5 F480.0 ;horizontal move
G1 X48.4 Y69.2 E670.7 F300.4 ;horizontal move
G1 X48.5 E670.8 F480.0 ;horizontal move
G1 X51.1 Y71.9 E674.5 ;horizontal move
G1 X51.8 Y71.2 E675.5 F480.4 ;horizontal move
G1 X52.3 Y70.7 E676.2 F597.5 ;horizontal move
G1 X0.9 Y19.3 E748.9 F515.1 ;horizontal move
G1 Y17.0 E751.2 F480.0 ;horizontal move
G1 Y16.9 E751.3 F387.9 ;horizontal move
G1 X1.0 Y17.0 E751.5 F480.0 ;horizontal move
G1 X53.5 Y69.5 E825.7 ;horizontal move
G1 X54.5 Y68.1 E827.4 F584.9 ;horizontal move
G1 X0.9 Y14.5 E903.2 F515.1 ;horizontal move
G1 Y12.2 E905.5 F480.0 ;horizontal move
G1 Y12.1 E905.6 F387.9 ;horizontal move
G1 X1.0 Y12.2 E905.8 F480.0 ;horizontal move
G1 X55.4 Y66.6 E982.7 ;horizontal move
G1 X55.7 Y66.1 E983.3 F480.8 ;horizontal move
G1 X56.2 Y65.0 E984.5 F557.7 ;horizontal move
G1 X0.9 Y9.7 E1062.7 F515.1 ;horizontal move
G1 Y7.4 E1065.0 F480.0 ;horizontal move
G1 Y7.3 E1065.1 F387.9 ;horizontal move
G1 X1.0 E1065.2 F480.0 ;horizontal move
G1 X56.9 Y63.3 E1144.3 ;horizontal move
G1 X57.4 Y61.8 E1145.9 ;horizontal move
G1 X57.5 Y61.5 E1146.2 F536.6 ;horizontal move
G1 X0.9 Y4.9 E1226.3 F515.1 ;horizontal move
G1 Y2.6 E1228.6 F480.0 ;horizontal move
G1 Y2.5 E1228.7 F374.5 ;horizontal move
G1 X1.0 Y2.6 E1228.8 F480.0 ;horizontal move
G1 X12.2 Y15.4 E1245.8 ;horizontal move
G1 X14.7 Y18.0 E1249.4 F480.3 ;horizontal move
G1 X16.6 Y19.7 E1252.0 F480.5 ;horizontal move
G1 X18.4 Y21.1 E1254.3 F480.7 ;horizontal move
G1 X20.2 Y22.2 E1256.4 F480.9 ;horizontal move
G1 X20.9 Y22.5 E1257.1 F488.1 ;horizontal move
G1 X57.9 Y59.5 E1309.4 F480.0 ;horizontal move
G1 X58.0 E1309.5 F441.5 ;horizontal move
G1 Y59.3 E1309.7 F480.0 ;horizontal move
G1 X58.3 Y57.4 E1311.7 F527.6 ;horizontal move
G1 X24.5 Y23.6 E1359.5 F480.0 ;horizontal move
G1 X25.9 Y23.8 E1360.9 ;horizontal move
G1 X27.1 E1362.1 F512.6 ;horizontal move
G1 X58.4 Y55.2 E1406.4 F480.0 ;horizontal move
G1 X58.5 Y53.8 E1407.8 ;horizontal move
G1 X58.4 Y52.8 E1408.8 F510.0 ;horizontal move
G1 X29.6 Y23.9 E1449.6 F480.0 ;horizontal move
G1 X29.5 E1449.7 F385.5 ;horizontal move
G1 X29.6 E1449.8 F480.0 ;horizontal move
G1 X31.4 E1451.6 ;horizontal move
G1 X32.0 Y24.0 E1452.2 F507.8 ;horizontal move
G1 X58.1 Y50.1 E1489.2 F480.0 ;horizontal move
G1 X58.2 E1489.3 F356.8 ;horizontal move
G1 X57.9 Y48.2 E1491.2 F480.0 ;horizontal move
G1 X57.6 Y47.1 E1492.3 F496.7 ;horizontal move
G1 X34.8 Y24.3 E1524.6 F480.0 ;horizontal move
G1 X36.4 Y24.6 E1526.2 ;horizontal move
G1 X38.0 Y25.1 E1527.9 F493.6 ;horizontal move
G1 X56.5 Y43.6 E1554.0 F480.0 ;horizontal move
G1 X56.2 Y42.7 E1555.0 ;horizontal move
G1 X54.9 Y39.9 E1558.1 F480.6 ;horizontal move
G1 X54.5 Y39.2 E1558.9 F484.0 ;horizontal move
G1 X42.4 Y27.2 E1575.9 F600.0 ;horizontal move
G1 F1200.0; feed for start of next move
G1 E1542.6; extruder retraction
G1 F600.0; feed for start of next move
G1 X42.2 Y27.6 F1200.0 ;horizontal move
G1 X29.7 Y54.7 ;horizontal move
G1 X29.5 Y55.1 F600.0 ;horizontal move
G1 F1200.0; feed for start of next move
G1 E1592.6; extruder dwell
G1 F600.0; feed for start of next move
G1 F1200.0; feed for start of next move
G1 E1625.9; extruder dwell
G1 F600.0; feed for start of next move
G1 X42.7 Y68.3 E1644.6 F480.0 ;horizontal move
G1 X42.3 Y68.5 E1645.0 ;horizontal move
G1 X41.1 Y69.1 E1646.4 F560.4 ;horizontal move
G1 X29.6 Y57.6 E1662.6 F480.0 ;horizontal move
G1 Y57.8 E1662.8 ;horizontal move
G1 X29.3 Y59.2 E1664.3 F481.5 ;horizontal move
G1 X29.2 Y59.6 E1664.7 F552.2 ;horizontal move
G1 X39.5 Y69.9 E1679.2 F523.7 ;horizontal move
G1 X38.1 Y70.7 E1680.9 F481.0 ;horizontal move
G1 X38.0 Y70.8 E1681.0 F584.4 ;horizontal move
G1 X28.3 Y61.2 E1694.6 F528.1 ;horizontal move
G1 X28.2 Y61.5 E1695.0 F481.8 ;horizontal move
G1 X27.3 Y62.5 E1696.3 F591.6 ;horizontal move
G1 X36.6 Y71.9 E1709.5 F561.0 ;horizontal move
G1 X36.5 E1709.6 F481.1 ;horizontal move
G1 X35.4 Y73.0 E1711.2 F598.6 ;horizontal move
G1 X26.1 Y63.7 E1724.3 F594.3 ;horizontal move
G1 X24.9 Y65.0 E1726.1 F597.7 ;horizontal move
G1 X34.4 Y74.4 E1739.5 F575.2 ;horizontal move
G1 Y74.5 E1739.6 F481.3 ;horizontal move
G1 X33.8 Y75.6 E1740.8 F481.5 ;horizontal move
G1 X33.7 Y76.1 E1741.3 F480.0 ;horizontal move
G1 X33.6 E1741.4 ;horizontal move
G1 X23.8 Y66.3 E1755.3 ;horizontal move
G1 X22.8 Y67.6 E1756.9 F587.3 ;horizontal move
G1 X33.2 Y78.1 E1771.7 F527.6 ;horizontal move
G1 Y78.2 E1771.8 F482.1 ;horizontal move
G1 X33.3 Y79.6 E1773.2 F481.8 ;horizontal move
G1 X33.6 Y80.8 E1774.4 F480.0 ;horizontal move
G1 X21.8 Y69.0 E1791.1 ;horizontal move
G1 X20.8 Y70.4 E1792.9 F480.2 ;horizontal move
G1 X37.7 Y87.4 E1816.8 F480.0 ;horizontal move
G1 X36.1 Y87.9 E1818.5 ;horizontal move
G1 X35.9 E1818.7 F534.0 ;horizontal move
G1 X19.9 Y71.9 E1841.3 F528.4 ;horizontal move
G1 Y72.0 E1841.4 F488.5 ;horizontal move
G1 X19.5 Y74.0 E1843.5 F530.4 ;horizontal move
G1 X33.9 Y88.3 E1863.8 F480.0 ;horizontal move
G1 X33.8 E1863.9 ;horizontal move
G1 X32.3 Y88.5 E1865.4 ;horizontal move
G1 X31.6 Y88.4 E1866.1 F510.0 ;horizontal move
G1 X19.2 Y76.1 E1883.6 F480.0 ;horizontal move
G1 Y76.0 E1883.7 F426.0 ;horizontal move
G1 Y76.1 E1883.8 F480.0 ;horizontal move
G1 X18.8 Y78.1 E1885.8 ;horizontal move
G1 X28.7 Y88.0 E1899.8 ;horizontal move
G1 X28.8 E1899.9 F351.2 ;horizontal move
G1 X28.7 E1900.0 F480.0 ;horizontal move
G1 X28.4 E1900.3 ;horizontal move
G1 X26.6 Y87.3 E1902.2 F481.1 ;horizontal move
G1 X24.9 Y86.5 E1904.1 F481.2 ;horizontal move
G1 X24.6 Y86.2 E1904.5 F481.7 ;horizontal move
G1 X20.3 Y82.0 E1910.5 F600.0 ;horizontal move
G1 F1200.0; feed for start of next move
G1 E1877.2; extruder retraction
G1 F600.0; feed for start of next move
G1 X20.1 Y81.6 F1200.0 ;horizontal move
G1 X3.8 Y56.1 ;horizontal move
G1 X3.6 Y55.7 F600.0 ;horizontal move
G1 F1200.0; feed for start of next move
G1 E1927.2; extruder dwell
G1 F600.0; feed for start of next move
G1 F1200.0; feed for start of next move
G1 E1960.5; extruder dwell
G1 F600.0; feed for start of next move
G1 X5.9 Y57.9 E1963.7 F481.1 ;horizontal move
G1 X6.6 Y58.5 E1964.6 F481.3 ;horizontal move
G1 X8.2 Y59.3 E1966.4 F481.4 ;horizontal move
G1 X9.8 Y60.0 E1968.2 F481.5 ;horizontal move
G1 X10.4 Y60.1 E1968.8 F480.0 ;horizontal move
G1 X1.7 Y51.3 E1981.2 ;horizontal move
G1 X1.3 Y49.7 E1982.8 F480.1 ;horizontal move
G1 X1.0 Y48.3 E1984.2 F480.0 ;horizontal move
G1 Y48.2 E1984.3 F352.1 ;horizontal move
G1 Y48.3 E1984.4 F480.0 ;horizontal move
G1 X13.1 Y60.4 E2001.6 ;horizontal move
G1 X13.2 E2001.7 F481.4 ;horizontal move
G1 X14.9 Y60.2 E2003.4 F480.9 ;horizontal move
G1 X15.0 E2003.5 F480.0 ;horizontal move
G1 Y60.1 E2003.6 ;horizontal move
G1 X14.4 Y59.8 E2004.2 ;horizontal move
G1 X13.5 Y59.2 E2005.3 ;horizontal move
G1 X12.8 Y58.7 E2006.2 F482.7 ;horizontal move
G1 X12.3 Y58.0 E2007.0 F481.9 ;horizontal move
G1 X11.9 Y57.4 E2007.8 F483.4 ;horizontal move
G1 X11.6 Y56.7 E2008.5 F481.7 ;horizontal move
G1 Y56.4 E2008.8 F504.0 ;horizontal move
G1 X1.0 Y45.8 E2023.8 F515.1 ;horizontal move
G1 Y43.4 E2026.2 F480.0 ;horizontal move
G1 X11.6 Y54.1 E2041.3 ;horizontal move
G1 Y54.0 E2041.4 ;horizontal move
G1 X11.9 Y53.0 E2042.4 ;horizontal move
G1 X12.1 Y52.6 E2042.9 F480.7 ;horizontal move
G1 X12.3 Y52.3 E2043.2 F560.1 ;horizontal move
G1 X1.0 Y41.0 E2059.2 F515.1 ;horizontal move
G1 X0.9 Y38.6 E2061.6 F480.0 ;horizontal move
G1 X1.0 E2061.7 ;horizontal move
G1 X13.1 Y50.7 E2078.8 ;horizontal move
G1 X13.8 Y50.0 E2079.8 F482.0 ;horizontal move
G1 X14.3 Y49.6 E2080.4 F560.1 ;horizontal move
G1 X0.9 Y36.2 E2099.4 F515.1 ;horizontal move
G1 Y33.8 E2101.8 F480.0 ;horizontal move
G1 X1.0 E2101.9 ;horizontal move
G1 X16.1 Y48.9 E2123.3 ;horizontal move
G1 X16.6 Y48.7 E2123.8 F481.6 ;horizontal move
G1 X18.0 Y48.4 E2125.2 F480.0 ;horizontal move
G1 X0.9 Y31.4 E2149.3 ;horizontal move
G1 X1.0 E2149.4 F515.1 ;horizontal move
G1 X0.9 Y29.0 E2151.8 F480.0 ;horizontal move
G1 X1.0 E2151.9 ;horizontal move
G1 X20.3 Y48.3 E2179.2 ;horizontal move
G1 X20.8 E2179.7 F480.5 ;horizontal move
G1 X22.5 Y48.4 E2181.4 F481.2 ;horizontal move
G1 X22.8 E2181.7 F480.0 ;horizontal move
G1 X0.9 Y26.6 E2212.6 ;horizontal move
G1 Y24.2 E2215.0 ;horizontal move
G1 Y24.1 E2215.1 F387.9 ;horizontal move
G1 X1.0 Y24.2 E2215.3 F480.0 ;horizontal move
G1 X44.6 Y67.8 E2276.9 ;horizontal move
G1 X45.2 Y67.7 E2277.5 F485.8 ;horizontal move
G1 X45.9 Y67.9 E2278.3 F480.3 ;horizontal move
G1 X46.6 Y68.1 E2279.0 F481.8 ;horizontal move
G1 X47.1 Y68.3 E2279.5 F480.7 ;horizontal move
G1 X47.8 Y68.7 E2280.3 F481.4 ;horizontal move
G1 X48.3 Y69.1 E2281.0 F480.0 ;horizontal move
G1 X48.4 Y69.2 E2281.1 F301.2 ;horizontal move
G1 X48.3 Y69.1 E2281.3 F480.0 ;horizontal move
G1 X1.0 Y21.7 E2348.2 ;horizontal move
G1 X0.9 E2348.3 F600.0 ;horizontal move
G1 F1200.0; feed for start of next move
G1 E2315.0; extruder retraction
G1 F600.0; feed for start of next move
M106 ;cooler on
G1 X0.5 F1200.0 ;horizontal move
G1 X-249.5 ;horizontal move
G1 X-250.0 F600.0 ;horizontal move
G92 X0 ;set x 0
G1 Y21.3 F1200.0 ;horizontal move
G1 Y-249.5 ;horizontal move
G1 Y-250.0 F600.0 ;horizontal move
G92 Y0 ;set y 0
G92 E0 ;zero the extruded length
;#!LAYER: 6/12
M107 ;cooler off
G4 P20 ;delay
G1 F40.0; feed for start of next move
G1 Z4.5 F67.8 ;z move
G1 Z5.0 F40.0 ;z move
G1 F600.0; feed for start of next move
G1 X-0.3 Y-0.3 F1200.0 ;horizontal move
G1 X-2.7 Y-2.7 ;horizontal move
G1 X-3.0 Y-3.0 F600.0 ;horizontal move
G1 F1200.0; feed for start of next move
G1 E66.7; extruder dwell
G1 F600.0; feed for start of next move
G1 F1200.0; feed for start of next move
G1 E100.0; extruder dwell
G1 F600.0; feed for start of next move
G1 X-5.0 Y6.9 E110.1 F480.0 ;horizontal move
G1 Y7.0 E110.2 F305.8 ;horizontal move
G1 Y6.9 E110.3 F480.0 ;horizontal move
G1 Y-5.0 E122.2 ;horizontal move
G1 X17.0 E144.2 F600.0 ;horizontal move
G1 F1200.0; feed for start of next move
G1 E110.9; extruder retraction
G1 F600.0; feed for start of next move
G1 X17.1 Y-4.6 F1200.0 ;horizontal move
G1 X39.4 Y64.8 ;horizontal move
G1 X39.5 Y65.2 F600.0 ;horizontal move
G1 F1200.0; feed for start of next move
G1 E160.9; extruder dwell
G1 F600.0; feed for start of next move
G1 F1200.0; feed for start of next move
G1 E194.2; extruder dwell
G1 F600.0; feed for start of next move
G1 X39.2 Y65.5 E194.6 F1080.0 ;horizontal move
G1 X21.6 Y83.1 E219.5 ;horizontal move
G1 X21.3 Y83.3 E219.9 F648.9 ;horizontal move
G1 X21.5 Y83.6 E220.2 F1080.0 ;horizontal move
G1 X21.7 Y83.7 E220.5 ;horizontal move
G1 X21.9 Y84.0 E220.8 F631.7 ;horizontal move
G1 X21.6 Y84.2 E221.2 F1043.7 ;horizontal move
G1 X21.4 Y84.4 E221.5 F580.2 ;horizontal move
G1 X21.7 Y84.6 E221.8 F1080.0 ;horizontal move
G1 X22.9 Y85.8 E223.5 ;horizontal move
G1 X24.6 Y87.0 E225.6 ;horizontal move
G1 X26.4 Y87.9 E227.6 ;horizontal move
G1 X28.2 Y88.5 E229.5 ;horizontal move
G1 X30.2 Y88.9 E231.6 ;horizontal move
G1 X32.3 Y89.1 E233.7 ;horizontal move
G1 X34.2 Y88.9 E235.6 ;horizontal move
G1 X34.3 E235.7 ;horizontal move
G1 X36.2 Y88.5 E237.6 ;horizontal move
G1 X36.3 E237.7 F1077.0 ;horizontal move
G1 X38.3 Y87.8 E239.8 F1080.0 ;horizontal move
G1 X40.5 Y86.8 E242.2 ;horizontal move
G1 X42.9 Y85.5 E245.0 ;horizontal move
G1 X43.3 Y85.3 E245.4 F335.6 ;horizontal move
G1 X42.9 E245.8 F1060.4 ;horizontal move
G1 X40.7 Y85.2 E248.0 F1080.0 ;horizontal move
G1 X39.1 Y85.0 E249.6 ;horizontal move
G1 X37.9 Y84.7 E250.9 ;horizontal move
G1 X37.0 Y84.4 E251.8 ;horizontal move
G1 X36.9 E251.9 ;horizontal move
G1 X36.3 Y84.0 E252.6 ;horizontal move
G1 X35.6 Y83.4 E253.6 ;horizontal move
G1 X35.1 Y82.6 E254.5 ;horizontal move
G1 X34.6 Y81.7 E255.5 ;horizontal move
G1 X34.2 Y80.7 E256.6 ;horizontal move
G1 X33.9 Y79.5 E257.9 ;horizontal move
G1 X33.8 Y78.3 E259.1 ;horizontal move
G1 X33.9 Y78.0 E259.4 ;horizontal move
G1 X34.0 Y76.9 E260.5 ;horizontal move
G1 X34.4 Y75.8 E261.7 ;horizontal move
G1 X34.9 Y74.8 E262.8 ;horizontal move
G1 X35.8 Y73.5 E264.3 ;horizontal move
G1 X36.9 Y72.4 E265.9 ;horizontal move
G1 X38.5 Y71.2 E267.9 ;horizontal move
G1 X40.5 Y70.0 E270.2 ;horizontal move
G1 X42.5 Y69.0 E272.5 ;horizontal move
G1 X43.7 Y68.6 E273.7 ;horizontal move
G1 X44.4 Y68.4 E274.5 ;horizontal move
G1 X44.5 E274.6 ;horizontal move
G1 X45.1 Y68.3 E275.2 ;horizontal move
G1 X45.2 E275.3 F1056.7 ;horizontal move
G1 X45.8 Y68.4 E275.9 F1080.0 ;horizontal move
G1 X46.4 Y68.6 E276.5 ;horizontal move
G1 X46.8 Y68.8 E277.0 ;horizontal move
G1 X47.5 Y69.2 E277.8 ;horizontal move
G1 X48.0 Y69.6 E278.4 ;horizontal move
G1 X48.4 Y70.1 E279.0 ;horizontal move
G1 X48.7 Y70.6 E279.6 ;horizontal move
G1 X48.9 Y71.2 E280.3 ;horizontal move
G1 Y72.0 E281.1 ;horizontal move
G1 X49.0 Y73.0 E282.1 ;horizontal move
G1 X48.9 Y74.1 E283.2 ;horizontal move
G1 Y74.5 E283.6 F392.0 ;horizontal move
G1 X49.2 Y74.2 E284.0 F1080.0 ;horizontal move
G1 X50.2 Y73.4 E285.3 ;horizontal move
G1 X52.2 Y71.7 E287.9 ;horizontal move
G1 X53.8 Y70.0 E290.2 ;horizontal move
G1 X55.1 Y68.3 E292.4 ;horizontal move
