; GCode generated by RepRap Java Host Software
; Created: 2010-02-25:19-49-31
G21 ;metric is good!
G90 ;absolute positioning
T0; select new extruder
M108 S0.6; set extruder PWM
G92 E0 ;zero the extruded length
G28; go home
G1 F600.0; feed for start of next move
G1 X0.3 Y0.3 F1200.0 ;horizontal move
G1 X4.7 Y4.7 ;horizontal move
G1 X5.0 Y5.0 F600.0 ;horizontal move
M109 S165.0 ;set temperature and wait
G1 F1200.0; feed for start of next move
G1 E200.0; extruder dwell
G1 F600.0; feed for start of next move
G28; go home
G92 E0 ;zero the extruded length
;#!LAYER: 1/12
M107 ;cooler off
G4 P20 ;delay
G1 F40.0; feed for start of next move
G1 Z-0.5 F67.8 ;z move
G1 Z0.0 F40.0 ;z move
G1 F600.0; feed for start of next move
G1 X-0.3 Y-0.3 F1200.0 ;horizontal move
G1 X-2.7 Y-2.7 ;horizontal move
G1 X-3.0 Y-3.0 F600.0 ;horizontal move
G1 F1200.0; feed for start of next move
G1 E5.0; extruder dwell
G1 F600.0; feed for start of next move
G1 F1200.0; feed for start of next move
G1 E15.0; extruder dwell
G1 F600.0; feed for start of next move
G1 X-5.0 Y6.9 E25.1 F480.0 ;horizontal move
G1 Y7.0 E25.2 F305.8 ;horizontal move
G1 Y6.9 E25.3 F480.0 ;horizontal move
G1 Y-5.0 E37.2 ;horizontal move
G1 X17.0 E59.2 F600.0 ;horizontal move
G1 F1200.0; feed for start of next move
G1 E49.2; extruder retraction
G1 F600.0; feed for start of next move
G1 X17.1 Y-4.6 F1200.0 ;horizontal move
G1 X38.7 Y85.6 ;horizontal move
G1 X38.8 Y86.0 F600.0 ;horizontal move
G1 F1200.0; feed for start of next move
G1 E64.2; extruder dwell
G1 F600.0; feed for start of next move
G1 F1200.0; feed for start of next move
G1 E74.2; extruder dwell
G1 F600.0; feed for start of next move
G1 X39.0 Y86.2 E74.5 F1080.0 ;horizontal move
G1 X39.2 Y86.5 E74.8 ;horizontal move
G1 X39.4 Y86.7 E75.1 F770.1 ;horizontal move
G1 X39.6 Y86.6 E75.3 F1080.0 ;horizontal move
G1 X40.4 Y86.2 E76.2 ;horizontal move
G1 X41.0 Y85.9 E76.9 ;horizontal move
G1 X42.9 Y85.4 E78.9 ;horizontal move
G1 X43.3 Y85.3 E79.3 F308.9 ;horizontal move
G1 X42.9 E79.7 F1080.0 ;horizontal move
G1 X42.8 E79.8 ;horizontal move
G1 X40.6 Y85.2 E82.0 ;horizontal move
G1 X39.0 Y85.0 E83.6 ;horizontal move
G1 X37.9 Y84.7 E84.7 ;horizontal move
G1 X37.0 Y84.4 E85.7 ;horizontal move
G1 X36.9 E85.8 F1062.1 ;horizontal move
G1 X36.2 Y83.9 E86.7 F1080.0 ;horizontal move
G1 X35.6 Y83.3 E87.5 ;horizontal move
G1 X35.1 Y82.6 E88.4 ;horizontal move
G1 X34.6 Y81.7 E89.4 ;horizontal move
G1 Y81.6 E89.5 ;horizontal move
G1 X34.2 Y80.6 E90.6 ;horizontal move
G1 X33.9 Y79.5 E91.7 ;horizontal move
G1 Y79.4 E91.8 F1074.0 ;horizontal move
G1 X33.8 Y78.3 E92.9 F1080.0 ;horizontal move
G1 X33.9 Y78.0 E93.2 ;horizontal move
G1 X34.0 Y76.9 E94.3 ;horizontal move
G1 Y76.8 E94.4 F1073.2 ;horizontal move
G1 X34.4 Y75.8 E95.5 F1080.0 ;horizontal move
G1 Y75.7 E95.6 ;horizontal move
G1 X34.9 Y74.7 E96.7 ;horizontal move
G1 X35.0 E96.8 F1074.9 ;horizontal move
G1 X35.9 Y73.5 E98.3 F1080.0 ;horizontal move
G1 Y73.4 E98.4 ;horizontal move
G1 X37.0 Y72.3 E100.0 ;horizontal move
G1 X38.6 Y71.1 E102.0 ;horizontal move
G1 X40.6 Y69.9 E104.3 ;horizontal move
G1 X42.6 Y69.0 E106.5 ;horizontal move
G1 X43.7 Y68.6 E107.7 ;horizontal move
G1 X44.5 Y68.4 E108.5 ;horizontal move
G1 X45.2 Y68.3 E109.2 ;horizontal move
G1 X45.8 Y68.4 E109.8 ;horizontal move
G1 X46.4 Y68.7 E110.5 ;horizontal move
G1 X46.9 Y68.8 E111.0 ;horizontal move
G1 X47.5 Y69.2 E111.7 ;horizontal move
G1 X48.0 Y69.6 E112.4 ;horizontal move
G1 X48.4 Y70.1 E113.0 ;horizontal move
G1 X48.7 Y70.6 E113.6 ;horizontal move
G1 X48.9 Y71.2 E114.2 ;horizontal move
G1 Y72.0 E115.0 ;horizontal move
G1 X49.0 Y73.1 E116.1 ;horizontal move
G1 X48.9 Y74.1 E117.1 ;horizontal move
G1 Y74.5 E117.5 F391.0 ;horizontal move
G1 X49.2 Y74.2 E118.0 F1080.0 ;horizontal move
G1 X50.3 Y73.3 E119.4 ;horizontal move
G1 X52.3 Y71.6 E122.0 ;horizontal move
G1 X53.9 Y69.9 E124.3 ;horizontal move
G1 X55.2 Y68.2 E126.5 ;horizontal move
G1 X56.3 Y66.3 E128.7 ;horizontal move
G1 X57.2 Y64.2 E131.0 ;horizontal move
G1 X58.0 Y61.8 E133.5 ;horizontal move
G1 X58.6 Y59.2 E136.2 ;horizontal move
G1 X59.0 Y56.6 E138.8 ;horizontal move
G1 X59.1 Y53.6 E141.8 ;horizontal move
G1 X58.9 Y50.8 E144.6 ;horizontal move
G1 X58.4 Y48.0 E147.4 ;horizontal move
G1 X57.7 Y45.2 E150.3 ;horizontal move
G1 X56.7 Y42.3 E153.4 ;horizontal move
G1 X55.4 Y39.7 E156.3 ;horizontal move
G1 Y39.6 E156.4 ;horizontal move
G1 X54.0 Y37.2 E159.2 ;horizontal move
G1 X52.4 Y35.0 E161.9 ;horizontal move
G1 X50.5 Y32.8 E164.8 ;horizontal move
G1 X48.2 Y30.6 E168.0 ;horizontal move
G1 X45.7 Y28.6 E171.2 ;horizontal move
G1 X43.4 Y27.0 E174.0 ;horizontal move
G1 X41.1 Y25.8 E176.6 ;horizontal move
G1 X39.0 Y24.8 E178.9 ;horizontal move
G1 X36.6 Y24.1 E181.4 ;horizontal move
G1 X34.0 Y23.5 E184.1 ;horizontal move
G1 X31.3 Y23.3 E186.8 ;horizontal move
G1 X27.8 E190.3 ;horizontal move
G1 X25.9 Y23.2 E192.2 ;horizontal move
G1 X25.8 E192.3 ;horizontal move
G1 X24.1 Y23.0 E194.0 ;horizontal move
G1 X22.3 Y22.4 E195.9 ;horizontal move
G1 X20.4 Y21.6 E198.0 ;horizontal move
G1 X18.7 Y20.5 E200.0 ;horizontal move
G1 X16.9 Y19.2 E202.2 ;horizontal move
G1 X15.0 Y17.5 E204.8 ;horizontal move
G1 X12.6 Y14.9 E208.3 ;horizontal move
G1 X0.6 Y1.3 E226.4 ;horizontal move
G1 X0.4 Y0.9 E226.9 F374.6 ;horizontal move
G1 Y1.4 E227.4 F1080.0 ;horizontal move
G1 Y48.0 E274.0 ;horizontal move
G1 X0.7 Y50.0 E276.0 ;horizontal move
G1 X1.2 Y52.1 E278.2 ;horizontal move
G1 X1.8 Y53.8 E280.0 ;horizontal move
G1 X2.6 Y55.2 E281.6 ;horizontal move
G1 X3.6 Y56.6 E283.3 ;horizontal move
G1 Y56.7 E283.4 F1074.1 ;horizontal move
G1 X4.8 Y57.9 E285.1 F1080.0 ;horizontal move
G1 X6.3 Y59.0 E287.0 ;horizontal move
G1 X7.9 Y59.9 E288.8 ;horizontal move
G1 X9.8 Y60.6 E290.8 ;horizontal move
G1 X11.5 Y60.9 E292.5 ;horizontal move
G1 X11.6 E292.6 ;horizontal move
G1 X13.3 Y61.0 E294.3 ;horizontal move
G1 X15.0 Y60.8 E296.1 ;horizontal move
G1 X16.3 Y60.5 E297.4 ;horizontal move
G1 X16.8 Y60.4 E297.9 F364.1 ;horizontal move
G1 X16.4 Y60.2 E298.3 F1080.0 ;horizontal move
G1 X14.7 Y59.3 E300.3 ;horizontal move
G1 X13.9 Y58.7 E301.3 ;horizontal move
G1 X13.2 Y58.2 E302.1 ;horizontal move
G1 X12.7 Y57.7 E302.8 ;horizontal move
G1 Y57.6 E302.9 ;horizontal move
G1 X12.4 Y57.1 E303.5 ;horizontal move
G1 X12.2 Y56.5 E304.2 ;horizontal move
G1 X12.1 Y55.8 E304.9 ;horizontal move
G1 Y55.1 E305.6 ;horizontal move
G1 X12.2 Y54.2 E306.5 ;horizontal move
G1 X12.4 Y53.2 E307.5 ;horizontal move
G1 X12.5 E307.6 ;horizontal move
G1 X12.7 Y52.8 E308.0 ;horizontal move
G1 X13.1 Y51.9 E309.0 ;horizontal move
G1 X13.6 Y51.1 E310.0 ;horizontal move
G1 X14.2 Y50.4 E310.9 ;horizontal move
G1 X14.9 Y49.9 E311.7 ;horizontal move
G1 X15.7 Y49.6 E312.6 ;horizontal move
G1 X16.7 Y49.3 E313.6 ;horizontal move
G1 X18.4 Y49.0 E315.4 ;horizontal move
G1 X20.9 Y48.9 E317.9 ;horizontal move
G1 X22.5 Y49.0 E319.5 ;horizontal move
G1 X23.8 Y49.2 E320.8 ;horizontal move
G1 X24.6 Y49.5 E321.6 ;horizontal move
G1 X25.5 Y50.0 E322.7 ;horizontal move
G1 X25.6 E322.8 F1073.8 ;horizontal move
G1 X26.4 Y50.7 E323.8 F1080.0 ;horizontal move
G1 X27.2 Y51.6 E325.0 ;horizontal move
G1 X27.3 E325.1 F1075.1 ;horizontal move
G1 X28.0 Y52.6 E326.4 F1080.0 ;horizontal move
G1 X28.6 Y53.9 E327.8 ;horizontal move
G1 X28.9 Y55.1 E329.0 ;horizontal move
G1 X29.1 Y56.4 E330.3 ;horizontal move
G1 X29.0 Y57.8 E331.7 ;horizontal move
G1 X28.7 Y59.1 E333.1 ;horizontal move
G1 X28.3 Y60.1 E334.2 ;horizontal move
G1 Y60.2 E334.3 ;horizontal move
G1 X27.7 Y61.1 E335.3 ;horizontal move
G1 X26.5 Y62.5 E337.2 ;horizontal move
G1 X24.3 Y64.8 E340.4 ;horizontal move
G1 X22.2 Y67.4 E343.7 ;horizontal move
G1 X20.3 Y70.2 E347.1 ;horizontal move
G1 X19.1 Y72.0 E349.3 ;horizontal move
G1 X18.4 Y73.6 E351.0 ;horizontal move
G1 X17.9 Y75.0 E352.5 ;horizontal move
G1 X17.7 Y76.1 E353.6 ;horizontal move
G1 Y77.1 E354.6 ;horizontal move
G1 X17.9 Y78.3 E355.8 ;horizontal move
G1 X18.4 Y79.7 E357.3 ;horizontal move
G1 Y79.8 E357.4 ;horizontal move
G1 X19.1 Y81.2 E359.0 ;horizontal move
G1 X20.1 Y82.8 E360.9 ;horizontal move
G1 X21.4 Y84.4 E362.9 ;horizontal move
G1 X22.9 Y85.8 E365.0 ;horizontal move
G1 X24.7 Y87.0 E367.1 ;horizontal move
G1 X26.4 Y87.9 E369.1 ;horizontal move
G1 X28.3 Y88.6 E371.1 ;horizontal move
G1 X30.3 Y88.9 E373.1 ;horizontal move
G1 X32.3 Y89.1 E375.1 ;horizontal move
G1 X34.3 Y88.9 E377.1 ;horizontal move
G1 X34.4 E377.2 ;horizontal move
G1 X36.3 Y88.5 E379.2 ;horizontal move
G1 X36.4 E379.3 ;horizontal move
G1 X38.4 Y87.8 E381.4 ;horizontal move
G1 X40.6 Y86.8 E383.8 ;horizontal move
G1 X42.9 Y85.5 E386.4 ;horizontal move
G1 X43.3 Y85.3 E386.9 F317.7 ;horizontal move
G1 X42.9 E387.3 F1080.0 ;horizontal move
G1 X39.1 Y86.0 E391.2 ;horizontal move
G1 F1200.0; feed for start of next move
G1 E381.2; extruder retraction
G1 F600.0; feed for start of next move
G1 X38.8 F1200.0 ;horizontal move
G1 E396.2; extruder dwell
G1 F600.0; feed for start of next move
G1 F1200.0; feed for start of next move
G1 E406.2; extruder dwell
G1 F600.0; feed for start of next move
G1 X38.1 Y85.4 E407.1 ;horizontal move
G1 F1200.0; feed for start of next move
G1 E397.1; extruder retraction
G1 F600.0; feed for start of next move
G1 X38.5 Y85.5 F1200.0 ;horizontal move
G1 X40.6 Y85.7 ;horizontal move
G1 X41.0 Y85.8 F600.0 ;horizontal move
G1 F1200.0; feed for start of next move
G1 E412.1; extruder dwell
G1 F600.0; feed for start of next move
G1 F1200.0; feed for start of next move
G1 E422.1; extruder dwell
G1 F600.0; feed for start of next move
G1 Y85.9 E422.2 ;horizontal move
G1 F1200.0; feed for start of next move
G1 E412.2; extruder retraction
G1 F600.0; feed for start of next move
G1 X41.3 Y85.5 F1200.0 ;horizontal move
G1 X49.5 Y73.4 ;horizontal move
G1 X49.8 Y73.0 F600.0 ;horizontal move
G1 F1200.0; feed for start of next move
G1 E427.2; extruder dwell
G1 F600.0; feed for start of next move
G1 F1200.0; feed for start of next move
G1 E437.2; extruder dwell
G1 F600.0; feed for start of next move
G1 X49.6 Y72.8 E437.5 F509.7 ;horizontal move
G1 X49.5 Y72.0 E438.3 F480.0 ;horizontal move
G1 Y71.1 E439.2 F484.6 ;horizontal move
G1 X49.2 Y70.4 E439.9 F482.5 ;horizontal move
G1 X48.9 Y69.7 E440.7 F481.4 ;horizontal move
G1 X48.6 Y69.5 E441.1 F480.0 ;horizontal move
G1 Y69.4 E441.2 F301.5 ;horizontal move
G1 X51.1 Y71.9 E444.7 F480.0 ;horizontal move
G1 X51.9 Y71.1 E445.8 F480.4 ;horizontal move
G1 X52.3 Y70.7 E446.4 F597.1 ;horizontal move
G1 X0.9 Y19.4 E519.0 F515.1 ;horizontal move
G1 Y17.0 E521.4 F480.0 ;horizontal move
G1 Y16.9 E521.5 F387.9 ;horizontal move
G1 X1.0 Y17.0 E521.6 F480.0 ;horizontal move
G1 X53.5 Y69.5 E595.9 ;horizontal move
G1 X54.5 Y68.1 E597.6 F584.2 ;horizontal move
G1 X0.9 Y14.5 E673.4 F515.1 ;horizontal move
G1 Y12.2 E675.7 F480.0 ;horizontal move
G1 Y12.1 E675.8 F387.9 ;horizontal move
G1 X1.0 Y12.2 E676.0 F480.0 ;horizontal move
G1 X55.4 Y66.6 E752.9 ;horizontal move
G1 X55.8 Y66.0 E753.6 F480.8 ;horizontal move
G1 X56.2 Y65.0 E754.7 F557.1 ;horizontal move
G1 X0.9 Y9.7 E832.9 F515.1 ;horizontal move
G1 Y7.4 E835.2 F480.0 ;horizontal move
G1 Y7.3 E835.3 F387.9 ;horizontal move
G1 X1.0 Y7.4 E835.4 F480.0 ;horizontal move
G1 X56.9 Y63.3 E914.5 ;horizontal move
G1 X57.4 Y61.7 E916.2 ;horizontal move
G1 X57.5 Y61.5 E916.4 F536.1 ;horizontal move
G1 X0.9 Y4.9 E996.4 F515.1 ;horizontal move
G1 Y2.6 E998.7 F480.0 ;horizontal move
G1 Y2.5 E998.8 F374.6 ;horizontal move
G1 X1.0 Y2.6 E999.0 F480.0 ;horizontal move
G1 X12.2 Y15.3 E1015.9 ;horizontal move
G1 X14.6 Y17.9 E1019.4 F480.3 ;horizontal move
G1 X16.5 Y19.6 E1022.0 F480.5 ;horizontal move
G1 X18.3 Y21.0 E1024.3 F480.8 ;horizontal move
G1 X20.2 Y22.1 E1026.5 ;horizontal move
G1 X20.9 Y22.5 E1027.3 F487.8 ;horizontal move
G1 X57.9 Y59.5 E1079.6 F480.0 ;horizontal move
G1 X58.0 Y59.1 E1080.0 ;horizontal move
G1 X58.3 Y57.4 E1081.7 F527.6 ;horizontal move
G1 X24.5 Y23.6 E1129.5 F480.0 ;horizontal move
G1 X24.4 E1129.6 F361.0 ;horizontal move
G1 X24.5 E1129.7 F480.0 ;horizontal move
G1 X25.8 Y23.8 E1131.1 ;horizontal move
G1 X27.1 E1132.4 F512.6 ;horizontal move
G1 X58.4 Y55.2 E1176.7 F480.0 ;horizontal move
G1 X58.5 Y53.6 E1178.3 ;horizontal move
G1 X58.4 Y52.8 E1179.1 F509.7 ;horizontal move
G1 X29.5 Y23.9 E1220.0 F480.0 ;horizontal move
G1 X29.6 E1220.1 ;horizontal move
G1 X31.2 E1221.7 ;horizontal move
G1 X32.0 Y24.0 E1222.5 F508.2 ;horizontal move
G1 X58.1 Y50.1 E1259.4 F480.0 ;horizontal move
G1 X58.2 E1259.5 F356.2 ;horizontal move
G1 X57.8 Y48.1 E1261.5 F480.0 ;horizontal move
G1 X57.6 Y47.1 E1262.6 F496.3 ;horizontal move
G1 X34.8 Y24.3 E1294.8 F480.0 ;horizontal move
G1 X36.4 Y24.6 E1296.4 ;horizontal move
G1 X38.0 Y25.1 E1298.1 F493.6 ;horizontal move
G1 X56.5 Y43.6 E1324.3 F480.0 ;horizontal move
G1 X56.1 Y42.6 E1325.3 ;horizontal move
G1 X54.9 Y39.9 E1328.3 F480.6 ;horizontal move
G1 X54.5 Y39.2 E1329.1 F483.9 ;horizontal move
G1 X42.4 Y27.2 E1346.1 F600.0 ;horizontal move
G1 F1200.0; feed for start of next move
G1 E1336.1; extruder retraction
G1 F600.0; feed for start of next move
G1 X42.2 Y27.6 F1200.0 ;horizontal move
G1 X29.7 Y54.7 ;horizontal move
G1 X29.5 Y55.1 F600.0 ;horizontal move
G1 F1200.0; feed for start of next move
G1 E1351.1; extruder dwell
G1 F600.0; feed for start of next move
G1 F1200.0; feed for start of next move
G1 E1361.1; extruder dwell
G1 F600.0; feed for start of next move
G1 X42.7 Y68.3 E1379.8 F480.0 ;horizontal move
G1 X42.3 Y68.5 E1380.3 ;horizontal move
G1 X41.1 Y69.1 E1381.6 F559.6 ;horizontal move
G1 X29.6 Y57.6 E1397.9 F480.0 ;horizontal move
G1 Y57.9 E1398.2 ;horizontal move
G1 X29.3 Y59.3 E1399.6 F481.5 ;horizontal move
G1 X29.1 Y59.6 E1400.0 F553.1 ;horizontal move
G1 X39.5 Y69.9 E1414.6 F523.2 ;horizontal move
G1 X38.2 Y70.6 E1416.1 F480.8 ;horizontal move
G1 X38.0 Y70.8 E1416.4 F583.3 ;horizontal move
G1 X28.3 Y61.2 E1430.0 F528.2 ;horizontal move
G1 X28.2 Y61.5 E1430.3 F481.8 ;horizontal move
G1 X27.3 Y62.5 E1431.7 F591.9 ;horizontal move
G1 X36.6 Y71.9 E1444.9 F541.1 ;horizontal move
G1 X35.4 Y73.1 E1446.6 F600.0 ;horizontal move
G1 X26.1 Y63.7 E1459.8 F594.7 ;horizontal move
G1 X24.9 Y65.0 E1461.6 F597.9 ;horizontal move
G1 X34.4 Y74.5 E1475.0 F564.3 ;horizontal move
G1 X33.9 Y75.5 E1476.1 F481.5 ;horizontal move
G1 X33.7 Y76.1 E1476.8 F480.0 ;horizontal move
G1 X23.8 Y66.3 E1490.7 ;horizontal move
G1 X22.8 Y67.6 E1492.3 F587.3 ;horizontal move
G1 X33.3 Y78.1 E1507.2 F521.0 ;horizontal move
G1 X33.2 Y78.3 E1507.4 F480.9 ;horizontal move
G1 X33.3 Y79.5 E1508.6 F481.5 ;horizontal move
G1 X33.6 Y80.8 E1509.9 F481.6 ;horizontal move
G1 Y80.9 E1510.0 F324.9 ;horizontal move
G1 Y80.8 E1510.1 F480.0 ;horizontal move
G1 X21.8 Y69.0 E1526.8 ;horizontal move
G1 X20.8 Y70.4 E1528.5 F577.9 ;horizontal move
G1 X37.7 Y87.4 E1552.5 F480.0 ;horizontal move
G1 X36.2 Y87.9 E1554.1 ;horizontal move
G1 X35.9 E1554.4 F534.5 ;horizontal move
G1 X19.9 Y72.0 E1577.0 F526.8 ;horizontal move
G1 X19.7 Y72.3 E1577.3 F480.5 ;horizontal move
G1 X19.1 Y73.5 E1578.7 F560.7 ;horizontal move
G1 X33.8 Y88.3 E1599.5 F480.0 ;horizontal move
G1 X33.9 E1599.6 F407.5 ;horizontal move
G1 X33.8 E1599.7 F480.0 ;horizontal move
G1 X32.2 Y88.5 E1601.3 ;horizontal move
G1 X31.5 Y88.4 E1602.0 F510.1 ;horizontal move
G1 X18.5 Y75.4 E1620.4 F480.0 ;horizontal move
G1 Y75.3 E1620.5 F425.6 ;horizontal move
G1 Y75.4 E1620.6 F480.0 ;horizontal move
G1 X18.3 Y76.2 E1621.4 ;horizontal move
G1 Y77.1 E1622.3 F481.7 ;horizontal move
G1 X18.4 Y77.7 E1623.0 F502.9 ;horizontal move
G1 X28.7 Y88.0 E1637.5 F480.0 ;horizontal move
G1 X28.8 E1637.6 F352.0 ;horizontal move
G1 X28.7 E1637.7 F480.0 ;horizontal move
G1 X28.5 E1637.9 ;horizontal move
G1 X26.7 Y87.4 E1639.8 F481.1 ;horizontal move
G1 X25.0 Y86.5 E1641.7 F481.3 ;horizontal move
G1 X24.5 Y86.2 E1642.3 F481.8 ;horizontal move
G1 X20.3 Y82.0 E1648.3 F600.0 ;horizontal move
G1 F1200.0; feed for start of next move
G1 E1638.3; extruder retraction
G1 F600.0; feed for start of next move
G1 X20.1 Y81.6 F1200.0 ;horizontal move
G1 X3.9 Y56.1 ;horizontal move
G1 X3.7 Y55.7 F600.0 ;horizontal move
G1 F1200.0; feed for start of next move
G1 E1653.3; extruder dwell
G1 F600.0; feed for start of next move
G1 F1200.0; feed for start of next move
G1 E1663.3; extruder dwell
G1 F600.0; feed for start of next move
G1 X5.8 Y57.9 E1666.3 F481.2 ;horizontal move
G1 X6.7 Y58.5 E1667.4 ;horizontal move
G1 X8.2 Y59.3 E1669.1 F481.4 ;horizontal move
G1 X9.9 Y60.0 E1670.9 ;horizontal move
G1 X10.4 Y60.1 E1671.4 F480.0 ;horizontal move
G1 Y60.0 E1671.5 ;horizontal move
G1 X1.7 Y51.3 E1683.8 ;horizontal move
G1 X1.3 Y49.8 E1685.4 F480.2 ;horizontal move
G1 X1.0 Y48.3 E1686.9 F480.0 ;horizontal move
G1 X13.1 Y60.4 E1704.0 ;horizontal move
G1 X13.3 E1704.2 F481.2 ;horizontal move
G1 X14.9 Y60.2 E1705.8 F480.9 ;horizontal move
G1 X15.0 E1705.9 F480.0 ;horizontal move
G1 X15.1 E1706.0 F376.1 ;horizontal move
G1 X15.0 Y60.1 E1706.2 F480.0 ;horizontal move
G1 X14.4 Y59.8 E1706.9 ;horizontal move
G1 X13.5 Y59.2 E1707.9 ;horizontal move
G1 X12.8 Y58.6 E1708.9 F484.1 ;horizontal move
G1 X12.2 Y58.0 E1709.7 F481.6 ;horizontal move
G1 X11.9 Y57.4 E1710.4 F481.9 ;horizontal move
G1 X11.6 Y56.6 E1711.2 F483.8 ;horizontal move
G1 Y56.4 E1711.4 F507.3 ;horizontal move
G1 X1.0 Y45.8 E1726.4 F515.1 ;horizontal move
G1 Y43.4 E1728.8 F480.0 ;horizontal move
G1 X11.6 Y54.1 E1743.9 ;horizontal move
G1 X11.9 Y53.0 E1745.0 ;horizontal move
G1 X12.1 Y52.6 E1745.5 F480.3 ;horizontal move
G1 X12.3 Y52.3 E1745.8 F560.6 ;horizontal move
G1 X1.0 Y41.0 E1761.8 F515.1 ;horizontal move
G1 X0.9 Y38.6 E1764.2 F480.0 ;horizontal move
G1 X1.0 E1764.3 ;horizontal move
G1 X13.1 Y50.7 E1781.4 ;horizontal move
G1 X13.8 Y50.0 E1782.4 F482.1 ;horizontal move
G1 X14.3 Y49.6 E1783.1 F556.7 ;horizontal move
G1 X0.9 Y36.2 E1802.0 F515.1 ;horizontal move
G1 Y33.8 E1804.4 F480.0 ;horizontal move
G1 X1.0 E1804.5 ;horizontal move
G1 X16.0 Y48.9 E1825.8 ;horizontal move
G1 X16.6 Y48.7 E1826.4 F481.6 ;horizontal move
G1 X18.0 Y48.4 E1827.9 F480.0 ;horizontal move
G1 X0.9 Y31.4 E1852.0 ;horizontal move
G1 Y29.0 E1854.4 ;horizontal move
G1 X1.0 E1854.5 ;horizontal move
G1 X20.3 Y48.3 E1881.8 ;horizontal move
G1 X20.9 E1882.4 F480.4 ;horizontal move
G1 X22.5 Y48.4 E1884.0 F481.4 ;horizontal move
G1 X22.8 E1884.3 F480.0 ;horizontal move
G1 X0.9 Y26.6 E1915.2 ;horizontal move
G1 X1.0 E1915.3 F515.1 ;horizontal move
G1 X0.9 Y24.2 E1917.7 F480.0 ;horizontal move
G1 X1.0 E1917.8 ;horizontal move
G1 X44.5 Y67.8 E1979.4 ;horizontal move
G1 X45.2 Y67.7 E1980.1 F481.9 ;horizontal move
G1 X46.0 Y67.8 E1980.9 F483.3 ;horizontal move
G1 X46.7 Y68.1 E1981.6 F480.0 ;horizontal move
G1 X47.1 Y68.3 E1982.1 F482.1 ;horizontal move
G1 X47.8 Y68.7 E1982.9 F480.6 ;horizontal move
G1 X48.2 Y69.0 E1983.4 F480.0 ;horizontal move
G1 Y69.1 E1983.5 F302.2 ;horizontal move
G1 Y69.0 E1983.6 F480.0 ;horizontal move
G1 X0.9 Y21.8 E2050.4 ;horizontal move
G1 F1200.0; feed for start of next move
G1 E2040.4; extruder retraction
G1 F600.0; feed for start of next move
M106 ;cooler on
G1 X0.5 F1200.0 ;horizontal move
G1 X-249.5 ;horizontal move
G1 X-250.0 F600.0 ;horizontal move
G92 X0 ;set x 0
G1 Y21.4 F1200.0 ;horizontal move
G1 Y-249.5 ;horizontal move
G1 Y-250.0 F600.0 ;horizontal move
G92 Y0 ;set y 0
G92 E0 ;zero the extruded length
;#!LAYER: 2/12
M107 ;cooler off
G4 P20 ;delay
G1 F40.0; feed for start of next move
G1 Z0.5 F67.8 ;z move
G1 Z1.0 F40.0 ;z move
G1 F600.0; feed for start of next move
G1 X-0.3 Y-0.3 F1200.0 ;horizontal move
G1 X-2.7 Y-2.7 ;horizontal move
G1 X-3.0 Y-3.0 F600.0 ;horizontal move
G1 F1200.0; feed for start of next move
G1 E16.7; extruder dwell
G1 F600.0; feed for start of next move
G1 F1200.0; feed for start of next move
G1 E50.0; extruder dwell
G1 F600.0; feed for start of next move
G1 X-5.0 Y6.9 E60.1 F480.0 ;horizontal move
G1 Y7.0 E60.2 F305.8 ;horizontal move
G1 Y6.9 E60.3 F480.0 ;horizontal move
G1 Y-5.0 E72.2 ;horizontal move
G1 X17.0 E94.2 F600.0 ;horizontal move
G1 F1200.0; feed for start of next move
G1 E60.9; extruder retraction
G1 F600.0; feed for start of next move
G1 X17.1 Y-4.6 F1200.0 ;horizontal move
G1 X39.4 Y64.8 ;horizontal move
G1 X39.5 Y65.2 F600.0 ;horizontal move
G1 F1200.0; feed for start of next move
G1 E110.9; extruder dwell
G1 F600.0; feed for start of next move
G1 F1200.0; feed for start of next move
G1 E144.2; extruder dwell
G1 F600.0; feed for start of next move
G1 X39.2 Y65.5 E144.6 F1080.0 ;horizontal move
G1 X21.6 Y83.1 E169.5 ;horizontal move
G1 X21.3 Y83.3 E169.9 F648.9 ;horizontal move
G1 X21.5 Y83.6 E170.2 F1080.0 ;horizontal move
G1 X21.7 Y83.7 E170.5 ;horizontal move
G1 X21.9 Y84.0 E170.8 F631.7 ;horizontal move
G1 X21.6 Y84.2 E171.2 F1043.7 ;horizontal move
G1 X21.4 Y84.4 E171.5 F580.2 ;horizontal move
G1 X21.7 Y84.6 E171.8 F1080.0 ;horizontal move
G1 X22.9 Y85.8 E173.5 ;horizontal move
G1 X24.6 Y87.0 E175.6 ;horizontal move
G1 X26.4 Y87.9 E177.6 ;horizontal move
G1 X28.2 Y88.5 E179.5 ;horizontal move
G1 X30.2 Y88.9 E181.6 ;horizontal move
G1 X32.3 Y89.1 E183.7 ;horizontal move
G1 X34.2 Y88.9 E185.6 ;horizontal move
G1 X34.3 E185.7 ;horizontal move
G1 X36.2 Y88.5 E187.6 ;horizontal move
G1 X36.3 E187.7 F1077.0 ;horizontal move
G1 X38.3 Y87.8 E189.8 F1080.0 ;horizontal move
G1 X40.5 Y86.8 E192.2 ;horizontal move
G1 X42.9 Y85.5 E195.0 ;horizontal move
G1 X43.3 Y85.3 E195.4 F335.6 ;horizontal move
G1 X42.9 E195.8 F1060.4 ;horizontal move
G1 X40.7 Y85.2 E198.0 F1080.0 ;horizontal move
G1 X39.1 Y85.0 E199.6 ;horizontal move
G1 X37.9 Y84.7 E200.9 ;horizontal move
G1 X37.0 Y84.4 E201.8 ;horizontal move
G1 X36.9 E201.9 ;horizontal move
G1 X36.3 Y84.0 E202.6 ;horizontal move
G1 X35.6 Y83.4 E203.6 ;horizontal move
G1 X35.1 Y82.6 E204.5 ;horizontal move
G1 X34.6 Y81.7 E205.5 ;horizontal move
G1 X34.2 Y80.7 E206.6 ;horizontal move
G1 X33.9 Y79.5 E207.9 ;horizontal move
G1 X33.8 Y78.3 E209.1 ;horizontal move
G1 X33.9 Y78.0 E209.4 ;horizontal move
G1 X34.0 Y76.9 E210.5 ;horizontal move
G1 X34.4 Y75.8 E211.7 ;horizontal move
G1 X34.9 Y74.8 E212.8 ;horizontal move
G1 X35.8 Y73.5 E214.3 ;horizontal move
G1 X36.9 Y72.4 E215.9 ;horizontal move
G1 X38.5 Y71.2 E217.9 ;horizontal move
G1 X40.5 Y70.0 E220.2 ;horizontal move
G1 X42.5 Y69.0 E222.5 ;horizontal move
G1 X43.7 Y68.6 E223.7 ;horizontal move
G1 X44.4 Y68.4 E224.5 ;horizontal move
G1 X44.5 E224.6 ;horizontal move
G1 X45.1 Y68.3 E225.2 ;horizontal move
G1 X45.2 E225.3 F1056.7 ;horizontal move
G1 X45.8 Y68.4 E225.9 F1080.0 ;horizontal move
G1 X46.4 Y68.6 E226.5 ;horizontal move
G1 X46.8 Y68.8 E227.0 ;horizontal move
G1 X47.5 Y69.2 E227.8 ;horizontal move
G1 X48.0 Y69.6 E228.4 ;horizontal move
G1 X48.4 Y70.1 E229.0 ;horizontal move
G1 X48.7 Y70.6 E229.6 ;horizontal move
G1 X48.9 Y71.2 E230.3 ;horizontal move
G1 Y72.0 E231.1 ;horizontal move
G1 X49.0 Y73.0 E232.1 ;horizontal move
G1 X48.9 Y74.1 E233.2 ;horizontal move
G1 Y74.5 E233.6 F392.0 ;horizontal move
G1 X49.2 Y74.2 E234.0 F1080.0 ;horizontal move
G1 X50.2 Y73.4 E235.3 ;horizontal move
G1 X52.2 Y71.7 E237.9 ;horizontal move
G1 X53.8 Y70.0 E240.2 ;horizontal move
G1 X55.1 Y68.3 E242.4 ;horizontal move
G1 X56.2 Y66.4 E244.6 ;horizontal move
G1 X56.3 E244.7 ;horizontal move
G1 X57.2 Y64.3 E247.0 ;horizontal move
G1 X58.0 Y62.0 E249.4 ;horizontal move
G1 X58.6 Y59.4 E252.1 ;horizontal move
G1 X59.0 Y56.6 E254.9 ;horizontal move
G1 X59.1 Y53.8 E257.7 ;horizontal move
G1 X58.9 Y50.9 E260.6 ;horizontal move
G1 X58.4 Y48.1 E263.4 ;horizontal move
G1 X57.7 Y45.3 E266.3 ;horizontal move
G1 X56.7 Y42.5 E269.3 ;horizontal move
G1 X55.4 Y39.7 E272.4 ;horizontal move
G1 Y39.6 E272.5 ;horizontal move
G1 X54.1 Y37.3 E275.1 ;horizontal move
G1 X52.4 Y35.0 E278.0 ;horizontal move
G1 X50.5 Y32.8 E280.9 ;horizontal move
G1 X48.3 Y30.7 E283.9 ;horizontal move
G1 X45.9 Y28.7 E287.1 ;horizontal move
G1 X45.8 E287.2 ;horizontal move
G1 X43.5 Y27.1 E290.0 ;horizontal move
G1 X41.3 Y25.8 E292.5 ;horizontal move
G1 X39.0 Y24.8 E295.0 ;horizontal move
G1 X36.6 Y24.1 E297.5 ;horizontal move
G1 X34.0 Y23.5 E300.2 ;horizontal move
G1 X31.4 Y23.3 E302.8 ;horizontal move
G1 X27.9 E306.3 ;horizontal move
G1 X25.9 Y23.2 E308.3 ;horizontal move
G1 X24.2 Y23.0 E310.0 ;horizontal move
G1 X24.1 E310.1 F1074.8 ;horizontal move
G1 X22.3 Y22.4 E312.0 F1080.0 ;horizontal move
G1 X20.5 Y21.7 E313.9 ;horizontal move
G1 X18.7 Y20.6 E316.1 ;horizontal move
G1 X17.0 Y19.3 E318.2 ;horizontal move
G1 X15.2 Y17.6 E320.7 ;horizontal move
G1 X12.7 Y15.0 E324.3 ;horizontal move
G1 X0.6 Y1.3 E342.6 ;horizontal move
G1 X0.4 Y0.9 E343.0 F374.5 ;horizontal move
G1 Y1.4 E343.5 F1080.0 ;horizontal move
G1 X0.3 Y48.0 E390.1 ;horizontal move
G1 X0.4 E390.2 ;horizontal move
G1 X0.7 Y49.8 E392.0 ;horizontal move
G1 X1.2 Y52.0 E394.3 ;horizontal move
G1 X1.8 Y53.7 E396.1 ;horizontal move
G1 X2.5 Y55.2 E397.7 ;horizontal move
G1 X3.5 Y56.6 E399.5 ;horizontal move
G1 X4.8 Y57.8 E401.2 ;horizontal move
G1 X6.3 Y59.0 E403.2 ;horizontal move
G1 X7.9 Y59.9 E405.0 ;horizontal move
G1 X9.7 Y60.5 E406.9 ;horizontal move
G1 X11.5 Y60.9 E408.7 ;horizontal move
G1 X13.2 Y61.0 E410.4 ;horizontal move
G1 X15.0 Y60.8 E412.2 ;horizontal move
G1 X16.3 Y60.5 E413.6 ;horizontal move
G1 X16.8 Y60.4 E414.1 F363.1 ;horizontal move
G1 X16.4 Y60.2 E414.5 F975.4 ;horizontal move
G1 X14.7 Y59.3 E416.5 F1080.0 ;horizontal move
G1 X13.9 Y58.7 E417.5 ;horizontal move
G1 X13.2 Y58.2 E418.3 ;horizontal move
G1 X12.8 Y57.7 E419.0 ;horizontal move
G1 X12.7 E419.1 F1072.4 ;horizontal move
G1 X12.4 Y57.2 E419.6 F1080.0 ;horizontal move
G1 Y57.1 E419.7 ;horizontal move
G1 X12.2 Y56.5 E420.4 ;horizontal move
G1 X12.1 Y55.9 E421.0 ;horizontal move
G1 Y55.2 E421.7 ;horizontal move
G1 Y55.1 E421.8 F1072.0 ;horizontal move
G1 X12.2 Y54.3 E422.6 F1080.0 ;horizontal move
G1 X12.4 Y53.3 E423.6 ;horizontal move
G1 Y53.2 E423.7 F1053.1 ;horizontal move
G1 X12.7 Y52.9 E424.1 F1080.0 ;horizontal move
G1 X13.1 Y51.9 E425.2 ;horizontal move
G1 X13.6 Y51.1 E426.2 ;horizontal move
G1 X14.2 Y50.4 E427.1 ;horizontal move
G1 X14.8 Y50.0 E427.8 ;horizontal move
G1 Y49.9 E427.9 F1058.7 ;horizontal move
G1 X15.7 Y49.6 E428.8 F1080.0 ;horizontal move
G1 X16.7 Y49.3 E429.9 ;horizontal move
G1 X18.4 Y49.0 E431.6 ;horizontal move
G1 X20.8 Y48.9 E434.0 ;horizontal move
G1 X22.5 Y49.0 E435.7 ;horizontal move
G1 X23.7 Y49.2 E436.9 ;horizontal move
G1 X24.5 Y49.5 E437.8 ;horizontal move
G1 X25.5 Y50.0 E438.9 ;horizontal move
G1 X26.4 Y50.7 E440.1 ;horizontal move
G1 X27.2 Y51.5 E441.2 ;horizontal move
G1 X28.0 Y52.6 E442.5 ;horizontal move
G1 X28.6 Y53.8 E443.9 ;horizontal move
G1 X28.9 Y55.1 E445.2 ;horizontal move
G1 X29.1 Y56.4 E446.5 ;horizontal move
G1 X29.0 Y57.7 E447.8 ;horizontal move
G1 X28.7 Y59.0 E449.2 ;horizontal move
G1 Y59.1 E449.3 F1073.9 ;horizontal move
G1 X28.3 Y60.1 E450.4 F1080.0 ;horizontal move
G1 X27.7 Y61.1 E451.5 ;horizontal move
G1 X26.6 Y62.4 E453.2 ;horizontal move
G1 X24.3 Y64.8 E456.5 ;horizontal move
G1 X22.2 Y67.4 E459.9 ;horizontal move
G1 X20.3 Y70.1 E463.2 ;horizontal move
G1 X19.2 Y71.9 E465.3 ;horizontal move
G1 X18.4 Y73.5 E467.1 ;horizontal move
G1 X17.9 Y75.0 E468.7 ;horizontal move
G1 X17.7 Y76.0 E469.7 ;horizontal move
G1 Y76.1 E469.8 F1073.5 ;horizontal move
G1 Y77.1 E470.8 F1080.0 ;horizontal move
G1 X17.9 Y78.3 E472.0 ;horizontal move
G1 Y78.4 E472.1 ;horizontal move
G1 X18.4 Y79.7 E473.5 ;horizontal move
G1 X19.1 Y81.2 E475.2 ;horizontal move
G1 X20.1 Y82.8 E477.0 ;horizontal move
G1 X21.2 Y84.1 E478.7 ;horizontal move
G1 X21.4 Y84.4 E479.1 F560.4 ;horizontal move
G1 X21.7 Y84.1 E479.5 F1080.0 ;horizontal move
G1 X39.2 Y65.5 E505.1 ;horizontal move
G1 F1200.0; feed for start of next move
G1 E471.7; extruder retraction
G1 F600.0; feed for start of next move
G1 X39.5 Y65.2 F1200.0 ;horizontal move
G1 E521.7; extruder dwell
G1 F600.0; feed for start of next move
G1 F1200.0; feed for start of next move
G1 E555.1; extruder dwell
G1 F600.0; feed for start of next move
G1 X57.6 Y47.1 E580.7 F538.9 ;horizontal move
G1 X57.2 Y45.5 E582.3 F480.5 ;horizontal move
G1 X57.1 Y45.2 E582.6 F480.0 ;horizontal move
G1 X20.3 Y82.0 E634.7 ;horizontal move
G1 X19.6 Y80.9 E636.0 F480.8 ;horizontal move
G1 X19.4 Y80.5 E636.4 F560.0 ;horizontal move
G1 X56.4 Y43.4 E688.8 F548.6 ;horizontal move
G1 X56.2 Y42.7 E689.5 F480.4 ;horizontal move
G1 X55.7 Y41.7 E690.7 F495.0 ;horizontal move
G1 X18.7 Y78.8 E743.1 F480.0 ;horizontal move
G1 X18.5 Y78.1 E743.8 ;horizontal move
G1 X18.3 Y77.0 E744.9 F481.4 ;horizontal move
G1 Y76.7 E745.2 F514.4 ;horizontal move
G1 X55.0 Y40.1 E797.0 F558.0 ;horizontal move
G1 X54.9 Y39.9 E797.3 F480.6 ;horizontal move
G1 X54.1 Y38.6 E798.8 F523.6 ;horizontal move
G1 X19.1 Y73.6 E848.3 F480.0 ;horizontal move
G1 X19.0 E848.4 F316.1 ;horizontal move
G1 X19.1 E848.5 F480.0 ;horizontal move
G1 X19.7 Y72.2 E850.0 ;horizontal move
G1 X20.8 Y70.4 E852.1 F480.2 ;horizontal move
G1 X22.7 Y67.7 E855.4 F480.4 ;horizontal move
G1 X23.2 Y67.1 E856.2 F480.7 ;horizontal move
G1 X53.2 Y37.1 E898.6 F580.0 ;horizontal move
G1 X52.2 Y35.7 E900.3 F550.0 ;horizontal move
G1 X29.5 Y58.4 E932.5 F480.0 ;horizontal move
G1 Y58.3 E932.6 ;horizontal move
G1 X29.6 Y57.8 E933.1 ;horizontal move
G1 X29.7 Y56.4 E934.5 F481.5 ;horizontal move
G1 X29.6 Y55.8 E935.1 F525.0 ;horizontal move
G1 X51.1 Y34.4 E965.4 F591.9 ;horizontal move
G1 X50.0 Y33.2 E967.0 F480.4 ;horizontal move
G1 X49.9 Y33.1 E967.2 F597.8 ;horizontal move
G1 X29.2 Y53.8 E996.5 F480.0 ;horizontal move
G1 Y53.9 E996.6 F455.5 ;horizontal move
G1 Y53.8 E996.7 F480.0 ;horizontal move
G1 X29.1 Y53.6 E996.9 ;horizontal move
G1 X28.5 Y52.3 E998.3 F481.8 ;horizontal move
G1 X28.4 Y52.2 E998.4 F579.5 ;horizontal move
G1 X48.7 Y31.9 E1027.2 F594.4 ;horizontal move
G1 X47.9 Y31.1 E1028.3 F480.4 ;horizontal move
G1 X47.5 Y30.8 E1028.8 F587.4 ;horizontal move
G1 X27.4 Y50.8 E1057.1 F596.3 ;horizontal move
G1 X26.8 Y50.2 E1058.0 F481.4 ;horizontal move
G1 X26.1 Y49.7 E1058.9 F558.7 ;horizontal move
G1 X46.1 Y29.7 E1087.1 F568.5 ;horizontal move
G1 X45.5 Y29.2 E1087.9 F480.4 ;horizontal move
G1 X44.8 Y28.7 E1088.8 F578.2 ;horizontal move
G1 X24.6 Y48.9 E1117.3 F548.0 ;horizontal move
G1 X23.9 Y48.6 E1118.1 F481.3 ;horizontal move
G1 X22.6 Y48.4 E1119.4 F480.0 ;horizontal move
G1 X43.3 Y27.7 E1148.7 ;horizontal move
G1 X43.2 Y27.6 E1148.8 F480.5 ;horizontal move
G1 X41.8 Y26.8 E1150.4 F567.4 ;horizontal move
G1 X20.3 Y48.3 E1180.9 F511.7 ;horizontal move
G1 X18.3 Y48.4 E1182.9 F480.9 ;horizontal move
G1 X17.8 Y48.5 E1183.4 F480.0 ;horizontal move
G1 X17.7 E1183.5 F355.7 ;horizontal move
G1 X40.2 Y26.0 E1215.3 F480.0 ;horizontal move
G1 X38.8 Y25.4 E1216.8 F480.7 ;horizontal move
G1 X38.5 Y25.3 E1217.1 F544.5 ;horizontal move
G1 X13.9 Y49.9 E1251.9 F600.0 ;horizontal move
G1 F1200.0; feed for start of next move
G1 E1218.6; extruder retraction
G1 F600.0; feed for start of next move
G1 Y50.4 F1200.0 ;horizontal move
G1 Y59.1 ;horizontal move
G1 Y59.5 F600.0 ;horizontal move
G1 F1200.0; feed for start of next move
G1 E1268.6; extruder dwell
G1 F600.0; feed for start of next move
G1 F1200.0; feed for start of next move
G1 E1301.9; extruder dwell
G1 F600.0; feed for start of next move
G1 X13.1 Y60.4 E1303.1 F519.0 ;horizontal move
G1 X11.5 Y60.3 E1304.7 F481.4 ;horizontal move
G1 X10.9 Y60.2 E1305.3 F480.0 ;horizontal move
G1 X12.6 Y58.4 E1307.8 ;horizontal move
G1 X12.3 Y58.0 E1308.3 F481.9 ;horizontal move
G1 X11.9 Y57.4 E1309.0 F483.4 ;horizontal move
G1 X11.7 Y56.9 E1309.6 F480.0 ;horizontal move
G1 X9.0 Y59.6 E1313.4 ;horizontal move
G1 X8.2 Y59.3 E1314.2 F481.4 ;horizontal move
G1 X7.3 Y58.9 E1315.2 F517.0 ;horizontal move
G1 X11.5 Y54.7 E1321.2 F505.0 ;horizontal move
G1 X11.6 Y54.2 E1321.7 F480.5 ;horizontal move
G1 X11.9 Y53.0 E1322.9 F486.7 ;horizontal move
G1 X12.1 Y52.6 E1323.4 F480.7 ;horizontal move
G1 X12.6 Y51.7 E1324.4 F480.3 ;horizontal move
G1 X13.1 Y50.7 E1325.5 F483.0 ;horizontal move
G1 X13.3 Y50.5 E1325.8 F480.0 ;horizontal move
G1 X5.9 Y57.9 E1336.3 ;horizontal move
G1 X5.2 Y57.4 E1337.1 F481.2 ;horizontal move
G1 X4.6 Y56.8 E1338.0 F599.1 ;horizontal move
G1 X36.7 Y24.7 E1383.4 F480.0 ;horizontal move
G1 X36.4 Y24.6 E1383.7 ;horizontal move
G1 X34.7 Y24.3 E1385.4 F533.7 ;horizontal move
G1 X3.5 Y55.5 E1429.5 F550.7 ;horizontal move
G1 X3.0 Y54.9 E1430.3 F481.5 ;horizontal move
G1 X2.6 Y54.0 E1431.3 F562.1 ;horizontal move
G1 X32.6 Y24.0 E1473.7 F480.0 ;horizontal move
G1 X31.4 Y23.9 E1474.9 ;horizontal move
G1 X30.3 E1476.0 F516.1 ;horizontal move
G1 X1.9 Y52.3 E1516.2 F480.0 ;horizontal move
G1 X1.8 Y51.8 E1516.7 ;horizontal move
G1 X1.4 Y50.4 E1518.2 F536.9 ;horizontal move
G1 X27.9 Y23.9 E1555.6 F480.0 ;horizontal move
G1 X25.9 Y23.8 E1557.6 ;horizontal move
G1 X25.6 E1557.9 F526.9 ;horizontal move
G1 X1.0 Y48.3 E1592.6 F480.0 ;horizontal move
G1 Y48.4 E1592.7 F431.0 ;horizontal move
G1 Y48.3 E1592.8 F480.0 ;horizontal move
G1 X0.9 Y48.0 E1593.2 ;horizontal move
G1 X1.0 Y46.0 E1595.2 F515.1 ;horizontal move
G1 X23.5 Y23.4 E1627.1 F480.0 ;horizontal move
G1 X23.6 E1627.2 F454.3 ;horizontal move
G1 X23.5 E1627.3 F480.0 ;horizontal move
G1 X22.1 Y23.0 E1628.7 ;horizontal move
G1 X21.7 Y22.9 E1629.1 F556.7 ;horizontal move
G1 X1.0 Y43.6 E1658.4 F480.0 ;horizontal move
G1 X0.9 Y41.2 E1660.8 ;horizontal move
G1 X20.1 Y22.1 E1687.9 F526.7 ;horizontal move
G1 X18.6 Y21.2 E1689.6 F570.7 ;horizontal move
G1 X1.0 Y38.8 E1714.5 F480.0 ;horizontal move
G1 X0.9 E1714.6 F387.9 ;horizontal move
G1 Y36.4 E1717.0 F480.0 ;horizontal move
G1 X17.2 Y20.2 E1740.0 F558.4 ;horizontal move
G1 X16.6 Y19.7 E1740.8 F480.5 ;horizontal move
G1 X15.9 Y19.1 E1741.7 F594.8 ;horizontal move
G1 X1.0 Y34.0 E1762.8 F480.0 ;horizontal move
G1 X0.9 E1762.9 F387.9 ;horizontal move
G1 Y31.6 E1765.3 F480.0 ;horizontal move
G1 X14.6 Y17.9 E1784.7 F596.5 ;horizontal move
G1 X13.5 Y16.7 E1786.3 F591.2 ;horizontal move
G1 X1.0 Y29.2 E1804.0 F480.0 ;horizontal move
G1 X0.9 E1804.1 F387.9 ;horizontal move
G1 Y26.8 E1806.5 F480.0 ;horizontal move
G1 X12.3 Y15.4 E1822.6 F596.5 ;horizontal move
G1 X12.2 E1822.7 F480.1 ;horizontal move
G1 X11.2 Y14.2 E1824.2 F580.5 ;horizontal move
G1 X1.0 Y24.4 E1838.7 F480.0 ;horizontal move
G1 X0.9 E1838.8 F387.9 ;horizontal move
G1 X1.0 Y22.0 E1841.2 F480.0 ;horizontal move
G1 X10.0 Y12.9 E1854.0 F592.2 ;horizontal move
G1 X8.9 Y11.6 E1855.7 F580.5 ;horizontal move
G1 X1.0 Y19.6 E1866.9 F480.0 ;horizontal move
G1 Y19.5 E1867.0 ;horizontal move
G1 X0.9 Y17.2 E1869.3 ;horizontal move
G1 X7.8 Y10.3 E1879.1 F592.2 ;horizontal move
G1 X6.7 Y9.0 E1880.8 F580.5 ;horizontal move
G1 X1.0 Y14.8 E1888.9 F480.0 ;horizontal move
G1 X0.9 E1889.0 F387.9 ;horizontal move
G1 Y14.7 E1889.1 F480.0 ;horizontal move
G1 Y12.4 E1891.4 ;horizontal move
G1 X5.6 Y7.8 E1898.0 F592.2 ;horizontal move
G1 X4.4 Y6.5 E1899.8 F580.5 ;horizontal move
G1 X1.0 Y9.9 E1904.6 F480.0 ;horizontal move
G1 X0.9 Y10.0 E1904.7 F387.9 ;horizontal move
G1 Y9.9 E1904.8 F480.0 ;horizontal move
G1 Y7.6 E1907.1 ;horizontal move
G1 X3.3 Y5.2 E1910.5 F592.2 ;horizontal move
G1 X2.2 Y3.9 E1912.2 F580.5 ;horizontal move
G1 X1.0 Y5.1 E1913.9 F480.0 ;horizontal move
G1 X0.9 Y5.2 E1914.0 F387.9 ;horizontal move
G1 Y5.1 E1914.1 F480.0 ;horizontal move
G1 X1.0 Y2.8 E1916.4 ;horizontal move
G1 X1.1 Y2.6 E1916.7 F600.0 ;horizontal move
G1 F1200.0; feed for start of next move
G1 E1883.3; extruder retraction
G1 F600.0; feed for start of next move
G1 X1.3 Y3.0 F1200.0 ;horizontal move
G1 X33.6 Y75.3 ;horizontal move
G1 X33.8 Y75.7 F600.0 ;horizontal move
G1 F1200.0; feed for start of next move
G1 E1933.3; extruder dwell
G1 F600.0; feed for start of next move
G1 F1200.0; feed for start of next move
G1 E1966.7; extruder dwell
G1 F600.0; feed for start of next move
G1 X23.8 Y85.7 E1980.8 F549.0 ;horizontal move
G1 X24.9 Y86.5 E1982.2 F481.2 ;horizontal move
G1 X25.2 Y86.6 E1982.5 F563.1 ;horizontal move
G1 X33.2 Y78.7 E1993.7 F480.0 ;horizontal move
G1 X33.3 Y78.6 E1993.9 F399.4 ;horizontal move
G1 Y78.7 E1994.0 F480.0 ;horizontal move
G1 Y79.6 E1994.9 ;horizontal move
G1 X33.6 Y80.7 E1996.0 F535.9 ;horizontal move
G1 X26.9 Y87.4 E2005.5 F480.0 ;horizontal move
G1 X28.4 Y88.0 E2007.1 ;horizontal move
G1 X28.7 E2007.4 F533.0 ;horizontal move
G1 X34.3 Y82.4 E2015.3 F524.9 ;horizontal move
G1 X34.6 Y83.0 E2016.0 F480.1 ;horizontal move
G1 X35.2 Y83.8 E2017.0 F484.4 ;horizontal move
G1 Y83.9 E2017.1 F580.7 ;horizontal move
G1 X30.8 Y88.3 E2023.3 F480.0 ;horizontal move
G1 X30.7 Y88.4 E2023.5 F401.6 ;horizontal move
G1 X30.8 E2023.6 F480.0 ;horizontal move
G1 X32.3 Y88.5 E2025.1 ;horizontal move
G1 X33.1 Y88.4 E2025.9 F508.4 ;horizontal move
G1 X36.6 Y84.9 E2030.8 F575.9 ;horizontal move
G1 X36.7 Y85.0 E2031.0 F485.3 ;horizontal move
G1 X37.7 Y85.3 E2032.0 F480.1 ;horizontal move
G1 X38.4 Y85.4 E2032.7 F480.0 ;horizontal move
G1 X38.5 Y85.5 E2032.9 F447.2 ;horizontal move
G1 X36.0 Y87.9 E2036.3 F480.0 ;horizontal move
G1 X36.1 E2036.4 ;horizontal move
G1 X38.1 Y87.2 E2038.5 F480.6 ;horizontal move
G1 X39.8 Y86.5 E2040.4 F488.0 ;horizontal move
G1 X40.5 Y85.8 E2041.4 F600.0 ;horizontal move
G1 F1200.0; feed for start of next move
G1 E2008.0; extruder retraction
G1 F600.0; feed for start of next move
G1 X40.1 F1200.0 ;horizontal move
G1 X22.3 Y84.0 ;horizontal move
G1 X21.9 F600.0 ;horizontal move
G1 F1200.0; feed for start of next move
G1 E2058.0; extruder dwell
G1 F600.0; feed for start of next move
G1 F1200.0; feed for start of next move
G1 E2091.4; extruder dwell
G1 F600.0; feed for start of next move
G1 X22.5 Y84.6 E2092.2 F596.4 ;horizontal move
G1 X58.0 Y49.1 E2142.4 F480.0 ;horizontal move
G1 X58.3 Y51.0 E2144.3 ;horizontal move
G1 Y51.2 E2144.5 F520.6 ;horizontal move
G1 X39.7 Y69.8 E2170.8 F480.0 ;horizontal move
G1 X40.3 Y69.5 E2171.5 ;horizontal move
G1 X42.3 Y68.5 E2173.8 F480.7 ;horizontal move
G1 X43.5 Y68.1 E2175.0 F480.1 ;horizontal move
G1 X44.0 Y67.9 E2175.6 F493.9 ;horizontal move
G1 X58.4 Y53.5 E2195.9 F480.0 ;horizontal move
G1 X58.5 Y53.4 E2196.1 F401.6 ;horizontal move
G1 Y53.5 E2196.2 F480.0 ;horizontal move
G1 Y53.8 E2196.5 ;horizontal move
G1 X58.4 Y55.9 E2198.6 F512.3 ;horizontal move
G1 X46.3 Y68.0 E2215.7 F480.0 ;horizontal move
G1 X46.6 Y68.1 E2216.0 ;horizontal move
G1 X47.1 Y68.3 E2216.5 F480.7 ;horizontal move
G1 X47.8 Y68.7 E2217.3 F481.4 ;horizontal move
G1 X47.9 Y68.8 E2217.5 F589.4 ;horizontal move
G1 X58.1 Y58.6 E2231.9 F480.0 ;horizontal move
G1 X58.0 Y59.3 E2232.6 ;horizontal move
G1 X57.5 Y61.7 E2235.1 F498.1 ;horizontal move
G1 X49.1 Y70.0 E2246.9 F572.9 ;horizontal move
G1 X49.2 Y70.3 E2247.2 F484.4 ;horizontal move
G1 X49.5 Y71.1 E2248.0 F482.4 ;horizontal move
G1 Y71.9 E2248.8 F480.0 ;horizontal move
G1 Y72.0 E2248.9 F402.9 ;horizontal move
G1 X49.6 Y71.9 E2249.1 F480.0 ;horizontal move
G1 X56.0 Y65.5 E2258.1 ;horizontal move
G1 F1200.0; feed for start of next move
G1 E2224.8; extruder retraction
G1 F600.0; feed for start of next move
M106 ;cooler on
G1 X55.6 F1200.0 ;horizontal move
G1 X-249.5 ;horizontal move
G1 X-250.0 F600.0 ;horizontal move
G92 X0 ;set x 0
G1 Y65.1 F1200.0 ;horizontal move
G1 Y-249.5 ;horizontal move
G1 Y-250.0 F600.0 ;horizontal move
G92 Y0 ;set y 0
G92 E0 ;zero the extruded length
;#!LAYER: 3/12
M107 ;cooler off
G4 P20 ;delay
G1 F40.0; feed for start of next move
G1 Z1.5 F67.8 ;z move
G1 Z2.0 F40.0 ;z move
G1 F600.0; feed for start of next move
G1 X-0.3 Y-0.3 F1200.0 ;horizontal move
G1 X-2.7 Y-2.7 ;horizontal move
G1 X-3.0 Y-3.0 F600.0 ;horizontal move
G1 F1200.0; feed for start of next move
G1 E16.7; extruder dwell
G1 F600.0; feed for start of next move
G1 F1200.0; feed for start of next move
G1 E50.0; extruder dwell
G1 F600.0; feed for start of next move
G1 X-5.0 Y6.9 E60.1 F480.0 ;horizontal move
G1 Y7.0 E60.2 F305.8 ;horizontal move
G1 Y6.9 E60.3 F480.0 ;horizontal move
G1 Y-5.0 E72.2 ;horizontal move
G1 X17.0 E94.2 F600.0 ;horizontal move
G1 F1200.0; feed for start of next move
G1 E60.9; extruder retraction
G1 F600.0; feed for start of next move
G1 X16.7 Y-4.6 F1200.0 ;horizontal move
G1 X6.9 Y8.5 ;horizontal move
G1 X6.6 Y8.9 F600.0 ;horizontal move
G1 F1200.0; feed for start of next move
G1 E110.9; extruder dwell
G1 F600.0; feed for start of next move
G1 F1200.0; feed for start of next move
G1 E144.2; extruder dwell
G1 F600.0; feed for start of next move
G1 X6.4 Y8.7 E144.5 F1080.0 ;horizontal move
G1 X0.6 Y1.3 E153.9 ;horizontal move
G1 X0.4 Y0.9 E154.3 F363.2 ;horizontal move
G1 Y1.4 E154.8 F1080.0 ;horizontal move
G1 X0.3 Y48.0 E201.4 ;horizontal move
G1 X0.4 E201.5 ;horizontal move
G1 X0.7 Y49.8 E203.4 ;horizontal move
G1 X1.2 Y52.0 E205.6 ;horizontal move
G1 X1.8 Y53.7 E207.4 ;horizontal move
G1 X2.5 Y55.2 E209.1 ;horizontal move
G1 X3.5 Y56.6 E210.8 ;horizontal move
G1 X4.8 Y57.8 E212.6 ;horizontal move
G1 X6.3 Y59.0 E214.5 ;horizontal move
G1 X7.9 Y59.9 E216.3 ;horizontal move
G1 X9.7 Y60.5 E218.2 ;horizontal move
G1 X11.5 Y60.9 E220.1 ;horizontal move
G1 X13.2 Y61.0 E221.8 ;horizontal move
G1 X15.0 Y60.8 E223.6 ;horizontal move
G1 X16.3 Y60.5 E224.9 ;horizontal move
G1 X16.8 Y60.4 E225.4 F363.1 ;horizontal move
G1 X16.4 Y60.2 E225.9 F975.4 ;horizontal move
G1 X14.7 Y59.3 E227.8 F1080.0 ;horizontal move
G1 X13.9 Y58.7 E228.8 ;horizontal move
G1 X13.2 Y58.2 E229.6 ;horizontal move
G1 X12.8 Y57.7 E230.3 ;horizontal move
G1 X12.7 E230.4 F1072.4 ;horizontal move
G1 X12.4 Y57.2 E231.0 F1080.0 ;horizontal move
G1 Y57.1 E231.1 ;horizontal move
G1 X12.2 Y56.5 E231.7 ;horizontal move
G1 X12.1 Y55.9 E232.3 ;horizontal move
G1 Y55.2 E233.0 ;horizontal move
G1 Y55.1 E233.1 F1072.0 ;horizontal move
G1 X12.2 Y54.3 E233.9 F1080.0 ;horizontal move
G1 X12.4 Y53.3 E234.9 ;horizontal move
G1 Y53.2 E235.0 F1053.1 ;horizontal move
G1 X12.7 Y52.9 E235.5 F1080.0 ;horizontal move
G1 X13.1 Y51.9 E236.5 ;horizontal move
G1 X13.6 Y51.1 E237.5 ;horizontal move
G1 X14.2 Y50.4 E238.4 ;horizontal move
G1 X14.8 Y50.0 E239.1 ;horizontal move
G1 Y49.9 E239.2 F1058.7 ;horizontal move
G1 X15.7 Y49.6 E240.2 F1080.0 ;horizontal move
G1 X16.7 Y49.3 E241.2 ;horizontal move
G1 X18.4 Y49.0 E242.9 ;horizontal move
G1 X20.8 Y48.9 E245.3 ;horizontal move
G1 X22.5 Y49.0 E247.0 ;horizontal move
G1 X23.7 Y49.2 E248.3 ;horizontal move
G1 X24.5 Y49.5 E249.1 ;horizontal move
G1 X25.5 Y50.0 E250.2 ;horizontal move
G1 X26.4 Y50.7 E251.4 ;horizontal move
G1 X27.2 Y51.5 E252.5 ;horizontal move
G1 X28.0 Y52.6 E253.9 ;horizontal move
G1 X28.6 Y53.8 E255.2 ;horizontal move
G1 X28.9 Y55.1 E256.5 ;horizontal move
G1 X29.1 Y56.4 E257.9 ;horizontal move
G1 X29.0 Y57.7 E259.2 ;horizontal move
G1 X28.7 Y59.0 E260.5 ;horizontal move
G1 Y59.1 E260.6 F1073.9 ;horizontal move
G1 X28.3 Y60.1 E261.7 F1080.0 ;horizontal move
G1 X27.7 Y61.1 E262.8 ;horizontal move
G1 X26.6 Y62.4 E264.5 ;horizontal move
G1 X24.3 Y64.8 E267.9 ;horizontal move
G1 X22.2 Y67.4 E271.2 ;horizontal move
G1 X20.3 Y70.1 E274.5 ;horizontal move
G1 X19.2 Y71.9 E276.6 ;horizontal move
G1 X18.4 Y73.5 E278.4 ;horizontal move
G1 X17.9 Y75.0 E280.0 ;horizontal move
G1 X17.7 Y76.0 E281.0 ;horizontal move
G1 Y76.1 E281.1 F1073.5 ;horizontal move
G1 Y77.1 E282.1 F1080.0 ;horizontal move
G1 X17.9 Y78.4 E283.4 ;horizontal move
G1 X18.0 Y78.5 E283.6 ;horizontal move
G1 X18.4 Y79.7 E284.8 ;horizontal move
G1 X19.1 Y81.2 E286.5 ;horizontal move
G1 X20.1 Y82.8 E288.4 ;horizontal move
G1 X21.4 Y84.4 E290.4 ;horizontal move
G1 X22.9 Y85.8 E292.5 ;horizontal move
G1 X24.6 Y87.0 E294.6 ;horizontal move
G1 X26.4 Y87.9 E296.6 ;horizontal move
G1 X28.2 Y88.5 E298.5 ;horizontal move
G1 X30.2 Y88.9 E300.5 ;horizontal move
G1 X32.3 Y89.1 E302.6 ;horizontal move
G1 X34.2 Y88.9 E304.5 ;horizontal move
G1 X34.3 E304.6 ;horizontal move
G1 X36.2 Y88.5 E306.6 ;horizontal move
G1 X36.3 E306.7 F1077.0 ;horizontal move
G1 X38.3 Y87.8 E308.8 F1080.0 ;horizontal move
G1 X40.5 Y86.8 E311.2 ;horizontal move
G1 X42.9 Y85.5 E313.9 ;horizontal move
G1 X43.3 Y85.3 E314.4 F335.6 ;horizontal move
G1 X42.9 E314.8 F1060.4 ;horizontal move
G1 X40.7 Y85.2 E317.0 F1080.0 ;horizontal move
G1 X39.1 Y85.0 E318.6 ;horizontal move
G1 X37.9 Y84.7 E319.8 ;horizontal move
G1 X37.0 Y84.4 E320.8 ;horizontal move
G1 X36.9 E320.9 ;horizontal move
G1 X36.3 Y84.0 E321.6 ;horizontal move
G1 X35.6 Y83.4 E322.5 ;horizontal move
G1 X35.1 Y82.6 E323.5 ;horizontal move
G1 X34.6 Y81.7 E324.5 ;horizontal move
G1 X34.2 Y80.7 E325.6 ;horizontal move
G1 X33.9 Y79.5 E326.8 ;horizontal move
G1 X33.8 Y78.3 E328.0 ;horizontal move
G1 X33.9 Y78.0 E328.3 ;horizontal move
G1 X34.0 Y76.9 E329.4 ;horizontal move
G1 X34.4 Y75.8 E330.6 ;horizontal move
G1 X34.9 Y74.8 E331.7 ;horizontal move
G1 X35.8 Y73.5 E333.3 ;horizontal move
G1 X36.9 Y72.4 E334.9 ;horizontal move
G1 X38.5 Y71.2 E336.9 ;horizontal move
G1 X40.5 Y70.0 E339.2 ;horizontal move
G1 X42.5 Y69.0 E341.4 ;horizontal move
G1 X43.7 Y68.6 E342.7 ;horizontal move
G1 X44.4 Y68.4 E343.4 ;horizontal move
G1 X44.5 E343.5 ;horizontal move
G1 X45.1 Y68.3 E344.1 ;horizontal move
G1 X45.2 E344.2 F1056.7 ;horizontal move
G1 X45.8 Y68.4 E344.9 F1080.0 ;horizontal move
G1 X46.4 Y68.6 E345.5 ;horizontal move
G1 X46.8 Y68.8 E345.9 ;horizontal move
G1 X47.5 Y69.2 E346.7 ;horizontal move
G1 X48.0 Y69.6 E347.4 ;horizontal move
G1 X48.4 Y70.1 E348.0 ;horizontal move
G1 X48.7 Y70.6 E348.6 ;horizontal move
G1 X48.9 Y71.2 E349.2 ;horizontal move
G1 Y72.0 E350.0 ;horizontal move
G1 X49.0 Y73.0 E351.0 ;horizontal move
G1 X48.9 Y74.1 E352.1 ;horizontal move
G1 Y74.5 E352.5 F392.0 ;horizontal move
G1 X49.2 Y74.2 E353.0 F1080.0 ;horizontal move
G1 X50.2 Y73.4 E354.2 ;horizontal move
G1 X52.2 Y71.7 E356.9 ;horizontal move
G1 X53.8 Y70.0 E359.2 ;horizontal move
G1 X55.1 Y68.3 E361.3 ;horizontal move
G1 X56.2 Y66.4 E363.5 ;horizontal move
G1 X56.3 E363.6 ;horizontal move
G1 X57.2 Y64.3 E365.9 ;horizontal move
G1 X58.0 Y62.0 E368.4 ;horizontal move
G1 X58.6 Y59.4 E371.0 ;horizontal move
G1 X59.0 Y56.6 E373.9 ;horizontal move
G1 X59.1 Y53.8 E376.7 ;horizontal move
G1 X58.9 Y50.9 E379.6 ;horizontal move
G1 X58.4 Y48.1 E382.4 ;horizontal move
G1 X57.7 Y45.3 E385.3 ;horizontal move
G1 X56.7 Y42.5 E388.3 ;horizontal move
G1 X55.4 Y39.7 E391.4 ;horizontal move
G1 Y39.6 E391.5 ;horizontal move
G1 X54.1 Y37.3 E394.1 ;horizontal move
G1 X52.4 Y35.0 E397.0 ;horizontal move
G1 X50.5 Y32.8 E399.9 ;horizontal move
G1 X48.3 Y30.7 E402.9 ;horizontal move
G1 X45.9 Y28.7 E406.0 ;horizontal move
G1 X45.8 E406.1 ;horizontal move
G1 X43.5 Y27.1 E408.9 ;horizontal move
G1 X41.3 Y25.8 E411.5 ;horizontal move
G1 X39.0 Y24.8 E414.0 ;horizontal move
G1 X36.6 Y24.1 E416.5 ;horizontal move
G1 X34.0 Y23.5 E419.2 ;horizontal move
G1 X31.4 Y23.3 E421.8 ;horizontal move
G1 X27.9 E425.3 ;horizontal move
G1 X25.9 Y23.2 E427.3 ;horizontal move
G1 X24.2 Y23.0 E429.0 ;horizontal move
G1 X24.1 E429.1 F1074.8 ;horizontal move
G1 X22.3 Y22.4 E431.0 F1080.0 ;horizontal move
G1 X20.5 Y21.7 E432.9 ;horizontal move
G1 X18.7 Y20.6 E435.0 ;horizontal move
G1 X17.0 Y19.3 E437.2 ;horizontal move
G1 X15.2 Y17.6 E439.6 ;horizontal move
G1 X12.7 Y15.0 E443.3 ;horizontal move
G1 X0.6 Y1.3 E461.5 ;horizontal move
G1 X0.4 Y0.9 E462.0 F300.5 ;horizontal move
G1 X0.6 Y1.3 E462.4 F1080.0 ;horizontal move
G1 X6.4 Y8.7 E471.8 ;horizontal move
G1 F1200.0; feed for start of next move
G1 E438.5; extruder retraction
G1 F600.0; feed for start of next move
G1 X6.6 Y8.9 F1200.0 ;horizontal move
G1 E488.5; extruder dwell
G1 F600.0; feed for start of next move
G1 F1200.0; feed for start of next move
G1 E521.8; extruder dwell
G1 F600.0; feed for start of next move
G1 X12.2 Y15.4 E530.4 F480.1 ;horizontal move
G1 X14.7 Y18.0 E534.0 F480.3 ;horizontal move
G1 X16.6 Y19.7 E536.6 F480.5 ;horizontal move
G1 X18.4 Y21.1 E538.8 F480.7 ;horizontal move
G1 X20.2 Y22.2 E541.0 F480.9 ;horizontal move
G1 X20.9 Y22.5 E541.7 F488.1 ;horizontal move
G1 X57.9 Y59.5 E594.0 F480.0 ;horizontal move
G1 X58.0 E594.1 F441.5 ;horizontal move
G1 Y59.3 E594.3 F480.0 ;horizontal move
G1 X58.3 Y57.4 E596.3 F527.6 ;horizontal move
G1 X24.5 Y23.6 E644.1 F480.0 ;horizontal move
G1 X25.9 Y23.8 E645.5 ;horizontal move
G1 X27.1 E646.7 F512.6 ;horizontal move
G1 X58.4 Y55.2 E691.0 F480.0 ;horizontal move
G1 X58.5 Y53.8 E692.4 ;horizontal move
G1 X58.4 Y52.8 E693.4 F510.0 ;horizontal move
G1 X29.6 Y23.9 E734.2 F480.0 ;horizontal move
G1 X29.5 E734.3 F385.5 ;horizontal move
G1 X29.6 E734.4 F480.0 ;horizontal move
G1 X31.4 E736.2 ;horizontal move
G1 X32.0 Y24.0 E736.8 F507.8 ;horizontal move
G1 X58.1 Y50.1 E773.7 F480.0 ;horizontal move
G1 X58.2 E773.8 F356.8 ;horizontal move
G1 X57.9 Y48.2 E775.8 F480.0 ;horizontal move
G1 X57.6 Y47.1 E776.9 F496.7 ;horizontal move
G1 X34.8 Y24.3 E809.1 F480.0 ;horizontal move
G1 X36.4 Y24.6 E810.8 ;horizontal move
G1 X38.0 Y25.1 E812.5 F493.6 ;horizontal move
G1 X56.5 Y43.6 E838.6 F480.0 ;horizontal move
G1 X56.2 Y42.7 E839.6 ;horizontal move
G1 X54.9 Y39.9 E842.7 F480.6 ;horizontal move
G1 X54.5 Y39.2 E843.5 F484.0 ;horizontal move
G1 X42.4 Y27.2 E860.5 F600.0 ;horizontal move
G1 F1200.0; feed for start of next move
G1 E827.2; extruder retraction
G1 F600.0; feed for start of next move
G1 X42.2 Y27.6 F1200.0 ;horizontal move
G1 X29.7 Y54.7 ;horizontal move
G1 X29.5 Y55.1 F600.0 ;horizontal move
G1 F1200.0; feed for start of next move
G1 E877.2; extruder dwell
G1 F600.0; feed for start of next move
G1 F1200.0; feed for start of next move
G1 E910.5; extruder dwell
G1 F600.0; feed for start of next move
G1 X42.7 Y68.3 E929.2 F480.0 ;horizontal move
G1 X42.3 Y68.5 E929.6 ;horizontal move
G1 X41.1 Y69.1 E931.0 F560.4 ;horizontal move
G1 X29.6 Y57.6 E947.2 F480.0 ;horizontal move
G1 Y57.8 E947.4 ;horizontal move
G1 X29.3 Y59.2 E948.9 F481.5 ;horizontal move
G1 X29.2 Y59.6 E949.3 F552.2 ;horizontal move
G1 X39.5 Y69.9 E963.8 F523.7 ;horizontal move
G1 X38.1 Y70.7 E965.4 F481.0 ;horizontal move
G1 X38.0 Y70.8 E965.6 F584.4 ;horizontal move
G1 X28.3 Y61.2 E979.2 F528.1 ;horizontal move
G1 X28.2 Y61.5 E979.5 F481.8 ;horizontal move
G1 X27.3 Y62.5 E980.9 F591.6 ;horizontal move
G1 X36.6 Y71.9 E994.1 F561.0 ;horizontal move
G1 X36.5 E994.2 F481.1 ;horizontal move
G1 X35.4 Y73.0 E995.8 F598.6 ;horizontal move
G1 X26.1 Y63.7 E1008.9 F594.3 ;horizontal move
G1 X24.9 Y65.0 E1010.7 F597.7 ;horizontal move
G1 X34.4 Y74.4 E1024.1 F575.2 ;horizontal move
G1 Y74.5 E1024.2 F481.3 ;horizontal move
G1 X33.8 Y75.6 E1025.4 F481.5 ;horizontal move
G1 X33.7 Y76.1 E1025.9 F480.0 ;horizontal move
G1 X33.6 E1026.0 ;horizontal move
G1 X23.8 Y66.3 E1039.9 ;horizontal move
G1 X22.8 Y67.6 E1041.5 F587.3 ;horizontal move
G1 X33.2 Y78.1 E1056.3 F518.5 ;horizontal move
G1 Y78.3 E1056.5 F480.5 ;horizontal move
G1 X33.3 Y79.6 E1057.8 F481.7 ;horizontal move
G1 X33.6 Y80.8 E1059.0 F480.0 ;horizontal move
G1 X21.8 Y69.0 E1075.7 ;horizontal move
G1 X20.8 Y70.4 E1077.4 F480.2 ;horizontal move
G1 X37.7 Y87.4 E1101.4 F480.0 ;horizontal move
G1 X36.1 Y87.9 E1103.1 ;horizontal move
G1 X35.9 E1103.3 F534.0 ;horizontal move
G1 X19.9 Y71.9 E1125.9 F528.4 ;horizontal move
G1 X19.7 Y72.2 E1126.3 F480.5 ;horizontal move
G1 X19.1 Y73.5 E1127.7 F561.2 ;horizontal move
G1 X33.9 Y88.3 E1148.6 F480.0 ;horizontal move
G1 X33.8 E1148.7 ;horizontal move
G1 X32.3 Y88.5 E1150.3 ;horizontal move
G1 X31.6 Y88.4 E1151.0 F510.0 ;horizontal move
G1 X18.5 Y75.3 E1169.5 F480.0 ;horizontal move
G1 Y75.4 E1169.6 ;horizontal move
G1 X18.3 Y76.1 E1170.3 ;horizontal move
G1 Y77.0 E1171.2 F481.4 ;horizontal move
G1 X18.4 Y77.7 E1171.9 F503.9 ;horizontal move
G1 X28.7 Y88.0 E1186.5 F480.0 ;horizontal move
G1 X28.8 E1186.6 F351.2 ;horizontal move
G1 X28.7 E1186.7 F480.0 ;horizontal move
G1 X28.4 E1187.0 ;horizontal move
G1 X26.6 Y87.3 E1188.9 F481.1 ;horizontal move
G1 X24.9 Y86.5 E1190.8 F481.2 ;horizontal move
G1 X24.6 Y86.2 E1191.2 F481.7 ;horizontal move
G1 X20.3 Y82.0 E1197.2 F600.0 ;horizontal move
G1 F1200.0; feed for start of next move
G1 E1163.9; extruder retraction
G1 F600.0; feed for start of next move
G1 X20.7 Y82.1 F1200.0 ;horizontal move
G1 X37.7 Y85.3 ;horizontal move
G1 X38.1 Y85.4 F600.0 ;horizontal move
G1 F1200.0; feed for start of next move
G1 E1213.9; extruder dwell
G1 F600.0; feed for start of next move
G1 F1200.0; feed for start of next move
G1 E1247.2; extruder dwell
G1 F600.0; feed for start of next move
G1 X39.4 Y86.7 E1249.1 F557.0 ;horizontal move
G1 X40.2 Y86.3 E1250.0 F480.4 ;horizontal move
G1 X41.0 Y85.9 E1250.9 F516.6 ;horizontal move
G1 Y85.8 E1251.0 F600.0 ;horizontal move
G1 F1200.0; feed for start of next move
G1 E1217.6; extruder retraction
G1 F600.0; feed for start of next move
G1 X41.3 Y85.4 F1200.0 ;horizontal move
G1 X49.5 Y73.4 ;horizontal move
G1 X49.8 Y73.0 F600.0 ;horizontal move
G1 F1200.0; feed for start of next move
G1 E1267.6; extruder dwell
G1 F600.0; feed for start of next move
G1 F1200.0; feed for start of next move
G1 E1301.0; extruder dwell
G1 F600.0; feed for start of next move
G1 X49.6 Y72.8 E1301.2 F509.5 ;horizontal move
G1 X49.5 Y71.9 E1302.2 F480.0 ;horizontal move
G1 Y71.1 E1303.0 F482.4 ;horizontal move
G1 X49.2 Y70.3 E1303.8 F484.4 ;horizontal move
G1 X48.9 Y69.7 E1304.5 F481.9 ;horizontal move
G1 X48.5 Y69.3 E1305.0 F480.0 ;horizontal move
G1 X48.4 Y69.2 E1305.2 F300.4 ;horizontal move
G1 X48.5 E1305.3 F480.0 ;horizontal move
G1 X51.1 Y71.9 E1309.0 ;horizontal move
G1 X51.8 Y71.2 E1310.0 F480.4 ;horizontal move
G1 X52.3 Y70.7 E1310.7 F597.5 ;horizontal move
G1 X0.9 Y19.3 E1383.4 F515.1 ;horizontal move
G1 Y17.0 E1385.7 F480.0 ;horizontal move
G1 Y16.9 E1385.8 F387.9 ;horizontal move
G1 X1.0 Y17.0 E1386.0 F480.0 ;horizontal move
G1 X53.5 Y69.5 E1460.2 ;horizontal move
G1 X54.5 Y68.1 E1461.9 F584.9 ;horizontal move
G1 X0.9 Y14.5 E1537.7 F515.1 ;horizontal move
G1 Y12.2 E1540.0 F480.0 ;horizontal move
G1 Y12.1 E1540.1 F387.9 ;horizontal move
G1 X1.0 Y12.2 E1540.3 F480.0 ;horizontal move
G1 X55.4 Y66.6 E1617.2 ;horizontal move
G1 X55.7 Y66.1 E1617.8 F480.8 ;horizontal move
G1 X56.2 Y65.0 E1619.0 F557.7 ;horizontal move
G1 X0.9 Y9.7 E1697.2 F515.1 ;horizontal move
G1 Y7.4 E1699.5 F480.0 ;horizontal move
G1 Y7.3 E1699.6 F387.9 ;horizontal move
G1 X1.0 E1699.7 F480.0 ;horizontal move
G1 X56.9 Y63.3 E1778.8 ;horizontal move
G1 X57.4 Y61.8 E1780.4 ;horizontal move
G1 X57.5 Y61.5 E1780.7 F536.6 ;horizontal move
G1 X0.9 Y4.9 E1860.8 F515.1 ;horizontal move
G1 Y2.6 E1863.1 F480.0 ;horizontal move
G1 Y2.5 E1863.2 F374.5 ;horizontal move
G1 X1.0 Y2.6 E1863.3 F480.0 ;horizontal move
G1 X6.6 Y8.9 E1871.7 ;horizontal move
G1 F1200.0; feed for start of next move
G1 E1838.4; extruder retraction
G1 F600.0; feed for start of next move
G1 X6.4 Y9.3 F1200.0 ;horizontal move
G1 X1.1 Y21.3 ;horizontal move
G1 X0.9 Y21.7 F600.0 ;horizontal move
G1 F1200.0; feed for start of next move
G1 E1888.4; extruder dwell
G1 F600.0; feed for start of next move
G1 F1200.0; feed for start of next move
G1 E1921.7; extruder dwell
G1 F600.0; feed for start of next move
G1 X48.3 Y69.1 E1988.8 F480.0 ;horizontal move
G1 X48.4 Y69.2 E1988.9 F301.2 ;horizontal move
G1 X48.3 Y69.1 E1989.1 F480.0 ;horizontal move
G1 X47.8 Y68.7 E1989.7 ;horizontal move
G1 X47.1 Y68.3 E1990.5 F480.7 ;horizontal move
G1 X46.6 Y68.1 E1991.0 F481.8 ;horizontal move
G1 X45.9 Y67.9 E1991.8 F480.3 ;horizontal move
G1 X45.2 Y67.7 E1992.5 F485.8 ;horizontal move
G1 X44.6 Y67.8 E1993.1 F525.4 ;horizontal move
G1 X1.0 Y24.2 E2054.8 F480.0 ;horizontal move
G1 X0.9 Y24.1 E2054.9 F387.9 ;horizontal move
G1 Y24.2 E2055.0 F480.0 ;horizontal move
G1 Y26.6 E2057.4 ;horizontal move
G1 X22.8 Y48.4 E2088.3 ;horizontal move
G1 X22.5 E2088.6 ;horizontal move
G1 X20.8 Y48.3 E2090.3 F480.5 ;horizontal move
G1 X20.3 E2090.8 F518.8 ;horizontal move
G1 X1.0 Y29.0 E2118.1 F480.0 ;horizontal move
G1 X0.9 E2118.2 F387.9 ;horizontal move
G1 X1.0 Y31.4 E2120.6 F480.0 ;horizontal move
G1 X18.0 Y48.4 E2144.7 ;horizontal move
G1 X16.6 Y48.7 E2146.1 ;horizontal move
G1 X16.1 Y48.9 E2146.6 F547.3 ;horizontal move
G1 X1.0 Y33.8 E2168.0 F480.0 ;horizontal move
G1 X0.9 E2168.1 F387.9 ;horizontal move
G1 Y36.2 E2170.5 F480.0 ;horizontal move
G1 X14.3 Y49.6 E2189.4 F560.1 ;horizontal move
G1 X13.8 Y50.0 E2190.1 F482.0 ;horizontal move
G1 X13.1 Y50.7 E2191.1 F585.5 ;horizontal move
G1 X1.0 Y38.6 E2208.2 F480.0 ;horizontal move
G1 X0.9 E2208.3 F387.9 ;horizontal move
G1 X1.0 Y41.0 E2210.7 F480.0 ;horizontal move
G1 X12.3 Y52.3 E2226.7 F560.1 ;horizontal move
G1 X12.1 Y52.6 E2227.0 F480.7 ;horizontal move
G1 X11.9 Y53.0 E2227.5 F486.7 ;horizontal move
G1 X11.6 Y54.0 E2228.5 F480.0 ;horizontal move
G1 Y54.1 E2228.6 F439.7 ;horizontal move
G1 X1.0 Y43.4 E2243.7 F480.0 ;horizontal move
G1 Y45.8 E2246.1 ;horizontal move
G1 X11.6 Y56.4 E2261.1 F504.0 ;horizontal move
G1 Y56.7 E2261.4 F481.7 ;horizontal move
G1 X11.9 Y57.4 E2262.1 F483.4 ;horizontal move
G1 X12.3 Y58.0 E2262.8 F481.9 ;horizontal move
G1 X12.8 Y58.7 E2263.7 F482.7 ;horizontal move
G1 X13.5 Y59.2 E2264.6 F480.0 ;horizontal move
G1 X14.4 Y59.8 E2265.6 F481.0 ;horizontal move
G1 X15.0 Y60.1 E2266.3 F480.0 ;horizontal move
G1 Y60.2 E2266.4 F375.4 ;horizontal move
G1 X14.9 E2266.5 F480.0 ;horizontal move
G1 X13.2 Y60.4 E2268.2 F481.4 ;horizontal move
G1 X13.1 E2268.3 F511.5 ;horizontal move
G1 X1.0 Y48.3 E2285.4 F480.0 ;horizontal move
G1 Y48.2 E2285.5 F352.1 ;horizontal move
G1 Y48.3 E2285.6 F480.0 ;horizontal move
G1 X1.3 Y49.7 E2287.1 ;horizontal move
G1 X1.7 Y51.3 E2288.7 F497.9 ;horizontal move
G1 X10.4 Y60.1 E2301.1 F480.0 ;horizontal move
G1 X9.8 Y60.0 E2301.7 ;horizontal move
G1 X8.2 Y59.3 E2303.4 F481.4 ;horizontal move
G1 X6.6 Y58.5 E2305.2 F481.3 ;horizontal move
G1 X5.9 Y57.9 E2306.2 F481.1 ;horizontal move
G1 X3.6 Y55.7 E2309.3 F600.0 ;horizontal move
G1 F1200.0; feed for start of next move
G1 E2276.0; extruder retraction
G1 F600.0; feed for start of next move
M106 ;cooler on
G1 X3.2 F1200.0 ;horizontal move
G1 X-249.5 ;horizontal move
G1 X-250.0 F600.0 ;horizontal move
G92 X0 ;set x 0
G1 Y55.3 F1200.0 ;horizontal move
G1 Y-249.5 ;horizontal move
G1 Y-250.0 F600.0 ;horizontal move
G92 Y0 ;set y 0
G92 E0 ;zero the extruded length
;#!LAYER: 4/12
M107 ;cooler off
G4 P20 ;delay
G1 F40.0; feed for start of next move
G1 Z2.5 F67.8 ;z move
G1 Z3.0 F40.0 ;z move
G1 F600.0; feed for start of next move
G1 X-0.3 Y-0.3 F1200.0 ;horizontal move
G1 X-2.7 Y-2.7 ;horizontal move
G1 X-3.0 Y-3.0 F600.0 ;horizontal move
G1 F1200.0; feed for start of next move
G1 E16.7; extruder dwell
G1 F600.0; feed for start of next move
G1 F1200.0; feed for start of next move
G1 E50.0; extruder dwell
G1 F600.0; feed for start of next move
G1 X-5.0 Y6.9 E60.1 F480.0 ;horizontal move
G1 Y7.0 E60.2 F305.8 ;horizontal move
G1 Y6.9 E60.3 F480.0 ;horizontal move
G1 Y-5.0 E72.2 ;horizontal move
G1 X17.0 E94.2 F600.0 ;horizontal move
G1 F1200.0; feed for start of next move
G1 E60.9; extruder retraction
G1 F600.0; feed for start of next move
G1 X17.2 Y-4.6 F1200.0 ;horizontal move
G1 X40.1 Y44.7 ;horizontal move
G1 X40.3 Y45.1 F600.0 ;horizontal move
G1 F1200.0; feed for start of next move
G1 E110.9; extruder dwell
G1 F600.0; feed for start of next move
G1 F1200.0; feed for start of next move
G1 E144.2; extruder dwell
G1 F600.0; feed for start of next move
G1 X40.6 Y44.9 E144.6 F1080.0 ;horizontal move
G1 X50.9 Y34.5 E159.2 ;horizontal move
G1 X51.1 Y34.4 E159.4 F796.3 ;horizontal move
G1 X51.0 Y34.2 E159.6 F1080.0 ;horizontal move
G1 X50.5 Y32.8 E161.1 ;horizontal move
G1 X50.4 Y32.7 E161.3 ;horizontal move
G1 X48.3 Y30.7 E164.2 ;horizontal move
G1 X45.9 Y28.7 E167.3 ;horizontal move
G1 X45.8 E167.4 ;horizontal move
G1 X43.5 Y27.1 E170.2 ;horizontal move
G1 X41.3 Y25.8 E172.8 ;horizontal move
G1 X39.0 Y24.8 E175.3 ;horizontal move
G1 X36.6 Y24.1 E177.8 ;horizontal move
G1 X34.0 Y23.5 E180.4 ;horizontal move
G1 X31.4 Y23.3 E183.0 ;horizontal move
G1 X27.9 E186.5 ;horizontal move
G1 X25.9 Y23.2 E188.5 ;horizontal move
G1 X24.2 Y23.0 E190.3 ;horizontal move
G1 X24.1 E190.4 F1074.8 ;horizontal move
G1 X22.3 Y22.4 E192.2 F1080.0 ;horizontal move
G1 X20.5 Y21.7 E194.2 ;horizontal move
G1 X18.7 Y20.6 E196.3 ;horizontal move
G1 X17.0 Y19.3 E198.4 ;horizontal move
G1 X15.2 Y17.6 E200.9 ;horizontal move
G1 X12.7 Y15.0 E204.5 ;horizontal move
G1 X0.6 Y1.3 E222.8 ;horizontal move
G1 X0.4 Y0.9 E223.2 F374.5 ;horizontal move
G1 Y1.4 E223.7 F1080.0 ;horizontal move
G1 X0.3 Y48.0 E270.3 ;horizontal move
G1 X0.4 E270.4 ;horizontal move
G1 X0.7 Y49.8 E272.3 ;horizontal move
G1 X1.2 Y52.0 E274.5 ;horizontal move
G1 X1.8 Y53.7 E276.3 ;horizontal move
G1 X2.5 Y55.2 E278.0 ;horizontal move
G1 X3.5 Y56.6 E279.7 ;horizontal move
G1 X4.8 Y57.8 E281.5 ;horizontal move
G1 X6.3 Y59.0 E283.4 ;horizontal move
G1 X7.9 Y59.9 E285.2 ;horizontal move
G1 X9.7 Y60.5 E287.1 ;horizontal move
G1 X11.5 Y60.9 E289.0 ;horizontal move
G1 X13.2 Y61.0 E290.7 ;horizontal move
G1 X15.0 Y60.8 E292.5 ;horizontal move
G1 X16.3 Y60.5 E293.8 ;horizontal move
G1 X16.8 Y60.4 E294.3 F363.1 ;horizontal move
G1 X16.4 Y60.2 E294.8 F975.4 ;horizontal move
G1 X14.7 Y59.3 E296.7 F1080.0 ;horizontal move
G1 X13.9 Y58.7 E297.7 ;horizontal move
G1 X13.2 Y58.2 E298.6 ;horizontal move
G1 X12.8 Y57.7 E299.2 ;horizontal move
G1 X12.7 E299.3 F1072.4 ;horizontal move
G1 X12.4 Y57.2 E299.9 F1080.0 ;horizontal move
G1 Y57.1 E300.0 ;horizontal move
G1 X12.2 Y56.5 E300.6 ;horizontal move
G1 X12.1 Y55.9 E301.2 ;horizontal move
G1 Y55.2 E301.9 ;horizontal move
G1 Y55.1 E302.0 F1072.0 ;horizontal move
G1 X12.2 Y54.3 E302.8 F1080.0 ;horizontal move
G1 X12.4 Y53.3 E303.8 ;horizontal move
G1 Y53.2 E303.9 F1053.1 ;horizontal move
G1 X12.7 Y52.9 E304.4 F1080.0 ;horizontal move
G1 X13.1 Y51.9 E305.4 ;horizontal move
G1 X13.6 Y51.1 E306.4 ;horizontal move
G1 X14.2 Y50.4 E307.3 ;horizontal move
G1 X14.8 Y50.0 E308.0 ;horizontal move
G1 Y49.9 E308.1 F1058.7 ;horizontal move
G1 X15.7 Y49.6 E309.1 F1080.0 ;horizontal move
G1 X16.7 Y49.3 E310.1 ;horizontal move
G1 X18.4 Y49.0 E311.9 ;horizontal move
G1 X20.8 Y48.9 E314.3 ;horizontal move
G1 X22.5 Y49.0 E316.0 ;horizontal move
G1 X23.7 Y49.2 E317.2 ;horizontal move
G1 X24.5 Y49.5 E318.0 ;horizontal move
G1 X25.5 Y50.0 E319.1 ;horizontal move
G1 X26.4 Y50.7 E320.3 ;horizontal move
G1 X27.2 Y51.5 E321.4 ;horizontal move
G1 X28.0 Y52.6 E322.8 ;horizontal move
G1 X28.6 Y53.8 E324.1 ;horizontal move
G1 X28.9 Y55.1 E325.5 ;horizontal move
G1 X29.1 Y56.4 E326.8 ;horizontal move
G1 X29.0 Y57.7 E328.1 ;horizontal move
G1 X28.7 Y59.0 E329.4 ;horizontal move
G1 Y59.1 E329.5 F1073.9 ;horizontal move
G1 X28.3 Y60.1 E330.6 F1080.0 ;horizontal move
G1 X27.7 Y61.1 E331.8 ;horizontal move
G1 X26.6 Y62.4 E333.5 ;horizontal move
G1 X24.3 Y64.8 E336.8 ;horizontal move
G1 X22.2 Y67.4 E340.1 ;horizontal move
G1 X20.3 Y70.1 E343.4 ;horizontal move
G1 X19.2 Y71.9 E345.5 ;horizontal move
G1 X18.4 Y73.5 E347.3 ;horizontal move
G1 X17.9 Y75.0 E348.9 ;horizontal move
G1 X17.7 Y76.0 E349.9 ;horizontal move
G1 Y76.1 E350.0 F1073.5 ;horizontal move
G1 Y77.1 E351.0 F1080.0 ;horizontal move
G1 X17.9 Y78.5 E352.4 ;horizontal move
G1 X18.0 Y78.6 E352.6 ;horizontal move
G1 Y78.7 E352.7 ;horizontal move
G1 X18.4 Y79.7 E353.8 ;horizontal move
G1 X19.1 Y81.2 E355.4 ;horizontal move
G1 X20.1 Y82.8 E357.3 ;horizontal move
G1 X21.4 Y84.4 E359.4 ;horizontal move
G1 X22.9 Y85.8 E361.4 ;horizontal move
G1 X24.6 Y87.0 E363.5 ;horizontal move
G1 X26.4 Y87.9 E365.5 ;horizontal move
G1 X28.2 Y88.5 E367.4 ;horizontal move
G1 X30.2 Y88.9 E369.4 ;horizontal move
G1 X32.3 Y89.1 E371.5 ;horizontal move
G1 X34.2 Y88.9 E373.5 ;horizontal move
G1 X34.3 E373.6 ;horizontal move
G1 X36.2 Y88.5 E375.5 ;horizontal move
G1 X36.3 E375.6 F1077.0 ;horizontal move
G1 X38.3 Y87.8 E377.7 F1080.0 ;horizontal move
G1 X40.5 Y86.8 E380.1 ;horizontal move
G1 X42.9 Y85.5 E382.9 ;horizontal move
G1 X43.3 Y85.3 E383.3 F335.6 ;horizontal move
G1 X42.9 E383.7 F1060.4 ;horizontal move
G1 X40.7 Y85.2 E385.9 F1080.0 ;horizontal move
G1 X39.1 Y85.0 E387.5 ;horizontal move
G1 X37.9 Y84.7 E388.8 ;horizontal move
G1 X37.0 Y84.4 E389.7 ;horizontal move
G1 X36.9 E389.8 ;horizontal move
G1 X36.3 Y84.0 E390.5 ;horizontal move
G1 X35.6 Y83.4 E391.5 ;horizontal move
G1 X35.1 Y82.6 E392.4 ;horizontal move
G1 X34.6 Y81.7 E393.4 ;horizontal move
G1 X34.2 Y80.7 E394.5 ;horizontal move
G1 X33.9 Y79.5 E395.7 ;horizontal move
G1 X33.8 Y78.2 E397.0 ;horizontal move
G1 X34.0 Y76.9 E398.4 ;horizontal move
G1 X34.4 Y75.8 E399.5 ;horizontal move
G1 X34.9 Y74.8 E400.7 ;horizontal move
G1 X35.8 Y73.5 E402.2 ;horizontal move
G1 X36.9 Y72.4 E403.8 ;horizontal move
G1 X38.5 Y71.2 E405.8 ;horizontal move
G1 X40.5 Y70.0 E408.1 ;horizontal move
G1 X42.5 Y69.0 E410.4 ;horizontal move
G1 X43.7 Y68.6 E411.6 ;horizontal move
G1 X44.4 Y68.4 E412.3 ;horizontal move
G1 X44.5 E412.4 ;horizontal move
G1 X45.1 Y68.3 E413.1 ;horizontal move
G1 X45.2 E413.2 F1056.7 ;horizontal move
G1 X45.8 Y68.4 E413.8 F1080.0 ;horizontal move
G1 X46.4 Y68.6 E414.4 ;horizontal move
G1 X46.8 Y68.8 E414.8 ;horizontal move
G1 X47.5 Y69.2 E415.7 ;horizontal move
G1 X48.0 Y69.6 E416.3 ;horizontal move
G1 X48.4 Y70.1 E416.9 ;horizontal move
G1 X48.7 Y70.6 E417.5 ;horizontal move
G1 X48.9 Y71.2 E418.1 ;horizontal move
G1 Y72.0 E418.9 ;horizontal move
G1 X49.0 Y73.0 E420.0 ;horizontal move
G1 X48.9 Y74.1 E421.1 ;horizontal move
G1 Y74.5 E421.5 F392.0 ;horizontal move
G1 X49.2 Y74.2 E421.9 F1080.0 ;horizontal move
G1 X50.2 Y73.4 E423.2 ;horizontal move
G1 X52.2 Y71.7 E425.8 ;horizontal move
G1 X53.8 Y70.0 E428.1 ;horizontal move
G1 X55.1 Y68.3 E430.3 ;horizontal move
G1 X56.2 Y66.4 E432.5 ;horizontal move
G1 X56.3 E432.6 ;horizontal move
G1 X57.2 Y64.3 E434.8 ;horizontal move
G1 X58.0 Y62.0 E437.3 ;horizontal move
G1 X58.6 Y59.4 E439.9 ;horizontal move
G1 X59.0 Y56.6 E442.8 ;horizontal move
G1 X59.1 Y53.8 E445.6 ;horizontal move
G1 X58.9 Y50.9 E448.5 ;horizontal move
G1 X58.4 Y48.1 E451.3 ;horizontal move
G1 X57.7 Y45.3 E454.2 ;horizontal move
G1 X56.7 Y42.5 E457.2 ;horizontal move
G1 X55.4 Y39.7 E460.3 ;horizontal move
G1 Y39.6 E460.4 ;horizontal move
G1 X54.1 Y37.3 E463.0 ;horizontal move
G1 X52.4 Y35.0 E465.9 ;horizontal move
G1 X50.7 Y33.0 E468.5 ;horizontal move
G1 X50.5 Y32.8 E468.8 F550.1 ;horizontal move
G1 X50.2 Y33.0 E469.1 F1080.0 ;horizontal move
G1 X40.6 Y44.8 E484.4 ;horizontal move
G1 F1200.0; feed for start of next move
G1 E451.0; extruder retraction
G1 F600.0; feed for start of next move
G1 X40.3 Y45.1 F1200.0 ;horizontal move
G1 E501.0; extruder dwell
G1 F600.0; feed for start of next move
G1 F1200.0; feed for start of next move
G1 E534.4; extruder dwell
G1 F600.0; feed for start of next move
G1 X29.6 Y55.8 E549.5 F525.0 ;horizontal move
G1 X29.7 Y56.4 E550.1 F481.5 ;horizontal move
G1 X29.6 Y57.8 E551.5 F481.7 ;horizontal move
G1 X29.5 Y58.3 E552.0 F480.0 ;horizontal move
G1 Y58.4 E552.1 F347.4 ;horizontal move
G1 X52.2 Y35.7 E584.2 F480.0 ;horizontal move
G1 X53.2 Y37.1 E585.9 F580.0 ;horizontal move
G1 X23.2 Y67.1 E628.4 F480.7 ;horizontal move
G1 X22.7 Y67.7 E629.1 F480.4 ;horizontal move
G1 X20.8 Y70.4 E632.4 F480.2 ;horizontal move
G1 X19.7 Y72.2 E634.6 F480.5 ;horizontal move
G1 X19.1 Y73.6 E636.1 F480.0 ;horizontal move
G1 X19.0 E636.2 F316.1 ;horizontal move
G1 X19.1 E636.3 F480.0 ;horizontal move
G1 X54.1 Y38.6 E685.8 ;horizontal move
G1 X54.9 Y39.9 E687.3 F480.6 ;horizontal move
G1 X55.0 Y40.1 E687.5 F558.0 ;horizontal move
G1 X18.3 Y76.7 E739.4 F514.4 ;horizontal move
G1 Y77.0 E739.7 F481.4 ;horizontal move
G1 X18.5 Y78.3 E741.0 F500.6 ;horizontal move
G1 X18.6 E741.1 F490.8 ;horizontal move
G1 X18.7 Y78.8 E741.6 F480.0 ;horizontal move
G1 X55.7 Y41.7 E794.0 ;horizontal move
G1 X56.2 Y42.7 E795.1 F480.4 ;horizontal move
G1 X56.4 Y43.4 E795.8 F548.6 ;horizontal move
G1 X19.4 Y80.5 E848.2 F560.0 ;horizontal move
G1 X19.6 Y80.9 E848.7 F480.8 ;horizontal move
G1 X20.3 Y82.0 E850.0 F534.0 ;horizontal move
G1 X57.1 Y45.2 E902.0 F480.0 ;horizontal move
G1 X57.2 Y45.5 E902.3 ;horizontal move
G1 X57.6 Y47.1 E904.0 F538.9 ;horizontal move
G1 X21.3 Y83.3 E955.2 F587.8 ;horizontal move
G1 X21.9 Y84.0 E956.2 F481.0 ;horizontal move
G1 X22.5 Y84.6 E957.0 F596.4 ;horizontal move
G1 X58.0 Y49.1 E1007.2 F480.0 ;horizontal move
G1 X58.3 Y51.0 E1009.1 ;horizontal move
G1 Y51.2 E1009.3 F520.6 ;horizontal move
G1 X39.7 Y69.8 E1035.6 F480.0 ;horizontal move
G1 X40.3 Y69.5 E1036.3 ;horizontal move
G1 X42.3 Y68.5 E1038.6 F480.7 ;horizontal move
G1 X43.5 Y68.1 E1039.8 F480.1 ;horizontal move
G1 X44.0 Y67.9 E1040.4 F493.9 ;horizontal move
G1 X58.4 Y53.5 E1060.7 F480.0 ;horizontal move
G1 X58.5 Y53.4 E1060.9 F401.6 ;horizontal move
G1 Y53.5 E1061.0 F480.0 ;horizontal move
G1 Y53.8 E1061.3 ;horizontal move
G1 X58.4 Y55.9 E1063.4 F512.3 ;horizontal move
G1 X46.3 Y68.0 E1080.5 F480.0 ;horizontal move
G1 X46.6 Y68.1 E1080.8 ;horizontal move
G1 X47.1 Y68.3 E1081.3 F480.7 ;horizontal move
G1 X47.8 Y68.7 E1082.1 F481.4 ;horizontal move
G1 X47.9 Y68.8 E1082.3 F589.4 ;horizontal move
G1 X58.1 Y58.6 E1096.7 F480.0 ;horizontal move
G1 X58.0 Y59.3 E1097.4 ;horizontal move
G1 X57.5 Y61.7 E1099.9 F498.1 ;horizontal move
G1 X49.1 Y70.0 E1111.7 F572.9 ;horizontal move
G1 X49.2 Y70.3 E1112.0 F484.4 ;horizontal move
G1 X49.5 Y71.1 E1112.8 F482.4 ;horizontal move
G1 Y71.9 E1113.6 F480.0 ;horizontal move
G1 Y72.0 E1113.7 F402.9 ;horizontal move
G1 X49.6 Y71.9 E1113.9 F480.0 ;horizontal move
G1 X56.0 Y65.5 E1122.9 ;horizontal move
G1 F1200.0; feed for start of next move
G1 E1089.6; extruder retraction
G1 F600.0; feed for start of next move
G1 X55.6 Y65.7 F1200.0 ;horizontal move
G1 X34.2 Y75.5 ;horizontal move
G1 X33.8 Y75.7 F600.0 ;horizontal move
G1 F1200.0; feed for start of next move
G1 E1139.6; extruder dwell
G1 F600.0; feed for start of next move
G1 F1200.0; feed for start of next move
G1 E1172.9; extruder dwell
G1 F600.0; feed for start of next move
G1 X23.8 Y85.7 E1187.1 F549.0 ;horizontal move
G1 X24.9 Y86.5 E1188.4 F481.2 ;horizontal move
G1 X25.2 Y86.6 E1188.8 F563.1 ;horizontal move
G1 X33.2 Y78.7 E1200.0 F480.0 ;horizontal move
G1 X33.3 Y78.6 E1200.1 F398.5 ;horizontal move
G1 Y78.7 E1200.2 F480.0 ;horizontal move
G1 Y79.6 E1201.1 ;horizontal move
G1 X33.6 Y80.7 E1202.3 F535.9 ;horizontal move
G1 X26.9 Y87.4 E1211.8 F480.0 ;horizontal move
G1 X28.4 Y88.0 E1213.4 ;horizontal move
G1 X28.7 E1213.7 F533.0 ;horizontal move
G1 X34.3 Y82.4 E1221.6 F524.9 ;horizontal move
G1 X34.6 Y83.0 E1222.3 F480.1 ;horizontal move
G1 X35.2 Y83.8 E1223.3 F484.4 ;horizontal move
G1 Y83.9 E1223.4 F580.7 ;horizontal move
G1 X30.8 Y88.3 E1229.6 F480.0 ;horizontal move
G1 X30.7 Y88.4 E1229.7 F401.6 ;horizontal move
G1 X30.8 E1229.8 F480.0 ;horizontal move
G1 X32.3 Y88.5 E1231.3 ;horizontal move
G1 X33.1 Y88.4 E1232.1 F508.4 ;horizontal move
G1 X36.6 Y84.9 E1237.1 F575.9 ;horizontal move
G1 X36.7 Y85.0 E1237.2 F485.3 ;horizontal move
G1 X37.7 Y85.3 E1238.3 F480.1 ;horizontal move
G1 X38.4 Y85.4 E1239.0 F480.0 ;horizontal move
G1 X38.5 Y85.5 E1239.1 F447.2 ;horizontal move
G1 X36.0 Y87.9 E1242.6 F480.0 ;horizontal move
G1 X36.1 E1242.7 ;horizontal move
G1 X38.1 Y87.2 E1244.8 F480.6 ;horizontal move
G1 X39.8 Y86.5 E1246.6 F488.0 ;horizontal move
G1 X40.5 Y85.8 E1247.6 F600.0 ;horizontal move
G1 F1200.0; feed for start of next move
G1 E1214.3; extruder retraction
G1 F600.0; feed for start of next move
G1 X40.2 Y85.5 F1200.0 ;horizontal move
G1 X14.2 Y59.8 ;horizontal move
G1 X13.9 Y59.5 F600.0 ;horizontal move
G1 F1200.0; feed for start of next move
G1 E1264.3; extruder dwell
G1 F600.0; feed for start of next move
G1 F1200.0; feed for start of next move
G1 E1297.6; extruder dwell
G1 F600.0; feed for start of next move
G1 X13.1 Y60.4 E1298.8 F519.0 ;horizontal move
G1 X11.5 Y60.3 E1300.4 F481.4 ;horizontal move
G1 X10.9 Y60.2 E1301.0 F480.0 ;horizontal move
G1 X12.6 Y58.4 E1303.5 ;horizontal move
G1 X12.3 Y58.0 E1304.0 F481.9 ;horizontal move
G1 X11.9 Y57.4 E1304.7 F483.4 ;horizontal move
G1 X11.7 Y56.9 E1305.3 F480.0 ;horizontal move
G1 X9.0 Y59.6 E1309.1 ;horizontal move
G1 X8.2 Y59.3 E1310.0 F481.4 ;horizontal move
G1 X7.3 Y58.9 E1310.9 F517.0 ;horizontal move
G1 X11.5 Y54.7 E1316.9 F505.0 ;horizontal move
G1 X11.6 Y54.2 E1317.4 F480.5 ;horizontal move
G1 X11.9 Y53.0 E1318.6 F486.7 ;horizontal move
G1 X12.1 Y52.6 E1319.1 F480.7 ;horizontal move
G1 X12.6 Y51.7 E1320.1 F480.3 ;horizontal move
G1 X13.1 Y50.7 E1321.2 F483.0 ;horizontal move
G1 X13.3 Y50.5 E1321.5 F480.0 ;horizontal move
G1 X5.9 Y57.9 E1332.0 ;horizontal move
G1 X5.2 Y57.4 E1332.8 F481.2 ;horizontal move
G1 X4.6 Y56.8 E1333.7 F599.1 ;horizontal move
G1 X36.7 Y24.7 E1379.1 F480.0 ;horizontal move
G1 X36.4 Y24.6 E1379.4 ;horizontal move
G1 X34.7 Y24.3 E1381.1 F533.7 ;horizontal move
G1 X3.5 Y55.5 E1425.2 F550.7 ;horizontal move
G1 X3.0 Y54.9 E1426.0 F481.5 ;horizontal move
G1 X2.6 Y54.0 E1427.0 F562.1 ;horizontal move
G1 X32.6 Y24.0 E1469.4 F480.0 ;horizontal move
G1 X31.4 Y23.9 E1470.6 ;horizontal move
G1 X30.3 E1471.7 F516.1 ;horizontal move
G1 X1.9 Y52.3 E1511.9 F480.0 ;horizontal move
G1 X1.8 Y51.8 E1512.4 ;horizontal move
G1 X1.4 Y50.4 E1513.9 F536.9 ;horizontal move
G1 X27.9 Y23.9 E1551.3 F480.0 ;horizontal move
G1 X25.9 Y23.8 E1553.3 ;horizontal move
G1 X25.6 E1553.6 F526.9 ;horizontal move
G1 X1.0 Y48.3 E1588.4 F480.0 ;horizontal move
G1 Y48.4 E1588.5 F431.0 ;horizontal move
G1 Y48.3 E1588.6 F480.0 ;horizontal move
G1 X0.9 Y48.0 E1588.9 ;horizontal move
G1 X1.0 Y46.0 E1590.9 F515.1 ;horizontal move
G1 X23.5 Y23.4 E1622.8 F480.0 ;horizontal move
G1 X23.6 E1622.9 F454.3 ;horizontal move
G1 X23.5 E1623.0 F480.0 ;horizontal move
G1 X22.1 Y23.0 E1624.4 ;horizontal move
G1 X21.7 Y22.9 E1624.8 F556.7 ;horizontal move
G1 X1.0 Y43.6 E1654.1 F480.0 ;horizontal move
G1 X0.9 Y41.2 E1656.5 ;horizontal move
G1 X20.1 Y22.1 E1683.6 F526.7 ;horizontal move
G1 X18.6 Y21.2 E1685.3 F570.7 ;horizontal move
G1 X1.0 Y38.8 E1710.2 F480.0 ;horizontal move
G1 X0.9 E1710.3 F387.9 ;horizontal move
G1 Y36.4 E1712.7 F480.0 ;horizontal move
G1 X17.2 Y20.2 E1735.7 F558.4 ;horizontal move
G1 X16.6 Y19.7 E1736.5 F480.5 ;horizontal move
G1 X15.9 Y19.1 E1737.4 F594.8 ;horizontal move
G1 X1.0 Y34.0 E1758.5 F480.0 ;horizontal move
G1 X0.9 E1758.6 F387.9 ;horizontal move
G1 Y31.6 E1761.0 F480.0 ;horizontal move
G1 X14.6 Y17.9 E1780.4 F596.5 ;horizontal move
G1 X13.5 Y16.7 E1782.0 F591.2 ;horizontal move
G1 X1.0 Y29.2 E1799.7 F480.0 ;horizontal move
G1 X0.9 E1799.8 F387.9 ;horizontal move
G1 Y26.8 E1802.2 F480.0 ;horizontal move
G1 X12.3 Y15.4 E1818.3 F596.5 ;horizontal move
G1 X12.2 E1818.4 F480.1 ;horizontal move
G1 X11.2 Y14.2 E1820.0 F580.5 ;horizontal move
G1 X1.0 Y24.4 E1834.4 F480.0 ;horizontal move
G1 X0.9 E1834.5 F387.9 ;horizontal move
G1 X1.0 Y22.0 E1836.9 F480.0 ;horizontal move
G1 X10.0 Y12.9 E1849.7 F592.2 ;horizontal move
G1 X8.9 Y11.6 E1851.4 F580.5 ;horizontal move
G1 X1.0 Y19.6 E1862.6 F480.0 ;horizontal move
G1 Y19.5 E1862.7 ;horizontal move
G1 X0.9 Y17.2 E1865.0 ;horizontal move
G1 X7.8 Y10.3 E1874.8 F592.2 ;horizontal move
G1 X6.7 Y9.0 E1876.5 F580.5 ;horizontal move
G1 X1.0 Y14.8 E1884.6 F480.0 ;horizontal move
G1 X0.9 E1884.7 F387.9 ;horizontal move
G1 Y14.7 E1884.8 F480.0 ;horizontal move
G1 Y12.4 E1887.1 ;horizontal move
G1 X5.6 Y7.8 E1893.7 F592.2 ;horizontal move
G1 X4.4 Y6.5 E1895.5 F580.5 ;horizontal move
G1 X1.0 Y9.9 E1900.3 F480.0 ;horizontal move
G1 X0.9 Y10.0 E1900.4 F387.9 ;horizontal move
G1 Y9.9 E1900.5 F480.0 ;horizontal move
G1 Y7.6 E1902.8 ;horizontal move
G1 X3.3 Y5.2 E1906.2 F592.2 ;horizontal move
G1 X2.2 Y3.9 E1907.9 F580.5 ;horizontal move
G1 X1.0 Y5.1 E1909.6 F480.0 ;horizontal move
G1 X0.9 Y5.2 E1909.8 F387.9 ;horizontal move
G1 Y5.1 E1909.9 F480.0 ;horizontal move
G1 X1.0 Y2.8 E1912.2 ;horizontal move
G1 X1.1 Y2.6 E1912.4 F600.0 ;horizontal move
G1 F1200.0; feed for start of next move
G1 E1879.0; extruder retraction
G1 F600.0; feed for start of next move
G1 X1.2 Y3.0 F1200.0 ;horizontal move
G1 X13.8 Y49.5 ;horizontal move
G1 X13.9 Y49.9 F600.0 ;horizontal move
G1 F1200.0; feed for start of next move
G1 E1929.0; extruder dwell
G1 F600.0; feed for start of next move
G1 F1200.0; feed for start of next move
G1 E1962.4; extruder dwell
G1 F600.0; feed for start of next move
G1 X38.5 Y25.3 E1997.2 F544.5 ;horizontal move
G1 X38.8 Y25.4 E1997.5 F480.7 ;horizontal move
G1 X40.2 Y26.0 E1999.0 F491.4 ;horizontal move
G1 X17.7 Y48.5 E2030.8 F480.0 ;horizontal move
G1 X17.8 E2030.9 ;horizontal move
G1 X18.3 Y48.4 E2031.4 ;horizontal move
G1 X20.3 Y48.3 E2033.4 F511.7 ;horizontal move
G1 X41.8 Y26.8 E2063.8 F567.4 ;horizontal move
G1 X43.2 Y27.6 E2065.5 F480.5 ;horizontal move
G1 X43.3 Y27.7 E2065.6 F545.4 ;horizontal move
G1 X22.6 Y48.4 E2094.9 F480.0 ;horizontal move
G1 X23.9 Y48.6 E2096.2 ;horizontal move
G1 X24.6 Y48.9 E2097.0 F548.0 ;horizontal move
G1 X44.8 Y28.7 E2125.5 F578.2 ;horizontal move
G1 X45.5 Y29.2 E2126.4 F480.4 ;horizontal move
G1 X46.1 Y29.7 E2127.2 F568.5 ;horizontal move
G1 X26.1 Y49.7 E2155.4 F558.7 ;horizontal move
G1 X26.8 Y50.2 E2156.3 F481.4 ;horizontal move
G1 X27.4 Y50.8 E2157.2 F596.3 ;horizontal move
G1 X47.5 Y30.8 E2185.5 F587.4 ;horizontal move
G1 X47.9 Y31.1 E2186.0 F480.4 ;horizontal move
G1 X48.7 Y31.9 E2187.1 F594.4 ;horizontal move
G1 X28.4 Y52.2 E2215.8 F579.5 ;horizontal move
G1 X28.5 Y52.3 E2216.0 F481.8 ;horizontal move
G1 X29.1 Y53.6 E2217.4 F481.5 ;horizontal move
G1 X29.2 Y53.8 E2217.6 F480.0 ;horizontal move
G1 Y53.9 E2217.7 F455.5 ;horizontal move
G1 Y53.8 E2217.8 F480.0 ;horizontal move
G1 X49.9 Y33.1 E2247.1 ;horizontal move
G1 X50.0 Y33.2 E2247.3 F480.4 ;horizontal move
G1 X51.1 Y34.4 E2248.9 F600.0 ;horizontal move
G1 F1200.0; feed for start of next move
G1 E2215.6; extruder retraction
G1 F600.0; feed for start of next move
M106 ;cooler on
G1 X50.7 F1200.0 ;horizontal move
G1 X-249.6 ;horizontal move
G1 X-250.0 F600.0 ;horizontal move
G92 X0 ;set x 0
G1 Y33.9 F1200.0 ;horizontal move
G1 Y-249.5 ;horizontal move
G1 Y-250.0 F600.0 ;horizontal move
G92 Y0 ;set y 0
G92 E0 ;zero the extruded length
;#!LAYER: 5/12
M107 ;cooler off
G4 P20 ;delay
G1 F40.0; feed for start of next move
G1 Z3.5 F67.8 ;z move
G1 Z4.0 F40.0 ;z move
G1 F600.0; feed for start of next move
G1 X-0.3 Y-0.3 F1200.0 ;horizontal move
G1 X-2.7 Y-2.7 ;horizontal move
G1 X-3.0 Y-3.0 F600.0 ;horizontal move
G1 F1200.0; feed for start of next move
G1 E16.7; extruder dwell
G1 F600.0; feed for start of next move
G1 F1200.0; feed for start of next move
G1 E50.0; extruder dwell
G1 F600.0; feed for start of next move
G1 X-5.0 Y6.9 E60.1 F480.0 ;horizontal move
G1 Y7.0 E60.2 F305.8 ;horizontal move
G1 Y6.9 E60.3 F480.0 ;horizontal move
G1 Y-5.0 E72.2 ;horizontal move
G1 X17.0 E94.2 F600.0 ;horizontal move
G1 F1200.0; feed for start of next move
G1 E60.9; extruder retraction
G1 F600.0; feed for start of next move
G1 X17.1 Y-4.6 F1200.0 ;horizontal move
G1 X38.7 Y85.6 ;horizontal move
G1 X38.8 Y86.0 F600.0 ;horizontal move
G1 F1200.0; feed for start of next move
G1 E110.9; extruder dwell
G1 F600.0; feed for start of next move
G1 F1200.0; feed for start of next move
G1 E144.2; extruder dwell
G1 F600.0; feed for start of next move
G1 X39.0 Y86.3 E144.6 F1080.0 ;horizontal move
G1 X39.3 Y86.5 E144.9 ;horizontal move
G1 X39.4 Y86.7 E145.1 F772.1 ;horizontal move
G1 X39.6 Y86.6 E145.4 F1080.0 ;horizontal move
G1 X40.2 Y86.3 E146.0 ;horizontal move
G1 X41.0 Y85.9 E146.9 ;horizontal move
G1 X42.9 Y85.4 E148.9 ;horizontal move
G1 X43.3 Y85.3 E149.3 F308.3 ;horizontal move
G1 X42.9 E149.7 F1052.1 ;horizontal move
G1 X40.7 Y85.2 E151.9 F1080.0 ;horizontal move
G1 X39.1 Y85.0 E153.5 ;horizontal move
G1 X37.9 Y84.7 E154.8 ;horizontal move
G1 X37.0 Y84.4 E155.7 ;horizontal move
G1 X36.9 E155.8 ;horizontal move
G1 X36.3 Y84.0 E156.5 ;horizontal move
G1 X35.6 Y83.4 E157.5 ;horizontal move
G1 X35.1 Y82.6 E158.4 ;horizontal move
G1 X34.6 Y81.7 E159.4 ;horizontal move
G1 X34.2 Y80.7 E160.5 ;horizontal move
G1 X33.9 Y79.5 E161.7 ;horizontal move
G1 X33.8 Y78.2 E163.0 ;horizontal move
G1 X34.0 Y76.9 E164.4 ;horizontal move
G1 X34.4 Y75.8 E165.5 ;horizontal move
G1 X34.9 Y74.8 E166.6 ;horizontal move
G1 X35.8 Y73.5 E168.2 ;horizontal move
G1 X36.9 Y72.4 E169.8 ;horizontal move
G1 X38.5 Y71.2 E171.8 ;horizontal move
G1 X40.5 Y70.0 E174.1 ;horizontal move
G1 X42.5 Y69.0 E176.4 ;horizontal move
G1 X43.7 Y68.6 E177.6 ;horizontal move
G1 X44.4 Y68.4 E178.3 ;horizontal move
G1 X44.5 E178.4 ;horizontal move
G1 X45.1 Y68.3 E179.1 ;horizontal move
G1 X45.2 E179.2 F1056.7 ;horizontal move
G1 X45.8 Y68.4 E179.8 F1080.0 ;horizontal move
G1 X46.4 Y68.6 E180.4 ;horizontal move
G1 X46.8 Y68.8 E180.8 ;horizontal move
G1 X47.5 Y69.2 E181.6 ;horizontal move
G1 X48.0 Y69.6 E182.3 ;horizontal move
G1 X48.4 Y70.1 E182.9 ;horizontal move
G1 X48.7 Y70.6 E183.5 ;horizontal move
G1 X48.9 Y71.2 E184.1 ;horizontal move
G1 Y72.0 E184.9 ;horizontal move
G1 X49.0 Y73.0 E186.0 ;horizontal move
G1 X48.9 Y74.1 E187.1 ;horizontal move
G1 Y74.5 E187.5 F392.0 ;horizontal move
G1 X49.2 Y74.2 E187.9 F1080.0 ;horizontal move
G1 X50.2 Y73.4 E189.2 ;horizontal move
G1 X52.2 Y71.7 E191.8 ;horizontal move
G1 X53.8 Y70.0 E194.1 ;horizontal move
G1 X55.1 Y68.3 E196.3 ;horizontal move
G1 X56.2 Y66.4 E198.5 ;horizontal move
G1 X56.3 E198.6 ;horizontal move
G1 X57.2 Y64.3 E200.8 ;horizontal move
G1 X58.0 Y62.0 E203.3 ;horizontal move
G1 X58.6 Y59.4 E205.9 ;horizontal move
G1 X59.0 Y56.6 E208.8 ;horizontal move
G1 X59.1 Y53.8 E211.6 ;horizontal move
G1 X58.9 Y50.9 E214.5 ;horizontal move
G1 X58.4 Y48.1 E217.3 ;horizontal move
G1 X57.7 Y45.3 E220.2 ;horizontal move
G1 X56.7 Y42.5 E223.2 ;horizontal move
G1 X55.4 Y39.7 E226.3 ;horizontal move
G1 Y39.6 E226.4 ;horizontal move
G1 X54.1 Y37.3 E229.0 ;horizontal move
G1 X52.4 Y35.0 E231.9 ;horizontal move
G1 X50.5 Y32.8 E234.8 ;horizontal move
G1 X48.3 Y30.7 E237.8 ;horizontal move
G1 X45.9 Y28.7 E240.9 ;horizontal move
G1 X45.8 E241.0 ;horizontal move
G1 X43.5 Y27.1 E243.8 ;horizontal move
G1 X41.3 Y25.8 E246.4 ;horizontal move
G1 X39.0 Y24.8 E248.9 ;horizontal move
G1 X36.6 Y24.1 E251.4 ;horizontal move
G1 X34.0 Y23.5 E254.1 ;horizontal move
G1 X31.4 Y23.3 E256.7 ;horizontal move
G1 X27.9 E260.2 ;horizontal move
G1 X25.9 Y23.2 E262.2 ;horizontal move
G1 X24.2 Y23.0 E263.9 ;horizontal move
G1 X24.1 E264.0 F1074.8 ;horizontal move
G1 X22.3 Y22.4 E265.9 F1080.0 ;horizontal move
G1 X20.5 Y21.7 E267.8 ;horizontal move
G1 X18.7 Y20.6 E269.9 ;horizontal move
G1 X17.0 Y19.3 E272.1 ;horizontal move
G1 X15.2 Y17.6 E274.6 ;horizontal move
G1 X12.7 Y15.0 E278.2 ;horizontal move
G1 X0.6 Y1.3 E296.4 ;horizontal move
G1 X0.4 Y0.9 E296.9 F374.5 ;horizontal move
G1 Y1.4 E297.4 F1080.0 ;horizontal move
G1 X0.3 Y48.0 E344.0 ;horizontal move
G1 X0.4 E344.1 ;horizontal move
G1 X0.7 Y49.8 E345.9 ;horizontal move
G1 X1.2 Y52.0 E348.2 ;horizontal move
G1 X1.8 Y53.7 E350.0 ;horizontal move
G1 X2.5 Y55.2 E351.6 ;horizontal move
G1 X3.5 Y56.6 E353.3 ;horizontal move
G1 X4.8 Y57.8 E355.1 ;horizontal move
G1 X6.3 Y59.0 E357.0 ;horizontal move
G1 X7.9 Y59.9 E358.9 ;horizontal move
G1 X9.7 Y60.5 E360.8 ;horizontal move
G1 X11.5 Y60.9 E362.6 ;horizontal move
G1 X13.2 Y61.0 E364.3 ;horizontal move
G1 X15.0 Y60.8 E366.1 ;horizontal move
G1 X16.3 Y60.5 E367.5 ;horizontal move
G1 X16.8 Y60.4 E368.0 F363.1 ;horizontal move
G1 X16.4 Y60.2 E368.4 F975.4 ;horizontal move
G1 X14.7 Y59.3 E370.3 F1080.0 ;horizontal move
G1 X13.9 Y58.7 E371.3 ;horizontal move
G1 X13.2 Y58.2 E372.2 ;horizontal move
G1 X12.8 Y57.7 E372.8 ;horizontal move
G1 X12.7 E372.9 F1072.4 ;horizontal move
G1 X12.4 Y57.2 E373.5 F1080.0 ;horizontal move
G1 Y57.1 E373.6 ;horizontal move
G1 X12.2 Y56.5 E374.3 ;horizontal move
G1 X12.1 Y55.9 E374.9 ;horizontal move
G1 Y55.2 E375.6 ;horizontal move
G1 Y55.1 E375.7 F1072.0 ;horizontal move
G1 X12.2 Y54.3 E376.5 F1080.0 ;horizontal move
G1 X12.4 Y53.3 E377.5 ;horizontal move
G1 Y53.2 E377.6 F1053.1 ;horizontal move
G1 X12.7 Y52.9 E378.0 F1080.0 ;horizontal move
G1 X13.1 Y51.9 E379.1 ;horizontal move
G1 X13.6 Y51.1 E380.0 ;horizontal move
G1 X14.2 Y50.4 E381.0 ;horizontal move
G1 X14.8 Y50.0 E381.7 ;horizontal move
G1 Y49.9 E381.8 F1058.7 ;horizontal move
G1 X15.7 Y49.6 E382.7 F1080.0 ;horizontal move
G1 X16.7 Y49.3 E383.8 ;horizontal move
G1 X18.4 Y49.0 E385.5 ;horizontal move
G1 X20.8 Y48.9 E387.9 ;horizontal move
G1 X22.5 Y49.0 E389.6 ;horizontal move
G1 X23.7 Y49.2 E390.8 ;horizontal move
G1 X24.5 Y49.5 E391.7 ;horizontal move
G1 X25.5 Y50.0 E392.8 ;horizontal move
G1 X26.4 Y50.7 E393.9 ;horizontal move
G1 X27.2 Y51.5 E395.1 ;horizontal move
G1 X28.0 Y52.6 E396.4 ;horizontal move
G1 X28.6 Y53.8 E397.8 ;horizontal move
G1 X28.9 Y55.1 E399.1 ;horizontal move
G1 X29.1 Y56.4 E400.4 ;horizontal move
G1 X29.0 Y57.7 E401.7 ;horizontal move
G1 X28.7 Y59.0 E403.1 ;horizontal move
G1 Y59.1 E403.2 F1073.9 ;horizontal move
G1 X28.3 Y60.1 E404.2 F1080.0 ;horizontal move
G1 X27.7 Y61.1 E405.4 ;horizontal move
G1 X26.6 Y62.4 E407.1 ;horizontal move
G1 X24.3 Y64.8 E410.4 ;horizontal move
G1 X22.2 Y67.4 E413.8 ;horizontal move
G1 X20.3 Y70.1 E417.1 ;horizontal move
G1 X19.2 Y71.9 E419.2 ;horizontal move
G1 X18.4 Y73.5 E421.0 ;horizontal move
G1 X17.9 Y75.0 E422.5 ;horizontal move
G1 X17.7 Y76.0 E423.6 ;horizontal move
G1 Y76.1 E423.7 F1073.5 ;horizontal move
G1 Y76.7 E424.3 F1080.0 ;horizontal move
G1 Y77.1 E424.7 F462.4 ;horizontal move
G1 X17.9 Y76.7 E425.1 F1080.0 ;horizontal move
G1 X18.5 Y75.5 E426.5 ;horizontal move
G1 X18.7 Y75.1 E426.9 F312.7 ;horizontal move
G1 Y75.5 E427.3 F1080.0 ;horizontal move
G1 X18.1 Y78.9 E430.8 ;horizontal move
G1 Y79.0 E430.9 ;horizontal move
G1 X18.4 Y79.7 E431.6 ;horizontal move
G1 X19.1 Y81.2 E433.3 ;horizontal move
G1 X20.1 Y82.8 E435.2 ;horizontal move
G1 X21.4 Y84.4 E437.2 ;horizontal move
G1 X22.9 Y85.8 E439.3 ;horizontal move
G1 X24.6 Y87.0 E441.4 ;horizontal move
G1 X26.4 Y87.9 E443.4 ;horizontal move
G1 X28.2 Y88.5 E445.3 ;horizontal move
G1 X30.2 Y88.9 E447.3 ;horizontal move
G1 X32.3 Y89.1 E449.4 ;horizontal move
G1 X34.2 Y88.9 E451.3 ;horizontal move
G1 X34.3 E451.4 ;horizontal move
G1 X36.2 Y88.5 E453.4 ;horizontal move
G1 X36.3 E453.5 F1077.0 ;horizontal move
G1 X38.3 Y87.8 E455.6 F1080.0 ;horizontal move
G1 X40.5 Y86.8 E458.0 ;horizontal move
G1 X42.9 Y85.5 E460.7 ;horizontal move
G1 X43.3 Y85.3 E461.2 F317.6 ;horizontal move
G1 X42.9 Y85.4 E461.6 F1080.0 ;horizontal move
G1 X39.1 Y86.0 E465.4 ;horizontal move
G1 F1200.0; feed for start of next move
G1 E432.1; extruder retraction
G1 F600.0; feed for start of next move
G1 X38.8 F1200.0 ;horizontal move
G1 E482.1; extruder dwell
G1 F600.0; feed for start of next move
G1 F1200.0; feed for start of next move
G1 E515.4; extruder dwell
G1 F600.0; feed for start of next move
G1 X38.1 Y85.4 E516.4 ;horizontal move
G1 F1200.0; feed for start of next move
G1 E483.0; extruder retraction
G1 F600.0; feed for start of next move
G1 X38.5 Y85.5 F1200.0 ;horizontal move
G1 X40.6 Y85.7 ;horizontal move
G1 X41.0 Y85.8 F600.0 ;horizontal move
G1 F1200.0; feed for start of next move
G1 E533.0; extruder dwell
G1 F600.0; feed for start of next move
G1 F1200.0; feed for start of next move
G1 E566.4; extruder dwell
G1 F600.0; feed for start of next move
G1 Y85.9 E566.5 ;horizontal move
G1 F1200.0; feed for start of next move
G1 E533.1; extruder retraction
G1 F600.0; feed for start of next move
G1 X41.3 Y85.5 F1200.0 ;horizontal move
G1 X49.5 Y73.4 ;horizontal move
G1 X49.8 Y73.0 F600.0 ;horizontal move
G1 F1200.0; feed for start of next move
G1 E583.1; extruder dwell
G1 F600.0; feed for start of next move
G1 F1200.0; feed for start of next move
G1 E616.5; extruder dwell
G1 F600.0; feed for start of next move
G1 X49.6 Y72.8 E616.7 F509.5 ;horizontal move
G1 X49.5 Y71.9 E617.6 F480.0 ;horizontal move
G1 Y71.1 E618.4 F482.4 ;horizontal move
G1 X49.2 Y70.3 E619.3 F484.4 ;horizontal move
G1 X48.9 Y69.7 E620.0 F481.9 ;horizontal move
G1 X48.5 Y69.3 E620.5 F480.0 ;horizontal move
G1 X48.4 Y69.2 E620.7 F300.4 ;horizontal move
G1 X48.5 E620.8 F480.0 ;horizontal move
G1 X51.1 Y71.9 E624.5 ;horizontal move
G1 X51.8 Y71.2 E625.5 F480.4 ;horizontal move
G1 X52.3 Y70.7 E626.2 F597.5 ;horizontal move
G1 X0.9 Y19.3 E698.9 F515.1 ;horizontal move
G1 Y17.0 E701.2 F480.0 ;horizontal move
G1 Y16.9 E701.3 F387.9 ;horizontal move
G1 X1.0 Y17.0 E701.5 F480.0 ;horizontal move
G1 X53.5 Y69.5 E775.7 ;horizontal move
G1 X54.5 Y68.1 E777.4 F584.9 ;horizontal move
G1 X0.9 Y14.5 E853.2 F515.1 ;horizontal move
G1 Y12.2 E855.5 F480.0 ;horizontal move
G1 Y12.1 E855.6 F387.9 ;horizontal move
G1 X1.0 Y12.2 E855.8 F480.0 ;horizontal move
G1 X55.4 Y66.6 E932.7 ;horizontal move
G1 X55.7 Y66.1 E933.3 F480.8 ;horizontal move
G1 X56.2 Y65.0 E934.5 F557.7 ;horizontal move
G1 X0.9 Y9.7 E1012.7 F515.1 ;horizontal move
G1 Y7.4 E1015.0 F480.0 ;horizontal move
G1 Y7.3 E1015.1 F387.9 ;horizontal move
G1 X1.0 E1015.2 F480.0 ;horizontal move
G1 X56.9 Y63.3 E1094.3 ;horizontal move
G1 X57.4 Y61.8 E1095.9 ;horizontal move
G1 X57.5 Y61.5 E1096.2 F536.6 ;horizontal move
G1 X0.9 Y4.9 E1176.3 F515.1 ;horizontal move
G1 Y2.6 E1178.6 F480.0 ;horizontal move
G1 Y2.5 E1178.7 F374.5 ;horizontal move
G1 X1.0 Y2.6 E1178.8 F480.0 ;horizontal move
G1 X12.2 Y15.4 E1195.8 ;horizontal move
G1 X14.7 Y18.0 E1199.4 F480.3 ;horizontal move
G1 X16.6 Y19.7 E1202.0 F480.5 ;horizontal move
G1 X18.4 Y21.1 E1204.3 F480.7 ;horizontal move
G1 X20.2 Y22.2 E1206.4 F480.9 ;horizontal move
G1 X20.9 Y22.5 E1207.1 F488.1 ;horizontal move
G1 X57.9 Y59.5 E1259.4 F480.0 ;horizontal move
G1 X58.0 E1259.5 F441.5 ;horizontal move
G1 Y59.3 E1259.7 F480.0 ;horizontal move
G1 X58.3 Y57.4 E1261.7 F527.6 ;horizontal move
G1 X24.5 Y23.6 E1309.5 F480.0 ;horizontal move
G1 X25.9 Y23.8 E1310.9 ;horizontal move
G1 X27.1 E1312.1 F512.6 ;horizontal move
G1 X58.4 Y55.2 E1356.4 F480.0 ;horizontal move
G1 X58.5 Y53.8 E1357.8 ;horizontal move
G1 X58.4 Y52.8 E1358.8 F510.0 ;horizontal move
G1 X29.6 Y23.9 E1399.6 F480.0 ;horizontal move
G1 X29.5 E1399.7 F385.5 ;horizontal move
G1 X29.6 E1399.8 F480.0 ;horizontal move
G1 X31.4 E1401.6 ;horizontal move
G1 X32.0 Y24.0 E1402.2 F507.8 ;horizontal move
G1 X58.1 Y50.1 E1439.2 F480.0 ;horizontal move
G1 X58.2 E1439.3 F356.8 ;horizontal move
G1 X57.9 Y48.2 E1441.2 F480.0 ;horizontal move
G1 X57.6 Y47.1 E1442.3 F496.7 ;horizontal move
G1 X34.8 Y24.3 E1474.6 F480.0 ;horizontal move
G1 X36.4 Y24.6 E1476.2 ;horizontal move
G1 X38.0 Y25.1 E1477.9 F493.6 ;horizontal move
G1 X56.5 Y43.6 E1504.0 F480.0 ;horizontal move
G1 X56.2 Y42.7 E1505.0 ;horizontal move
G1 X54.9 Y39.9 E1508.1 F480.6 ;horizontal move
G1 X54.5 Y39.2 E1508.9 F484.0 ;horizontal move
G1 X42.4 Y27.2 E1525.9 F600.0 ;horizontal move
G1 F1200.0; feed for start of next move
G1 E1492.6; extruder retraction
G1 F600.0; feed for start of next move
G1 X42.2 Y27.6 F1200.0 ;horizontal move
G1 X29.7 Y54.7 ;horizontal move
G1 X29.5 Y55.1 F600.0 ;horizontal move
G1 F1200.0; feed for start of next move
G1 E1542.6; extruder dwell
G1 F600.0; feed for start of next move
G1 F1200.0; feed for start of next move
G1 E1575.9; extruder dwell
G1 F600.0; feed for start of next move
G1 X42.7 Y68.3 E1594.6 F480.0 ;horizontal move
G1 X42.3 Y68.5 E1595.0 ;horizontal move
G1 X41.1 Y69.1 E1596.4 F560.4 ;horizontal move
G1 X29.6 Y57.6 E1612.6 F480.0 ;horizontal move
G1 Y57.8 E1612.8 ;horizontal move
G1 X29.3 Y59.2 E1614.3 F481.5 ;horizontal move
G1 X29.2 Y59.6 E1614.7 F552.2 ;horizontal move
G1 X39.5 Y69.9 E1629.2 F523.7 ;horizontal move
G1 X38.1 Y70.7 E1630.9 F481.0 ;horizontal move
G1 X38.0 Y70.8 E1631.0 F584.4 ;horizontal move
G1 X28.3 Y61.2 E1644.6 F528.1 ;horizontal move
G1 X28.2 Y61.5 E1645.0 F481.8 ;horizontal move
G1 X27.3 Y62.5 E1646.3 F591.6 ;horizontal move
G1 X36.6 Y71.9 E1659.5 F561.0 ;horizontal move
G1 X36.5 E1659.6 F481.1 ;horizontal move
G1 X35.4 Y73.0 E1661.2 F598.6 ;horizontal move
G1 X26.1 Y63.7 E1674.3 F594.3 ;horizontal move
G1 X24.9 Y65.0 E1676.1 F597.7 ;horizontal move
G1 X34.4 Y74.4 E1689.5 F575.2 ;horizontal move
G1 Y74.5 E1689.6 F481.3 ;horizontal move
G1 X33.8 Y75.6 E1690.8 F481.5 ;horizontal move
G1 X33.7 Y76.1 E1691.3 F480.0 ;horizontal move
G1 X33.6 E1691.4 ;horizontal move
G1 X23.8 Y66.3 E1705.3 ;horizontal move
G1 X22.8 Y67.6 E1706.9 F587.3 ;horizontal move
G1 X33.2 Y78.1 E1721.7 F527.6 ;horizontal move
G1 Y78.2 E1721.8 F482.1 ;horizontal move
G1 X33.3 Y79.6 E1723.2 F481.8 ;horizontal move
G1 X33.6 Y80.8 E1724.4 F480.0 ;horizontal move
G1 X21.8 Y69.0 E1741.1 ;horizontal move
G1 X20.8 Y70.4 E1742.9 F480.2 ;horizontal move
G1 X37.7 Y87.4 E1766.8 F480.0 ;horizontal move
G1 X36.1 Y87.9 E1768.5 ;horizontal move
G1 X35.9 E1768.7 F534.0 ;horizontal move
G1 X19.9 Y71.9 E1791.3 F528.4 ;horizontal move
G1 Y72.0 E1791.4 F488.5 ;horizontal move
G1 X19.5 Y74.0 E1793.5 F530.4 ;horizontal move
G1 X33.9 Y88.3 E1813.8 F480.0 ;horizontal move
G1 X33.8 E1813.9 ;horizontal move
G1 X32.3 Y88.5 E1815.4 ;horizontal move
G1 X31.6 Y88.4 E1816.1 F510.0 ;horizontal move
G1 X19.2 Y76.1 E1833.6 F480.0 ;horizontal move
G1 Y76.0 E1833.7 F426.0 ;horizontal move
G1 Y76.1 E1833.8 F480.0 ;horizontal move
G1 X18.8 Y78.1 E1835.8 ;horizontal move
G1 X28.7 Y88.0 E1849.8 ;horizontal move
G1 X28.8 E1849.9 F351.2 ;horizontal move
G1 X28.7 E1850.0 F480.0 ;horizontal move
G1 X28.4 E1850.3 ;horizontal move
G1 X26.6 Y87.3 E1852.2 F481.1 ;horizontal move
G1 X24.9 Y86.5 E1854.1 F481.2 ;horizontal move
G1 X24.6 Y86.2 E1854.5 F481.7 ;horizontal move
G1 X20.3 Y82.0 E1860.5 F600.0 ;horizontal move
G1 F1200.0; feed for start of next move
G1 E1827.2; extruder retraction
G1 F600.0; feed for start of next move
G1 X20.1 Y81.6 F1200.0 ;horizontal move
G1 X3.8 Y56.1 ;horizontal move
G1 X3.6 Y55.7 F600.0 ;horizontal move
G1 F1200.0; feed for start of next move
G1 E1877.2; extruder dwell
G1 F600.0; feed for start of next move
G1 F1200.0; feed for start of next move
G1 E1910.5; extruder dwell
G1 F600.0; feed for start of next move
G1 X5.9 Y57.9 E1913.7 F481.1 ;horizontal move
G1 X6.6 Y58.5 E1914.6 F481.3 ;horizontal move
G1 X8.2 Y59.3 E1916.4 F481.4 ;horizontal move
G1 X9.8 Y60.0 E1918.2 F481.5 ;horizontal move
G1 X10.4 Y60.1 E1918.8 F480.0 ;horizontal move
G1 X1.7 Y51.3 E1931.2 ;horizontal move
G1 X1.3 Y49.7 E1932.8 F480.1 ;horizontal move
G1 X1.0 Y48.3 E1934.2 F480.0 ;horizontal move
G1 Y48.2 E1934.3 F352.1 ;horizontal move
G1 Y48.3 E1934.4 F480.0 ;horizontal move
G1 X13.1 Y60.4 E1951.6 ;horizontal move
G1 X13.2 E1951.7 F481.4 ;horizontal move
G1 X14.9 Y60.2 E1953.4 F480.9 ;horizontal move
G1 X15.0 E1953.5 F480.0 ;horizontal move
G1 Y60.1 E1953.6 ;horizontal move
G1 X14.4 Y59.8 E1954.2 ;horizontal move
G1 X13.5 Y59.2 E1955.3 ;horizontal move
G1 X12.8 Y58.7 E1956.2 F482.7 ;horizontal move
G1 X12.3 Y58.0 E1957.0 F481.9 ;horizontal move
G1 X11.9 Y57.4 E1957.8 F483.4 ;horizontal move
G1 X11.6 Y56.7 E1958.5 F481.7 ;horizontal move
G1 Y56.4 E1958.8 F504.0 ;horizontal move
G1 X1.0 Y45.8 E1973.8 F515.1 ;horizontal move
G1 Y43.4 E1976.2 F480.0 ;horizontal move
G1 X11.6 Y54.1 E1991.3 ;horizontal move
G1 Y54.0 E1991.4 ;horizontal move
G1 X11.9 Y53.0 E1992.4 ;horizontal move
G1 X12.1 Y52.6 E1992.9 F480.7 ;horizontal move
G1 X12.3 Y52.3 E1993.2 F560.1 ;horizontal move
G1 X1.0 Y41.0 E2009.2 F515.1 ;horizontal move
G1 X0.9 Y38.6 E2011.6 F480.0 ;horizontal move
G1 X1.0 E2011.7 ;horizontal move
G1 X13.1 Y50.7 E2028.8 ;horizontal move
G1 X13.8 Y50.0 E2029.8 F482.0 ;horizontal move
G1 X14.3 Y49.6 E2030.4 F560.1 ;horizontal move
G1 X0.9 Y36.2 E2049.4 F515.1 ;horizontal move
G1 Y33.8 E2051.8 F480.0 ;horizontal move
G1 X1.0 E2051.9 ;horizontal move
G1 X16.1 Y48.9 E2073.3 ;horizontal move
G1 X16.6 Y48.7 E2073.8 F481.6 ;horizontal move
G1 X18.0 Y48.4 E2075.2 F480.0 ;horizontal move
G1 X0.9 Y31.4 E2099.3 ;horizontal move
G1 X1.0 E2099.4 F515.1 ;horizontal move
G1 X0.9 Y29.0 E2101.8 F480.0 ;horizontal move
G1 X1.0 E2101.9 ;horizontal move
G1 X20.3 Y48.3 E2129.2 ;horizontal move
G1 X20.8 E2129.7 F480.5 ;horizontal move
G1 X22.5 Y48.4 E2131.4 F481.2 ;horizontal move
G1 X22.8 E2131.7 F480.0 ;horizontal move
G1 X0.9 Y26.6 E2162.6 ;horizontal move
G1 Y24.2 E2165.0 ;horizontal move
G1 Y24.1 E2165.1 F387.9 ;horizontal move
G1 X1.0 Y24.2 E2165.3 F480.0 ;horizontal move
G1 X44.6 Y67.8 E2226.9 ;horizontal move
G1 X45.2 Y67.7 E2227.5 F485.8 ;horizontal move
G1 X45.9 Y67.9 E2228.3 F480.3 ;horizontal move
G1 X46.6 Y68.1 E2229.0 F481.8 ;horizontal move
G1 X47.1 Y68.3 E2229.5 F480.7 ;horizontal move
G1 X47.8 Y68.7 E2230.3 F481.4 ;horizontal move
G1 X48.3 Y69.1 E2231.0 F480.0 ;horizontal move
G1 X48.4 Y69.2 E2231.1 F301.2 ;horizontal move
G1 X48.3 Y69.1 E2231.3 F480.0 ;horizontal move
G1 X1.0 Y21.7 E2298.2 ;horizontal move
G1 X0.9 E2298.3 F600.0 ;horizontal move
G1 F1200.0; feed for start of next move
G1 E2265.0; extruder retraction
G1 F600.0; feed for start of next move
M106 ;cooler on
G1 X0.5 F1200.0 ;horizontal move
G1 X-249.5 ;horizontal move
G1 X-250.0 F600.0 ;horizontal move
G92 X0 ;set x 0
G1 Y21.3 F1200.0 ;horizontal move
G1 Y-249.5 ;horizontal move
G1 Y-250.0 F600.0 ;horizontal move
G92 Y0 ;set y 0
G92 E0 ;zero the extruded length
;#!LAYER: 6/12
M107 ;cooler off
G4 P20 ;delay
G1 F40.0; feed for start of next move
G1 Z4.5 F67.8 ;z move
G1 Z5.0 F40.0 ;z move
G1 F600.0; feed for start of next move
G1 X-0.3 Y-0.3 F1200.0 ;horizontal move
G1 X-2.7 Y-2.7 ;horizontal move
G1 X-3.0 Y-3.0 F600.0 ;horizontal move
G1 F1200.0; feed for start of next move
G1 E16.7; extruder dwell
G1 F600.0; feed for start of next move
G1 F1200.0; feed for start of next move
G1 E50.0; extruder dwell
G1 F600.0; feed for start of next move
G1 X-5.0 Y6.9 E60.1 F480.0 ;horizontal move
G1 Y7.0 E60.2 F305.8 ;horizontal move
G1 Y6.9 E60.3 F480.0 ;horizontal move
G1 Y-5.0 E72.2 ;horizontal move
G1 X17.0 E94.2 F600.0 ;horizontal move
G1 F1200.0; feed for start of next move
G1 E60.9; extruder retraction
G1 F600.0; feed for start of next move
G1 X17.1 Y-4.6 F1200.0 ;horizontal move
G1 X39.4 Y64.8 ;horizontal move
G1 X39.5 Y65.2 F600.0 ;horizontal move
G1 F1200.0; feed for start of next move
G1 E110.9; extruder dwell
G1 F600.0; feed for start of next move
G1 F1200.0; feed for start of next move
G1 E144.2; extruder dwell
G1 F600.0; feed for start of next move
G1 X39.2 Y65.5 E144.6 F1080.0 ;horizontal move
G1 X21.6 Y83.1 E169.5 ;horizontal move
G1 X21.3 Y83.3 E169.9 F648.9 ;horizontal move
G1 X21.5 Y83.6 E170.2 F1080.0 ;horizontal move
G1 X21.7 Y83.7 E170.5 ;horizontal move
G1 X21.9 Y84.0 E170.8 F631.7 ;horizontal move
G1 X21.6 Y84.2 E171.2 F1043.7 ;horizontal move
G1 X21.4 Y84.4 E171.5 F580.2 ;horizontal move
G1 X21.7 Y84.6 E171.8 F1080.0 ;horizontal move
G1 X22.9 Y85.8 E173.5 ;horizontal move
G1 X24.6 Y87.0 E175.6 ;horizontal move
G1 X26.4 Y87.9 E177.6 ;horizontal move
G1 X28.2 Y88.5 E179.5 ;horizontal move
G1 X30.2 Y88.9 E181.6 ;horizontal move
G1 X32.3 Y89.1 E183.7 ;horizontal move
G1 X34.2 Y88.9 E185.6 ;horizontal move
G1 X34.3 E185.7 ;horizontal move
G1 X36.2 Y88.5 E187.6 ;horizontal move
G1 X36.3 E187.7 F1077.0 ;horizontal move
G1 X38.3 Y87.8 E189.8 F1080.0 ;horizontal move
G1 X40.5 Y86.8 E192.2 ;horizontal move
G1 X42.9 Y85.5 E195.0 ;horizontal move
G1 X43.3 Y85.3 E195.4 F335.6 ;horizontal move
G1 X42.9 E195.8 F1060.4 ;horizontal move
G1 X40.7 Y85.2 E198.0 F1080.0 ;horizontal move
G1 X39.1 Y85.0 E199.6 ;horizontal move
G1 X37.9 Y84.7 E200.9 ;horizontal move
G1 X37.0 Y84.4 E201.8 ;horizontal move
G1 X36.9 E201.9 ;horizontal move
G1 X36.3 Y84.0 E202.6 ;horizontal move
G1 X35.6 Y83.4 E203.6 ;horizontal move
G1 X35.1 Y82.6 E204.5 ;horizontal move
G1 X34.6 Y81.7 E205.5 ;horizontal move
G1 X34.2 Y80.7 E206.6 ;horizontal move
G1 X33.9 Y79.5 E207.9 ;horizontal move
G1 X33.8 Y78.3 E209.1 ;horizontal move
G1 X33.9 Y78.0 E209.4 ;horizontal move
G1 X34.0 Y76.9 E210.5 ;horizontal move
G1 X34.4 Y75.8 E211.7 ;horizontal move
G1 X34.9 Y74.8 E212.8 ;horizontal move
G1 X35.8 Y73.5 E214.3 ;horizontal move
G1 X36.9 Y72.4 E215.9 ;horizontal move
G1 X38.5 Y71.2 E217.9 ;horizontal move
G1 X40.5 Y70.0 E220.2 ;horizontal move
G1 X42.5 Y69.0 E222.5 ;horizontal move
G1 X43.7 Y68.6 E223.7 ;horizontal move
G1 X44.4 Y68.4 E224.5 ;horizontal move
G1 X44.5 E224.6 ;horizontal move
G1 X45.1 Y68.3 E225.2 ;horizontal move
G1 X45.2 E225.3 F1056.7 ;horizontal move
G1 X45.8 Y68.4 E225.9 F1080.0 ;horizontal move
G1 X46.4 Y68.6 E226.5 ;horizontal move
G1 X46.8 Y68.8 E227.0 ;horizontal move
G1 X47.5 Y69.2 E227.8 ;horizontal move
G1 X48.0 Y69.6 E228.4 ;horizontal move
G1 X48.4 Y70.1 E229.0 ;horizontal move
G1 X48.7 Y70.6 E229.6 ;horizontal move
G1 X48.9 Y71.2 E230.3 ;horizontal move
G1 Y72.0 E231.1 ;horizontal move
G1 X49.0 Y73.0 E232.1 ;horizontal move
G1 X48.9 Y74.1 E233.2 ;horizontal move
G1 Y74.5 E233.6 F392.0 ;horizontal move
G1 X49.2 Y74.2 E234.0 F1080.0 ;horizontal move
G1 X50.2 Y73.4 E235.3 ;horizontal move
G1 X52.2 Y71.7 E237.9 ;horizontal move
G1 X53.8 Y70.0 E240.2 ;horizontal move
G1 X55.1 Y68.3 E242.4 ;horizontal move
G1 X56.2 Y66.4 E244.6 ;horizontal move
G1 X56.3 E244.7 ;horizontal move
G1 X57.2 Y64.3 E247.0 ;horizontal move
