; GCode generated by RepRap Java Host Software
; Created: 2010-02-26:12-56-42
G21 ;metric is good!
G90 ;absolute positioning
T0; select new extruder
M108 S0.6; set extruder PWM
G92 E0 ;zero the extruded length
G28; go home
G1 F600.0; feed for start of next move
G1 X0.3 Y0.3 F1200.0 ;horizontal move
G1 X4.7 Y4.7 ;horizontal move
G1 X5.0 Y5.0 F600.0 ;horizontal move
M109 S165.0 ;set temperature and wait
G1 F1200.0; feed for start of next move
G1 E200.0; extruder dwell
G1 F600.0; feed for start of next move
G28; go home
G92 E0 ;zero the extruded length
;#!LAYER: 1/12
M107 ;cooler off
G4 P20 ;delay
G1 F40.0; feed for start of next move
G1 Z-0.5 F67.8 ;z move
G1 Z0.0 F40.0 ;z move
G1 F600.0; feed for start of next move
G1 X-0.3 Y-0.3 F1200.0 ;horizontal move
G1 X-2.7 Y-2.7 ;horizontal move
G1 X-3.0 Y-3.0 F600.0 ;horizontal move
G1 F1200.0; feed for start of next move
G1 E10.0; extruder dwell
G1 F600.0; feed for start of next move
G1 X-5.0 Y6.9 E20.1 F480.0 ;horizontal move
G1 Y7.0 E20.2 F305.8 ;horizontal move
G1 Y6.9 E20.3 F480.0 ;horizontal move
G1 Y-5.0 E32.2 ;horizontal move
G1 X17.0 E54.2 F600.0 ;horizontal move
G1 F1200.0; feed for start of next move
G1 E44.2; extruder retraction
G1 F600.0; feed for start of next move
G1 X17.1 Y-4.6 F1200.0 ;horizontal move
G1 X38.7 Y85.6 ;horizontal move
G1 X38.8 Y86.0 F600.0 ;horizontal move
G1 F1200.0; feed for start of next move
G1 E54.2; extruder dwell
G1 F600.0; feed for start of next move
G1 X39.0 Y86.2 E54.5 F1080.0 ;horizontal move
G1 X39.2 Y86.5 E54.8 ;horizontal move
G1 X39.4 Y86.7 E55.1 F770.1 ;horizontal move
G1 X39.6 Y86.6 E55.3 F1080.0 ;horizontal move
G1 X40.4 Y86.2 E56.2 ;horizontal move
G1 X41.0 Y85.9 E56.9 ;horizontal move
G1 X42.9 Y85.4 E58.9 ;horizontal move
G1 X43.3 Y85.3 E59.3 F308.9 ;horizontal move
G1 X42.9 E59.7 F1080.0 ;horizontal move
G1 X42.8 E59.8 ;horizontal move
G1 X40.6 Y85.2 E62.0 ;horizontal move
G1 X39.0 Y85.0 E63.6 ;horizontal move
G1 X37.9 Y84.7 E64.7 ;horizontal move
G1 X37.0 Y84.4 E65.7 ;horizontal move
G1 X36.9 E65.8 F1062.1 ;horizontal move
G1 X36.2 Y83.9 E66.7 F1080.0 ;horizontal move
G1 X35.6 Y83.3 E67.5 ;horizontal move
G1 X35.1 Y82.6 E68.4 ;horizontal move
G1 X34.6 Y81.7 E69.4 ;horizontal move
G1 Y81.6 E69.5 ;horizontal move
G1 X34.2 Y80.6 E70.6 ;horizontal move
G1 X33.9 Y79.5 E71.7 ;horizontal move
G1 Y79.4 E71.8 F1074.0 ;horizontal move
G1 X33.8 Y78.3 E72.9 F1080.0 ;horizontal move
G1 X33.9 Y78.0 E73.2 ;horizontal move
G1 X34.0 Y76.9 E74.3 ;horizontal move
G1 Y76.8 E74.4 F1073.2 ;horizontal move
G1 X34.4 Y75.8 E75.5 F1080.0 ;horizontal move
G1 Y75.7 E75.6 ;horizontal move
G1 X34.9 Y74.7 E76.7 ;horizontal move
G1 X35.0 E76.8 F1074.9 ;horizontal move
G1 X35.9 Y73.5 E78.3 F1080.0 ;horizontal move
G1 Y73.4 E78.4 ;horizontal move
G1 X37.0 Y72.3 E80.0 ;horizontal move
G1 X38.6 Y71.1 E82.0 ;horizontal move
G1 X40.6 Y69.9 E84.3 ;horizontal move
G1 X42.6 Y69.0 E86.5 ;horizontal move
G1 X43.7 Y68.6 E87.7 ;horizontal move
G1 X44.5 Y68.4 E88.5 ;horizontal move
G1 X45.2 Y68.3 E89.2 ;horizontal move
G1 X45.8 Y68.4 E89.8 ;horizontal move
G1 X46.4 Y68.7 E90.5 ;horizontal move
G1 X46.9 Y68.8 E91.0 ;horizontal move
G1 X47.5 Y69.2 E91.7 ;horizontal move
G1 X48.0 Y69.6 E92.4 ;horizontal move
G1 X48.4 Y70.1 E93.0 ;horizontal move
G1 X48.7 Y70.6 E93.6 ;horizontal move
G1 X48.9 Y71.2 E94.2 ;horizontal move
G1 Y72.0 E95.0 ;horizontal move
G1 X49.0 Y73.1 E96.1 ;horizontal move
G1 X48.9 Y74.1 E97.1 ;horizontal move
G1 Y74.5 E97.5 F391.0 ;horizontal move
G1 X49.2 Y74.2 E98.0 F1080.0 ;horizontal move
G1 X50.3 Y73.3 E99.4 ;horizontal move
G1 X52.3 Y71.6 E102.0 ;horizontal move
G1 X53.9 Y69.9 E104.3 ;horizontal move
G1 X55.2 Y68.2 E106.5 ;horizontal move
G1 X56.3 Y66.3 E108.7 ;horizontal move
G1 X57.2 Y64.2 E111.0 ;horizontal move
G1 X58.0 Y61.8 E113.5 ;horizontal move
G1 X58.6 Y59.2 E116.2 ;horizontal move
G1 X59.0 Y56.6 E118.8 ;horizontal move
G1 X59.1 Y53.6 E121.8 ;horizontal move
G1 X58.9 Y50.8 E124.6 ;horizontal move
G1 X58.4 Y48.0 E127.4 ;horizontal move
G1 X57.7 Y45.2 E130.3 ;horizontal move
G1 X56.7 Y42.3 E133.4 ;horizontal move
G1 X55.4 Y39.7 E136.3 ;horizontal move
G1 Y39.6 E136.4 ;horizontal move
G1 X54.0 Y37.2 E139.2 ;horizontal move
G1 X52.4 Y35.0 E141.9 ;horizontal move
G1 X50.5 Y32.8 E144.8 ;horizontal move
G1 X48.2 Y30.6 E148.0 ;horizontal move
G1 X45.7 Y28.6 E151.2 ;horizontal move
G1 X43.4 Y27.0 E154.0 ;horizontal move
G1 X41.1 Y25.8 E156.6 ;horizontal move
G1 X39.0 Y24.8 E158.9 ;horizontal move
G1 X36.6 Y24.1 E161.4 ;horizontal move
G1 X34.0 Y23.5 E164.1 ;horizontal move
G1 X31.3 Y23.3 E166.8 ;horizontal move
G1 X27.8 E170.3 ;horizontal move
G1 X25.9 Y23.2 E172.2 ;horizontal move
G1 X25.8 E172.3 ;horizontal move
G1 X24.1 Y23.0 E174.0 ;horizontal move
G1 X22.3 Y22.4 E175.9 ;horizontal move
G1 X20.4 Y21.6 E178.0 ;horizontal move
G1 X18.7 Y20.5 E180.0 ;horizontal move
G1 X16.9 Y19.2 E182.2 ;horizontal move
G1 X15.0 Y17.5 E184.8 ;horizontal move
G1 X12.6 Y14.9 E188.3 ;horizontal move
G1 X0.6 Y1.3 E206.4 ;horizontal move
G1 X0.4 Y0.9 E206.9 F374.6 ;horizontal move
G1 Y1.4 E207.4 F1080.0 ;horizontal move
G1 Y48.0 E254.0 ;horizontal move
G1 X0.7 Y50.0 E256.0 ;horizontal move
G1 X1.2 Y52.1 E258.2 ;horizontal move
G1 X1.8 Y53.8 E260.0 ;horizontal move
G1 X2.6 Y55.2 E261.6 ;horizontal move
G1 X3.6 Y56.6 E263.3 ;horizontal move
G1 Y56.7 E263.4 F1074.1 ;horizontal move
G1 X4.8 Y57.9 E265.1 F1080.0 ;horizontal move
G1 X6.3 Y59.0 E267.0 ;horizontal move
G1 X7.9 Y59.9 E268.8 ;horizontal move
G1 X9.8 Y60.6 E270.8 ;horizontal move
G1 X11.5 Y60.9 E272.5 ;horizontal move
G1 X11.6 E272.6 ;horizontal move
G1 X13.3 Y61.0 E274.3 ;horizontal move
G1 X15.0 Y60.8 E276.1 ;horizontal move
G1 X16.3 Y60.5 E277.4 ;horizontal move
G1 X16.8 Y60.4 E277.9 F364.1 ;horizontal move
G1 X16.4 Y60.2 E278.3 F1080.0 ;horizontal move
G1 X14.7 Y59.3 E280.3 ;horizontal move
G1 X13.9 Y58.7 E281.3 ;horizontal move
G1 X13.2 Y58.2 E282.1 ;horizontal move
G1 X12.7 Y57.7 E282.8 ;horizontal move
G1 Y57.6 E282.9 ;horizontal move
G1 X12.4 Y57.1 E283.5 ;horizontal move
G1 X12.2 Y56.5 E284.2 ;horizontal move
G1 X12.1 Y55.8 E284.9 ;horizontal move
G1 Y55.1 E285.6 ;horizontal move
G1 X12.2 Y54.2 E286.5 ;horizontal move
G1 X12.4 Y53.2 E287.5 ;horizontal move
G1 X12.5 E287.6 ;horizontal move
G1 X12.7 Y52.8 E288.0 ;horizontal move
G1 X13.1 Y51.9 E289.0 ;horizontal move
G1 X13.6 Y51.1 E290.0 ;horizontal move
G1 X14.2 Y50.4 E290.9 ;horizontal move
G1 X14.9 Y49.9 E291.7 ;horizontal move
G1 X15.7 Y49.6 E292.6 ;horizontal move
G1 X16.7 Y49.3 E293.6 ;horizontal move
G1 X18.4 Y49.0 E295.4 ;horizontal move
G1 X20.9 Y48.9 E297.9 ;horizontal move
G1 X22.5 Y49.0 E299.5 ;horizontal move
G1 X23.8 Y49.2 E300.8 ;horizontal move
G1 X24.6 Y49.5 E301.6 ;horizontal move
G1 X25.5 Y50.0 E302.7 ;horizontal move
G1 X25.6 E302.8 F1073.8 ;horizontal move
G1 X26.4 Y50.7 E303.8 F1080.0 ;horizontal move
G1 X27.2 Y51.6 E305.0 ;horizontal move
G1 X27.3 E305.1 F1075.1 ;horizontal move
G1 X28.0 Y52.6 E306.4 F1080.0 ;horizontal move
G1 X28.6 Y53.9 E307.8 ;horizontal move
G1 X28.9 Y55.1 E309.0 ;horizontal move
G1 X29.1 Y56.4 E310.3 ;horizontal move
G1 X29.0 Y57.8 E311.7 ;horizontal move
G1 X28.7 Y59.1 E313.1 ;horizontal move
G1 X28.3 Y60.1 E314.2 ;horizontal move
G1 Y60.2 E314.3 ;horizontal move
G1 X27.7 Y61.1 E315.3 ;horizontal move
G1 X26.5 Y62.5 E317.2 ;horizontal move
G1 X24.3 Y64.8 E320.4 ;horizontal move
G1 X22.2 Y67.4 E323.7 ;horizontal move
G1 X20.3 Y70.2 E327.1 ;horizontal move
G1 X19.1 Y72.0 E329.3 ;horizontal move
G1 X18.4 Y73.6 E331.0 ;horizontal move
G1 X17.9 Y75.0 E332.5 ;horizontal move
G1 X17.7 Y76.1 E333.6 ;horizontal move
G1 Y77.1 E334.6 ;horizontal move
G1 X17.9 Y78.3 E335.8 ;horizontal move
G1 X18.4 Y79.7 E337.3 ;horizontal move
G1 Y79.8 E337.4 ;horizontal move
G1 X19.1 Y81.2 E339.0 ;horizontal move
G1 X20.1 Y82.8 E340.9 ;horizontal move
G1 X21.4 Y84.4 E342.9 ;horizontal move
G1 X22.9 Y85.8 E345.0 ;horizontal move
G1 X24.7 Y87.0 E347.1 ;horizontal move
G1 X26.4 Y87.9 E349.1 ;horizontal move
G1 X28.3 Y88.6 E351.1 ;horizontal move
G1 X30.3 Y88.9 E353.1 ;horizontal move
G1 X32.3 Y89.1 E355.1 ;horizontal move
G1 X34.3 Y88.9 E357.1 ;horizontal move
G1 X34.4 E357.2 ;horizontal move
G1 X36.3 Y88.5 E359.2 ;horizontal move
G1 X36.4 E359.3 ;horizontal move
G1 X38.4 Y87.8 E361.4 ;horizontal move
G1 X40.6 Y86.8 E363.8 ;horizontal move
G1 X42.9 Y85.5 E366.4 ;horizontal move
G1 X43.3 Y85.3 E366.9 F317.7 ;horizontal move
G1 X42.9 E367.3 F1080.0 ;horizontal move
G1 X39.1 Y86.0 E371.2 ;horizontal move
G1 F1200.0; feed for start of next move
G1 E361.2; extruder retraction
G1 F600.0; feed for start of next move
G1 X38.8 F1200.0 ;horizontal move
G1 E371.2; extruder dwell
G1 F600.0; feed for start of next move
G1 X38.1 Y85.4 E372.1 ;horizontal move
G1 F1200.0; feed for start of next move
G1 E362.1; extruder retraction
G1 F600.0; feed for start of next move
G1 X38.5 Y85.5 F1200.0 ;horizontal move
G1 X40.6 Y85.7 ;horizontal move
G1 X41.0 Y85.8 F600.0 ;horizontal move
G1 F1200.0; feed for start of next move
G1 E372.1; extruder dwell
G1 F600.0; feed for start of next move
G1 Y85.9 E372.2 ;horizontal move
G1 F1200.0; feed for start of next move
G1 E362.2; extruder retraction
G1 F600.0; feed for start of next move
G1 X41.3 Y85.5 F1200.0 ;horizontal move
G1 X49.5 Y73.4 ;horizontal move
G1 X49.8 Y73.0 F600.0 ;horizontal move
G1 F1200.0; feed for start of next move
G1 E372.2; extruder dwell
G1 F600.0; feed for start of next move
G1 X49.6 Y72.8 E372.5 F509.7 ;horizontal move
G1 X49.5 Y72.0 E373.3 F480.0 ;horizontal move
G1 Y71.1 E374.2 F484.6 ;horizontal move
G1 X49.2 Y70.4 E374.9 F482.5 ;horizontal move
G1 X48.9 Y69.7 E375.7 F481.4 ;horizontal move
G1 X48.6 Y69.5 E376.1 F480.0 ;horizontal move
G1 Y69.4 E376.2 F301.5 ;horizontal move
G1 X51.1 Y71.9 E379.7 F480.0 ;horizontal move
G1 X51.9 Y71.1 E380.8 F480.4 ;horizontal move
G1 X52.3 Y70.7 E381.4 F597.1 ;horizontal move
G1 X0.9 Y19.4 E454.0 F515.1 ;horizontal move
G1 Y17.0 E456.4 F480.0 ;horizontal move
G1 Y16.9 E456.5 F387.9 ;horizontal move
G1 X1.0 Y17.0 E456.6 F480.0 ;horizontal move
G1 X53.5 Y69.5 E530.9 ;horizontal move
G1 X54.5 Y68.1 E532.6 F584.2 ;horizontal move
G1 X0.9 Y14.5 E608.4 F515.1 ;horizontal move
G1 Y12.2 E610.7 F480.0 ;horizontal move
G1 Y12.1 E610.8 F387.9 ;horizontal move
G1 X1.0 Y12.2 E611.0 F480.0 ;horizontal move
G1 X55.4 Y66.6 E687.9 ;horizontal move
G1 X55.8 Y66.0 E688.6 F480.8 ;horizontal move
G1 X56.2 Y65.0 E689.7 F557.1 ;horizontal move
G1 X0.9 Y9.7 E767.9 F515.1 ;horizontal move
G1 Y7.4 E770.2 F480.0 ;horizontal move
G1 Y7.3 E770.3 F387.9 ;horizontal move
G1 X1.0 Y7.4 E770.4 F480.0 ;horizontal move
G1 X56.9 Y63.3 E849.5 ;horizontal move
G1 X57.4 Y61.7 E851.2 ;horizontal move
G1 X57.5 Y61.5 E851.4 F536.1 ;horizontal move
G1 X0.9 Y4.9 E931.4 F515.1 ;horizontal move
G1 Y2.6 E933.7 F480.0 ;horizontal move
G1 Y2.5 E933.8 F374.6 ;horizontal move
G1 X1.0 Y2.6 E934.0 F480.0 ;horizontal move
G1 X12.2 Y15.3 E950.9 ;horizontal move
G1 X14.6 Y17.9 E954.4 F480.3 ;horizontal move
G1 X16.5 Y19.6 E957.0 F480.5 ;horizontal move
G1 X18.3 Y21.0 E959.3 F480.8 ;horizontal move
G1 X20.2 Y22.1 E961.5 ;horizontal move
G1 X20.9 Y22.5 E962.3 F487.8 ;horizontal move
G1 X57.9 Y59.5 E1014.6 F480.0 ;horizontal move
G1 X58.0 Y59.1 E1015.0 ;horizontal move
G1 X58.3 Y57.4 E1016.7 F527.6 ;horizontal move
G1 X24.5 Y23.6 E1064.5 F480.0 ;horizontal move
G1 X24.4 E1064.6 F361.0 ;horizontal move
G1 X24.5 E1064.7 F480.0 ;horizontal move
G1 X25.8 Y23.8 E1066.1 ;horizontal move
G1 X27.1 E1067.4 F512.6 ;horizontal move
G1 X58.4 Y55.2 E1111.7 F480.0 ;horizontal move
G1 X58.5 Y53.6 E1113.3 ;horizontal move
G1 X58.4 Y52.8 E1114.1 F509.7 ;horizontal move
G1 X29.5 Y23.9 E1155.0 F480.0 ;horizontal move
G1 X29.6 E1155.1 ;horizontal move
G1 X31.2 E1156.7 ;horizontal move
G1 X32.0 Y24.0 E1157.5 F508.2 ;horizontal move
G1 X58.1 Y50.1 E1194.4 F480.0 ;horizontal move
G1 X58.2 E1194.5 F356.2 ;horizontal move
G1 X57.8 Y48.1 E1196.5 F480.0 ;horizontal move
G1 X57.6 Y47.1 E1197.6 F496.3 ;horizontal move
G1 X34.8 Y24.3 E1229.8 F480.0 ;horizontal move
G1 X36.4 Y24.6 E1231.4 ;horizontal move
G1 X38.0 Y25.1 E1233.1 F493.6 ;horizontal move
G1 X56.5 Y43.6 E1259.3 F480.0 ;horizontal move
G1 X56.1 Y42.6 E1260.3 ;horizontal move
G1 X54.9 Y39.9 E1263.3 F480.6 ;horizontal move
G1 X54.5 Y39.2 E1264.1 F483.9 ;horizontal move
G1 X42.4 Y27.2 E1281.1 F600.0 ;horizontal move
G1 F1200.0; feed for start of next move
G1 E1271.1; extruder retraction
G1 F600.0; feed for start of next move
G1 X42.2 Y27.6 F1200.0 ;horizontal move
G1 X29.7 Y54.7 ;horizontal move
G1 X29.5 Y55.1 F600.0 ;horizontal move
G1 F1200.0; feed for start of next move
G1 E1281.1; extruder dwell
G1 F600.0; feed for start of next move
G1 X42.7 Y68.3 E1299.8 F480.0 ;horizontal move
G1 X42.3 Y68.5 E1300.3 ;horizontal move
G1 X41.1 Y69.1 E1301.6 F559.6 ;horizontal move
G1 X29.6 Y57.6 E1317.9 F480.0 ;horizontal move
G1 Y57.9 E1318.2 ;horizontal move
G1 X29.3 Y59.3 E1319.6 F481.5 ;horizontal move
G1 X29.1 Y59.6 E1320.0 F553.1 ;horizontal move
G1 X39.5 Y69.9 E1334.6 F523.2 ;horizontal move
G1 X38.2 Y70.6 E1336.1 F480.8 ;horizontal move
G1 X38.0 Y70.8 E1336.4 F583.3 ;horizontal move
G1 X28.3 Y61.2 E1350.0 F528.2 ;horizontal move
G1 X28.2 Y61.5 E1350.3 F481.8 ;horizontal move
G1 X27.3 Y62.5 E1351.7 F591.9 ;horizontal move
G1 X36.6 Y71.9 E1364.9 F541.1 ;horizontal move
G1 X35.4 Y73.1 E1366.6 F600.0 ;horizontal move
G1 X26.1 Y63.7 E1379.8 F594.7 ;horizontal move
G1 X24.9 Y65.0 E1381.6 F597.9 ;horizontal move
G1 X34.4 Y74.5 E1395.0 F564.3 ;horizontal move
G1 X33.9 Y75.5 E1396.1 F481.5 ;horizontal move
G1 X33.7 Y76.1 E1396.8 F480.0 ;horizontal move
G1 X23.8 Y66.3 E1410.7 ;horizontal move
G1 X22.8 Y67.6 E1412.3 F587.3 ;horizontal move
G1 X33.3 Y78.1 E1427.2 F521.0 ;horizontal move
G1 X33.2 Y78.3 E1427.4 F480.9 ;horizontal move
G1 X33.3 Y79.5 E1428.6 F481.5 ;horizontal move
G1 X33.6 Y80.8 E1429.9 F481.6 ;horizontal move
G1 Y80.9 E1430.0 F324.9 ;horizontal move
G1 Y80.8 E1430.1 F480.0 ;horizontal move
G1 X21.8 Y69.0 E1446.8 ;horizontal move
G1 X20.8 Y70.4 E1448.5 F577.9 ;horizontal move
G1 X37.7 Y87.4 E1472.5 F480.0 ;horizontal move
G1 X36.2 Y87.9 E1474.1 ;horizontal move
G1 X35.9 E1474.4 F534.5 ;horizontal move
G1 X19.9 Y72.0 E1497.0 F526.8 ;horizontal move
G1 X19.7 Y72.3 E1497.3 F480.5 ;horizontal move
G1 X19.1 Y73.5 E1498.7 F560.7 ;horizontal move
G1 X33.8 Y88.3 E1519.5 F480.0 ;horizontal move
G1 X33.9 E1519.6 F407.5 ;horizontal move
G1 X33.8 E1519.7 F480.0 ;horizontal move
G1 X32.2 Y88.5 E1521.3 ;horizontal move
G1 X31.5 Y88.4 E1522.0 F510.1 ;horizontal move
G1 X18.5 Y75.4 E1540.4 F480.0 ;horizontal move
G1 Y75.3 E1540.5 F425.6 ;horizontal move
G1 Y75.4 E1540.6 F480.0 ;horizontal move
G1 X18.3 Y76.2 E1541.4 ;horizontal move
G1 Y77.1 E1542.3 F481.7 ;horizontal move
G1 X18.4 Y77.7 E1543.0 F502.9 ;horizontal move
G1 X28.7 Y88.0 E1557.5 F480.0 ;horizontal move
G1 X28.8 E1557.6 F352.0 ;horizontal move
G1 X28.7 E1557.7 F480.0 ;horizontal move
G1 X28.5 E1557.9 ;horizontal move
G1 X26.7 Y87.4 E1559.8 F481.1 ;horizontal move
G1 X25.0 Y86.5 E1561.7 F481.3 ;horizontal move
G1 X24.5 Y86.2 E1562.3 F481.8 ;horizontal move
G1 X20.3 Y82.0 E1568.3 F600.0 ;horizontal move
G1 F1200.0; feed for start of next move
G1 E1558.3; extruder retraction
G1 F600.0; feed for start of next move
G1 X20.1 Y81.6 F1200.0 ;horizontal move
G1 X3.9 Y56.1 ;horizontal move
G1 X3.7 Y55.7 F600.0 ;horizontal move
G1 F1200.0; feed for start of next move
G1 E1568.3; extruder dwell
G1 F600.0; feed for start of next move
G1 X5.8 Y57.9 E1571.3 F481.2 ;horizontal move
G1 X6.7 Y58.5 E1572.4 ;horizontal move
G1 X8.2 Y59.3 E1574.1 F481.4 ;horizontal move
G1 X9.9 Y60.0 E1575.9 ;horizontal move
G1 X10.4 Y60.1 E1576.4 F480.0 ;horizontal move
G1 Y60.0 E1576.5 ;horizontal move
G1 X1.7 Y51.3 E1588.8 ;horizontal move
G1 X1.3 Y49.8 E1590.4 F480.2 ;horizontal move
G1 X1.0 Y48.3 E1591.9 F480.0 ;horizontal move
G1 X13.1 Y60.4 E1609.0 ;horizontal move
G1 X13.3 E1609.2 F481.2 ;horizontal move
G1 X14.9 Y60.2 E1610.8 F480.9 ;horizontal move
G1 X15.0 E1610.9 F480.0 ;horizontal move
G1 X15.1 E1611.0 F376.1 ;horizontal move
G1 X15.0 Y60.1 E1611.2 F480.0 ;horizontal move
G1 X14.4 Y59.8 E1611.9 ;horizontal move
G1 X13.5 Y59.2 E1612.9 ;horizontal move
G1 X12.8 Y58.6 E1613.9 F484.1 ;horizontal move
G1 X12.2 Y58.0 E1614.7 F481.6 ;horizontal move
G1 X11.9 Y57.4 E1615.4 F481.9 ;horizontal move
G1 X11.6 Y56.6 E1616.2 F483.8 ;horizontal move
G1 Y56.4 E1616.4 F507.3 ;horizontal move
G1 X1.0 Y45.8 E1631.4 F515.1 ;horizontal move
G1 Y43.4 E1633.8 F480.0 ;horizontal move
G1 X11.6 Y54.1 E1648.9 ;horizontal move
G1 X11.9 Y53.0 E1650.0 ;horizontal move
G1 X12.1 Y52.6 E1650.5 F480.3 ;horizontal move
G1 X12.3 Y52.3 E1650.8 F560.6 ;horizontal move
G1 X1.0 Y41.0 E1666.8 F515.1 ;horizontal move
G1 X0.9 Y38.6 E1669.2 F480.0 ;horizontal move
G1 X1.0 E1669.3 ;horizontal move
G1 X13.1 Y50.7 E1686.4 ;horizontal move
G1 X13.8 Y50.0 E1687.4 F482.1 ;horizontal move
G1 X14.3 Y49.6 E1688.1 F556.7 ;horizontal move
G1 X0.9 Y36.2 E1707.0 F515.1 ;horizontal move
G1 Y33.8 E1709.4 F480.0 ;horizontal move
G1 X1.0 E1709.5 ;horizontal move
G1 X16.0 Y48.9 E1730.8 ;horizontal move
G1 X16.6 Y48.7 E1731.4 F481.6 ;horizontal move
G1 X18.0 Y48.4 E1732.9 F480.0 ;horizontal move
G1 X0.9 Y31.4 E1757.0 ;horizontal move
G1 Y29.0 E1759.4 ;horizontal move
G1 X1.0 E1759.5 ;horizontal move
G1 X20.3 Y48.3 E1786.8 ;horizontal move
G1 X20.9 E1787.4 F480.4 ;horizontal move
G1 X22.5 Y48.4 E1789.0 F481.4 ;horizontal move
G1 X22.8 E1789.3 F480.0 ;horizontal move
G1 X0.9 Y26.6 E1820.2 ;horizontal move
G1 X1.0 E1820.3 F515.1 ;horizontal move
G1 X0.9 Y24.2 E1822.7 F480.0 ;horizontal move
G1 X1.0 E1822.8 ;horizontal move
G1 X44.5 Y67.8 E1884.4 ;horizontal move
G1 X45.2 Y67.7 E1885.1 F481.9 ;horizontal move
G1 X46.0 Y67.8 E1885.9 F483.3 ;horizontal move
G1 X46.7 Y68.1 E1886.6 F480.0 ;horizontal move
G1 X47.1 Y68.3 E1887.1 F482.1 ;horizontal move
G1 X47.8 Y68.7 E1887.9 F480.6 ;horizontal move
G1 X48.2 Y69.0 E1888.4 F480.0 ;horizontal move
G1 Y69.1 E1888.5 F302.2 ;horizontal move
G1 Y69.0 E1888.6 F480.0 ;horizontal move
G1 X0.9 Y21.8 E1955.4 ;horizontal move
G1 F1200.0; feed for start of next move
G1 E1945.4; extruder retraction
G1 F600.0; feed for start of next move
M106 ;cooler on
G1 X0.5 F1200.0 ;horizontal move
G1 X-249.5 ;horizontal move
G1 X-250.0 F600.0 ;horizontal move
G92 X0 ;set x 0
G1 Y21.4 F1200.0 ;horizontal move
G1 Y-249.5 ;horizontal move
G1 Y-250.0 F600.0 ;horizontal move
G92 Y0 ;set y 0
G92 E0 ;zero the extruded length
;#!LAYER: 2/12
M107 ;cooler off
G4 P20 ;delay
G1 F40.0; feed for start of next move
G1 Z0.5 F67.8 ;z move
G1 Z1.0 F40.0 ;z move
G1 F600.0; feed for start of next move
G1 X-0.3 Y-0.3 F1200.0 ;horizontal move
G1 X-2.7 Y-2.7 ;horizontal move
G1 X-3.0 Y-3.0 F600.0 ;horizontal move
G1 F1200.0; feed for start of next move
G1 E6.7; extruder dwell
G1 F600.0; feed for start of next move
G1 X-5.0 Y6.9 E16.8 F480.0 ;horizontal move
G1 Y7.0 E16.9 F305.8 ;horizontal move
G1 Y6.9 E17.0 F480.0 ;horizontal move
G1 Y-5.0 E28.9 ;horizontal move
G1 X17.0 E50.9 F600.0 ;horizontal move
G1 F1200.0; feed for start of next move
G1 E44.2; extruder retraction
G1 F600.0; feed for start of next move
G1 X17.1 Y-4.6 F1200.0 ;horizontal move
G1 X39.4 Y64.8 ;horizontal move
G1 X39.5 Y65.2 F600.0 ;horizontal move
G1 F1200.0; feed for start of next move
G1 E50.9; extruder dwell
G1 F600.0; feed for start of next move
G1 X39.2 Y65.5 E51.3 F1080.0 ;horizontal move
G1 X21.6 Y83.1 E76.2 ;horizontal move
G1 X21.3 Y83.3 E76.5 F648.9 ;horizontal move
G1 X21.5 Y83.6 E76.9 F1080.0 ;horizontal move
G1 X21.7 Y83.7 E77.1 ;horizontal move
G1 X21.9 Y84.0 E77.5 F631.7 ;horizontal move
G1 X21.6 Y84.2 E77.8 F1043.7 ;horizontal move
G1 X21.4 Y84.4 E78.1 F580.2 ;horizontal move
G1 X21.7 Y84.6 E78.5 F1080.0 ;horizontal move
G1 X22.9 Y85.8 E80.2 ;horizontal move
G1 X24.6 Y87.0 E82.3 ;horizontal move
G1 X26.4 Y87.9 E84.3 ;horizontal move
G1 X28.2 Y88.5 E86.2 ;horizontal move
G1 X30.2 Y88.9 E88.2 ;horizontal move
G1 X32.3 Y89.1 E90.3 ;horizontal move
G1 X34.2 Y88.9 E92.2 ;horizontal move
G1 X34.3 E92.3 ;horizontal move
G1 X36.2 Y88.5 E94.3 ;horizontal move
G1 X36.3 E94.4 F1077.0 ;horizontal move
G1 X38.3 Y87.8 E96.5 F1080.0 ;horizontal move
G1 X40.5 Y86.8 E98.9 ;horizontal move
G1 X42.9 Y85.5 E101.6 ;horizontal move
G1 X43.3 Y85.3 E102.1 F335.6 ;horizontal move
G1 X42.9 E102.5 F1060.4 ;horizontal move
G1 X40.7 Y85.2 E104.7 F1080.0 ;horizontal move
G1 X39.1 Y85.0 E106.3 ;horizontal move
G1 X37.9 Y84.7 E107.5 ;horizontal move
G1 X37.0 Y84.4 E108.5 ;horizontal move
G1 X36.9 E108.6 ;horizontal move
G1 X36.3 Y84.0 E109.3 ;horizontal move
G1 X35.6 Y83.4 E110.2 ;horizontal move
G1 X35.1 Y82.6 E111.2 ;horizontal move
G1 X34.6 Y81.7 E112.2 ;horizontal move
G1 X34.2 Y80.7 E113.3 ;horizontal move
G1 X33.9 Y79.5 E114.5 ;horizontal move
G1 X33.8 Y78.3 E115.7 ;horizontal move
G1 X33.9 Y78.0 E116.0 ;horizontal move
G1 X34.0 Y76.9 E117.1 ;horizontal move
G1 X34.4 Y75.8 E118.3 ;horizontal move
G1 X34.9 Y74.8 E119.4 ;horizontal move
G1 X35.8 Y73.5 E121.0 ;horizontal move
G1 X36.9 Y72.4 E122.6 ;horizontal move
G1 X38.5 Y71.2 E124.6 ;horizontal move
G1 X40.5 Y70.0 E126.9 ;horizontal move
G1 X42.5 Y69.0 E129.1 ;horizontal move
G1 X43.7 Y68.6 E130.4 ;horizontal move
G1 X44.4 Y68.4 E131.1 ;horizontal move
G1 X44.5 E131.2 ;horizontal move
G1 X45.1 Y68.3 E131.8 ;horizontal move
G1 X45.2 E131.9 F1056.7 ;horizontal move
G1 X45.8 Y68.4 E132.6 F1080.0 ;horizontal move
G1 X46.4 Y68.6 E133.2 ;horizontal move
G1 X46.8 Y68.8 E133.6 ;horizontal move
G1 X47.5 Y69.2 E134.4 ;horizontal move
G1 X48.0 Y69.6 E135.1 ;horizontal move
G1 X48.4 Y70.1 E135.7 ;horizontal move
G1 X48.7 Y70.6 E136.3 ;horizontal move
G1 X48.9 Y71.2 E136.9 ;horizontal move
G1 Y72.0 E137.7 ;horizontal move
G1 X49.0 Y73.0 E138.7 ;horizontal move
G1 X48.9 Y74.1 E139.8 ;horizontal move
G1 Y74.5 E140.2 F392.0 ;horizontal move
G1 X49.2 Y74.2 E140.7 F1080.0 ;horizontal move
G1 X50.2 Y73.4 E141.9 ;horizontal move
G1 X52.2 Y71.7 E144.6 ;horizontal move
G1 X53.8 Y70.0 E146.9 ;horizontal move
G1 X55.1 Y68.3 E149.0 ;horizontal move
G1 X56.2 Y66.4 E151.2 ;horizontal move
G1 X56.3 E151.3 ;horizontal move
G1 X57.2 Y64.3 E153.6 ;horizontal move
G1 X58.0 Y62.0 E156.1 ;horizontal move
G1 X58.6 Y59.4 E158.7 ;horizontal move
G1 X59.0 Y56.6 E161.6 ;horizontal move
G1 X59.1 Y53.8 E164.4 ;horizontal move
G1 X58.9 Y50.9 E167.3 ;horizontal move
G1 X58.4 Y48.1 E170.1 ;horizontal move
G1 X57.7 Y45.3 E173.0 ;horizontal move
G1 X56.7 Y42.5 E176.0 ;horizontal move
G1 X55.4 Y39.7 E179.1 ;horizontal move
G1 Y39.6 E179.2 ;horizontal move
G1 X54.1 Y37.3 E181.8 ;horizontal move
G1 X52.4 Y35.0 E184.7 ;horizontal move
G1 X50.5 Y32.8 E187.6 ;horizontal move
G1 X48.3 Y30.7 E190.6 ;horizontal move
G1 X45.9 Y28.7 E193.7 ;horizontal move
G1 X45.8 E193.8 ;horizontal move
G1 X43.5 Y27.1 E196.6 ;horizontal move
G1 X41.3 Y25.8 E199.2 ;horizontal move
G1 X39.0 Y24.8 E201.7 ;horizontal move
G1 X36.6 Y24.1 E204.2 ;horizontal move
G1 X34.0 Y23.5 E206.9 ;horizontal move
G1 X31.4 Y23.3 E209.5 ;horizontal move
G1 X27.9 E213.0 ;horizontal move
G1 X25.9 Y23.2 E215.0 ;horizontal move
G1 X24.2 Y23.0 E216.7 ;horizontal move
G1 X24.1 E216.8 F1074.8 ;horizontal move
G1 X22.3 Y22.4 E218.7 F1080.0 ;horizontal move
G1 X20.5 Y21.7 E220.6 ;horizontal move
G1 X18.7 Y20.6 E222.7 ;horizontal move
G1 X17.0 Y19.3 E224.9 ;horizontal move
G1 X15.2 Y17.6 E227.3 ;horizontal move
G1 X12.7 Y15.0 E230.9 ;horizontal move
G1 X0.6 Y1.3 E249.2 ;horizontal move
G1 X0.4 Y0.9 E249.7 F374.5 ;horizontal move
G1 Y1.4 E250.2 F1080.0 ;horizontal move
G1 X0.3 Y48.0 E296.8 ;horizontal move
G1 X0.4 E296.9 ;horizontal move
G1 X0.7 Y49.8 E298.7 ;horizontal move
G1 X1.2 Y52.0 E301.0 ;horizontal move
G1 X1.8 Y53.7 E302.8 ;horizontal move
G1 X2.5 Y55.2 E304.4 ;horizontal move
G1 X3.5 Y56.6 E306.1 ;horizontal move
G1 X4.8 Y57.8 E307.9 ;horizontal move
G1 X6.3 Y59.0 E309.8 ;horizontal move
G1 X7.9 Y59.9 E311.7 ;horizontal move
G1 X9.7 Y60.5 E313.6 ;horizontal move
G1 X11.5 Y60.9 E315.4 ;horizontal move
G1 X13.2 Y61.0 E317.1 ;horizontal move
G1 X15.0 Y60.8 E318.9 ;horizontal move
G1 X16.3 Y60.5 E320.2 ;horizontal move
G1 X16.8 Y60.4 E320.8 F363.1 ;horizontal move
G1 X16.4 Y60.2 E321.2 F975.4 ;horizontal move
G1 X14.7 Y59.3 E323.1 F1080.0 ;horizontal move
G1 X13.9 Y58.7 E324.1 ;horizontal move
G1 X13.2 Y58.2 E325.0 ;horizontal move
G1 X12.8 Y57.7 E325.6 ;horizontal move
G1 X12.7 E325.7 F1072.4 ;horizontal move
G1 X12.4 Y57.2 E326.3 F1080.0 ;horizontal move
G1 Y57.1 E326.4 ;horizontal move
G1 X12.2 Y56.5 E327.0 ;horizontal move
G1 X12.1 Y55.9 E327.7 ;horizontal move
G1 Y55.2 E328.4 ;horizontal move
G1 Y55.1 E328.5 F1072.0 ;horizontal move
G1 X12.2 Y54.3 E329.3 F1080.0 ;horizontal move
G1 X12.4 Y53.3 E330.3 ;horizontal move
G1 Y53.2 E330.4 F1053.1 ;horizontal move
G1 X12.7 Y52.9 E330.8 F1080.0 ;horizontal move
G1 X13.1 Y51.9 E331.9 ;horizontal move
G1 X13.6 Y51.1 E332.8 ;horizontal move
G1 X14.2 Y50.4 E333.7 ;horizontal move
G1 X14.8 Y50.0 E334.5 ;horizontal move
G1 Y49.9 E334.6 F1058.7 ;horizontal move
G1 X15.7 Y49.6 E335.5 F1080.0 ;horizontal move
G1 X16.7 Y49.3 E336.6 ;horizontal move
G1 X18.4 Y49.0 E338.3 ;horizontal move
G1 X20.8 Y48.9 E340.7 ;horizontal move
G1 X22.5 Y49.0 E342.4 ;horizontal move
G1 X23.7 Y49.2 E343.6 ;horizontal move
G1 X24.5 Y49.5 E344.5 ;horizontal move
G1 X25.5 Y50.0 E345.6 ;horizontal move
G1 X26.4 Y50.7 E346.7 ;horizontal move
G1 X27.2 Y51.5 E347.9 ;horizontal move
G1 X28.0 Y52.6 E349.2 ;horizontal move
G1 X28.6 Y53.8 E350.6 ;horizontal move
G1 X28.9 Y55.1 E351.9 ;horizontal move
G1 X29.1 Y56.4 E353.2 ;horizontal move
G1 X29.0 Y57.7 E354.5 ;horizontal move
G1 X28.7 Y59.0 E355.8 ;horizontal move
G1 Y59.1 E355.9 F1073.9 ;horizontal move
G1 X28.3 Y60.1 E357.0 F1080.0 ;horizontal move
G1 X27.7 Y61.1 E358.2 ;horizontal move
G1 X26.6 Y62.4 E359.9 ;horizontal move
G1 X24.3 Y64.8 E363.2 ;horizontal move
G1 X22.2 Y67.4 E366.6 ;horizontal move
G1 X20.3 Y70.1 E369.9 ;horizontal move
G1 X19.2 Y71.9 E372.0 ;horizontal move
G1 X18.4 Y73.5 E373.8 ;horizontal move
G1 X17.9 Y75.0 E375.3 ;horizontal move
G1 X17.7 Y76.0 E376.4 ;horizontal move
G1 Y76.1 E376.5 F1073.5 ;horizontal move
G1 Y77.1 E377.5 F1080.0 ;horizontal move
G1 X17.9 Y78.3 E378.7 ;horizontal move
G1 Y78.4 E378.8 ;horizontal move
G1 X18.4 Y79.7 E380.2 ;horizontal move
G1 X19.1 Y81.2 E381.8 ;horizontal move
G1 X20.1 Y82.8 E383.7 ;horizontal move
G1 X21.2 Y84.1 E385.4 ;horizontal move
G1 X21.4 Y84.4 E385.8 F560.4 ;horizontal move
G1 X21.7 Y84.1 E386.2 F1080.0 ;horizontal move
G1 X39.2 Y65.5 E411.7 ;horizontal move
G1 F1200.0; feed for start of next move
G1 E405.1; extruder retraction
G1 F600.0; feed for start of next move
G1 X39.5 Y65.2 F1200.0 ;horizontal move
G1 E411.7; extruder dwell
G1 F600.0; feed for start of next move
G1 X57.6 Y47.1 E437.3 F538.9 ;horizontal move
G1 X57.2 Y45.5 E439.0 F480.5 ;horizontal move
G1 X57.1 Y45.2 E439.3 F480.0 ;horizontal move
G1 X20.3 Y82.0 E491.3 ;horizontal move
G1 X19.6 Y80.9 E492.6 F480.8 ;horizontal move
G1 X19.4 Y80.5 E493.1 F560.0 ;horizontal move
G1 X56.4 Y43.4 E545.5 F548.6 ;horizontal move
G1 X56.2 Y42.7 E546.2 F480.4 ;horizontal move
G1 X55.7 Y41.7 E547.3 F495.0 ;horizontal move
G1 X18.7 Y78.8 E599.7 F480.0 ;horizontal move
G1 X18.5 Y78.1 E600.5 ;horizontal move
G1 X18.3 Y77.0 E601.6 F481.4 ;horizontal move
G1 Y76.7 E601.9 F514.4 ;horizontal move
G1 X55.0 Y40.1 E653.7 F558.0 ;horizontal move
G1 X54.9 Y39.9 E653.9 F480.6 ;horizontal move
G1 X54.1 Y38.6 E655.5 F523.6 ;horizontal move
G1 X19.1 Y73.6 E705.0 F480.0 ;horizontal move
G1 X19.0 E705.1 F316.1 ;horizontal move
G1 X19.1 E705.2 F480.0 ;horizontal move
G1 X19.7 Y72.2 E706.7 ;horizontal move
G1 X20.8 Y70.4 E708.8 F480.2 ;horizontal move
G1 X22.7 Y67.7 E712.1 F480.4 ;horizontal move
G1 X23.2 Y67.1 E712.9 F480.7 ;horizontal move
G1 X53.2 Y37.1 E755.3 F580.0 ;horizontal move
G1 X52.2 Y35.7 E757.0 F550.0 ;horizontal move
G1 X29.5 Y58.4 E789.1 F480.0 ;horizontal move
G1 Y58.3 E789.2 ;horizontal move
G1 X29.6 Y57.8 E789.7 ;horizontal move
G1 X29.7 Y56.4 E791.1 F481.5 ;horizontal move
G1 X29.6 Y55.8 E791.7 F525.0 ;horizontal move
G1 X51.1 Y34.4 E822.1 F591.9 ;horizontal move
G1 X50.0 Y33.2 E823.7 F480.4 ;horizontal move
G1 X49.9 Y33.1 E823.8 F597.8 ;horizontal move
G1 X29.2 Y53.8 E853.1 F480.0 ;horizontal move
G1 Y53.9 E853.2 F455.5 ;horizontal move
G1 Y53.8 E853.3 F480.0 ;horizontal move
G1 X29.1 Y53.6 E853.5 ;horizontal move
G1 X28.5 Y52.3 E855.0 F481.8 ;horizontal move
G1 X28.4 Y52.2 E855.1 F579.5 ;horizontal move
G1 X48.7 Y31.9 E883.8 F594.4 ;horizontal move
G1 X47.9 Y31.1 E885.0 F480.4 ;horizontal move
G1 X47.5 Y30.8 E885.5 F587.4 ;horizontal move
G1 X27.4 Y50.8 E913.8 F596.3 ;horizontal move
G1 X26.8 Y50.2 E914.7 F481.4 ;horizontal move
G1 X26.1 Y49.7 E915.5 F558.7 ;horizontal move
G1 X46.1 Y29.7 E943.8 F568.5 ;horizontal move
G1 X45.5 Y29.2 E944.6 F480.4 ;horizontal move
G1 X44.8 Y28.7 E945.4 F578.2 ;horizontal move
G1 X24.6 Y48.9 E974.0 F548.0 ;horizontal move
G1 X23.9 Y48.6 E974.8 F481.3 ;horizontal move
G1 X22.6 Y48.4 E976.1 F480.0 ;horizontal move
G1 X43.3 Y27.7 E1005.4 ;horizontal move
G1 X43.2 Y27.6 E1005.5 F480.5 ;horizontal move
G1 X41.8 Y26.8 E1007.1 F567.4 ;horizontal move
G1 X20.3 Y48.3 E1037.5 F511.7 ;horizontal move
G1 X18.3 Y48.4 E1039.5 F480.9 ;horizontal move
G1 X17.8 Y48.5 E1040.0 F480.0 ;horizontal move
G1 X17.7 E1040.1 F355.7 ;horizontal move
G1 X40.2 Y26.0 E1072.0 F480.0 ;horizontal move
G1 X38.8 Y25.4 E1073.5 F480.7 ;horizontal move
G1 X38.5 Y25.3 E1073.8 F544.5 ;horizontal move
G1 X13.9 Y49.9 E1108.6 F600.0 ;horizontal move
G1 F1200.0; feed for start of next move
G1 E1101.9; extruder retraction
G1 F600.0; feed for start of next move
G1 Y50.4 F1200.0 ;horizontal move
G1 Y59.1 ;horizontal move
G1 Y59.5 F600.0 ;horizontal move
G1 F1200.0; feed for start of next move
G1 E1108.6; extruder dwell
G1 F600.0; feed for start of next move
G1 X13.1 Y60.4 E1109.8 F519.0 ;horizontal move
G1 X11.5 Y60.3 E1111.4 F481.4 ;horizontal move
G1 X10.9 Y60.2 E1112.0 F480.0 ;horizontal move
G1 X12.6 Y58.4 E1114.5 ;horizontal move
G1 X12.3 Y58.0 E1115.0 F481.9 ;horizontal move
G1 X11.9 Y57.4 E1115.7 F483.4 ;horizontal move
G1 X11.7 Y56.9 E1116.2 F480.0 ;horizontal move
G1 X9.0 Y59.6 E1120.1 ;horizontal move
G1 X8.2 Y59.3 E1120.9 F481.4 ;horizontal move
G1 X7.3 Y58.9 E1121.9 F517.0 ;horizontal move
G1 X11.5 Y54.7 E1127.8 F505.0 ;horizontal move
G1 X11.6 Y54.2 E1128.3 F480.5 ;horizontal move
G1 X11.9 Y53.0 E1129.6 F486.7 ;horizontal move
G1 X12.1 Y52.6 E1130.0 F480.7 ;horizontal move
G1 X12.6 Y51.7 E1131.1 F480.3 ;horizontal move
G1 X13.1 Y50.7 E1132.2 F483.0 ;horizontal move
G1 X13.3 Y50.5 E1132.5 F480.0 ;horizontal move
G1 X5.9 Y57.9 E1142.9 ;horizontal move
G1 X5.2 Y57.4 E1143.8 F481.2 ;horizontal move
G1 X4.6 Y56.8 E1144.6 F599.1 ;horizontal move
G1 X36.7 Y24.7 E1190.0 F480.0 ;horizontal move
G1 X36.4 Y24.6 E1190.3 ;horizontal move
G1 X34.7 Y24.3 E1192.1 F533.7 ;horizontal move
G1 X3.5 Y55.5 E1236.2 F550.7 ;horizontal move
G1 X3.0 Y54.9 E1237.0 F481.5 ;horizontal move
G1 X2.6 Y54.0 E1238.0 F562.1 ;horizontal move
G1 X32.6 Y24.0 E1280.4 F480.0 ;horizontal move
G1 X31.4 Y23.9 E1281.6 ;horizontal move
G1 X30.3 E1282.7 F516.1 ;horizontal move
G1 X1.9 Y52.3 E1322.9 F480.0 ;horizontal move
G1 X1.8 Y51.8 E1323.4 ;horizontal move
G1 X1.4 Y50.4 E1324.8 F536.9 ;horizontal move
G1 X27.9 Y23.9 E1362.3 F480.0 ;horizontal move
G1 X25.9 Y23.8 E1364.3 ;horizontal move
G1 X25.6 E1364.6 F526.9 ;horizontal move
G1 X1.0 Y48.3 E1399.3 F480.0 ;horizontal move
G1 Y48.4 E1399.4 F431.0 ;horizontal move
G1 Y48.3 E1399.5 F480.0 ;horizontal move
G1 X0.9 Y48.0 E1399.8 ;horizontal move
G1 X1.0 Y46.0 E1401.8 F515.1 ;horizontal move
G1 X23.5 Y23.4 E1433.7 F480.0 ;horizontal move
G1 X23.6 E1433.8 F454.3 ;horizontal move
G1 X23.5 E1433.9 F480.0 ;horizontal move
G1 X22.1 Y23.0 E1435.4 ;horizontal move
G1 X21.7 Y22.9 E1435.8 F556.7 ;horizontal move
G1 X1.0 Y43.6 E1465.1 F480.0 ;horizontal move
G1 X0.9 Y41.2 E1467.5 ;horizontal move
G1 X20.1 Y22.1 E1494.6 F526.7 ;horizontal move
G1 X18.6 Y21.2 E1496.3 F570.7 ;horizontal move
G1 X1.0 Y38.8 E1521.2 F480.0 ;horizontal move
G1 X0.9 E1521.3 F387.9 ;horizontal move
G1 Y36.4 E1523.7 F480.0 ;horizontal move
G1 X17.2 Y20.2 E1546.7 F558.4 ;horizontal move
G1 X16.6 Y19.7 E1547.5 F480.5 ;horizontal move
G1 X15.9 Y19.1 E1548.4 F594.8 ;horizontal move
G1 X1.0 Y34.0 E1569.4 F480.0 ;horizontal move
G1 X0.9 E1569.5 F387.9 ;horizontal move
G1 Y31.6 E1571.9 F480.0 ;horizontal move
G1 X14.6 Y17.9 E1591.3 F596.5 ;horizontal move
G1 X13.5 Y16.7 E1593.0 F591.2 ;horizontal move
G1 X1.0 Y29.2 E1610.6 F480.0 ;horizontal move
G1 X0.9 E1610.7 F387.9 ;horizontal move
G1 Y26.8 E1613.1 F480.0 ;horizontal move
G1 X12.3 Y15.4 E1629.3 F596.5 ;horizontal move
G1 X12.2 E1629.4 F480.1 ;horizontal move
G1 X11.2 Y14.2 E1630.9 F580.5 ;horizontal move
G1 X1.0 Y24.4 E1645.3 F480.0 ;horizontal move
G1 X0.9 E1645.4 F387.9 ;horizontal move
G1 X1.0 Y22.0 E1647.8 F480.0 ;horizontal move
G1 X10.0 Y12.9 E1660.6 F592.2 ;horizontal move
G1 X8.9 Y11.6 E1662.3 F580.5 ;horizontal move
G1 X1.0 Y19.6 E1673.6 F480.0 ;horizontal move
G1 Y19.5 E1673.7 ;horizontal move
G1 X0.9 Y17.2 E1676.0 ;horizontal move
G1 X7.8 Y10.3 E1685.7 F592.2 ;horizontal move
G1 X6.7 Y9.0 E1687.4 F580.5 ;horizontal move
G1 X1.0 Y14.8 E1695.6 F480.0 ;horizontal move
G1 X0.9 E1695.7 F387.9 ;horizontal move
G1 Y14.7 E1695.8 F480.0 ;horizontal move
G1 Y12.4 E1698.1 ;horizontal move
G1 X5.6 Y7.8 E1704.7 F592.2 ;horizontal move
G1 X4.4 Y6.5 E1706.4 F580.5 ;horizontal move
G1 X1.0 Y9.9 E1711.2 F480.0 ;horizontal move
G1 X0.9 Y10.0 E1711.4 F387.9 ;horizontal move
G1 Y9.9 E1711.5 F480.0 ;horizontal move
G1 Y7.6 E1713.8 ;horizontal move
G1 X3.3 Y5.2 E1717.2 F592.2 ;horizontal move
G1 X2.2 Y3.9 E1718.9 F580.5 ;horizontal move
G1 X1.0 Y5.1 E1720.6 F480.0 ;horizontal move
G1 X0.9 Y5.2 E1720.7 F387.9 ;horizontal move
G1 Y5.1 E1720.8 F480.0 ;horizontal move
G1 X1.0 Y2.8 E1723.1 ;horizontal move
G1 X1.1 Y2.6 E1723.3 F600.0 ;horizontal move
G1 F1200.0; feed for start of next move
G1 E1716.7; extruder retraction
G1 F600.0; feed for start of next move
G1 X1.3 Y3.0 F1200.0 ;horizontal move
G1 X33.6 Y75.3 ;horizontal move
G1 X33.8 Y75.7 F600.0 ;horizontal move
G1 F1200.0; feed for start of next move
G1 E1723.3; extruder dwell
G1 F600.0; feed for start of next move
G1 X23.8 Y85.7 E1737.5 F549.0 ;horizontal move
G1 X24.9 Y86.5 E1738.8 F481.2 ;horizontal move
G1 X25.2 Y86.6 E1739.2 F563.1 ;horizontal move
G1 X33.2 Y78.7 E1750.4 F480.0 ;horizontal move
G1 X33.3 Y78.6 E1750.5 F399.4 ;horizontal move
G1 Y78.7 E1750.6 F480.0 ;horizontal move
G1 Y79.6 E1751.5 ;horizontal move
G1 X33.6 Y80.7 E1752.7 F535.9 ;horizontal move
G1 X26.9 Y87.4 E1762.2 F480.0 ;horizontal move
G1 X28.4 Y88.0 E1763.8 ;horizontal move
G1 X28.7 E1764.1 F533.0 ;horizontal move
G1 X34.3 Y82.4 E1772.0 F524.9 ;horizontal move
G1 X34.6 Y83.0 E1772.7 F480.1 ;horizontal move
G1 X35.2 Y83.8 E1773.7 F484.4 ;horizontal move
G1 Y83.9 E1773.8 F580.7 ;horizontal move
G1 X30.8 Y88.3 E1780.0 F480.0 ;horizontal move
G1 X30.7 Y88.4 E1780.1 F401.6 ;horizontal move
G1 X30.8 E1780.2 F480.0 ;horizontal move
G1 X32.3 Y88.5 E1781.7 ;horizontal move
G1 X33.1 Y88.4 E1782.5 F508.4 ;horizontal move
G1 X36.6 Y84.9 E1787.5 F575.9 ;horizontal move
G1 X36.7 Y85.0 E1787.6 F485.3 ;horizontal move
G1 X37.7 Y85.3 E1788.7 F480.1 ;horizontal move
G1 X38.4 Y85.4 E1789.4 F480.0 ;horizontal move
G1 X38.5 Y85.5 E1789.5 F447.2 ;horizontal move
G1 X36.0 Y87.9 E1793.0 F480.0 ;horizontal move
G1 X36.1 E1793.1 ;horizontal move
G1 X38.1 Y87.2 E1795.2 F480.6 ;horizontal move
G1 X39.8 Y86.5 E1797.0 F488.0 ;horizontal move
G1 X40.5 Y85.8 E1798.0 F600.0 ;horizontal move
G1 F1200.0; feed for start of next move
G1 E1791.4; extruder retraction
G1 F600.0; feed for start of next move
G1 X40.1 F1200.0 ;horizontal move
G1 X22.3 Y84.0 ;horizontal move
G1 X21.9 F600.0 ;horizontal move
G1 F1200.0; feed for start of next move
G1 E1798.0; extruder dwell
G1 F600.0; feed for start of next move
G1 X22.5 Y84.6 E1798.9 F596.4 ;horizontal move
G1 X58.0 Y49.1 E1849.1 F480.0 ;horizontal move
G1 X58.3 Y51.0 E1851.0 ;horizontal move
G1 Y51.2 E1851.2 F520.6 ;horizontal move
G1 X39.7 Y69.8 E1877.5 F480.0 ;horizontal move
G1 X40.3 Y69.5 E1878.2 ;horizontal move
G1 X42.3 Y68.5 E1880.4 F480.7 ;horizontal move
G1 X43.5 Y68.1 E1881.7 F480.1 ;horizontal move
G1 X44.0 Y67.9 E1882.2 F493.9 ;horizontal move
G1 X58.4 Y53.5 E1902.6 F480.0 ;horizontal move
G1 X58.5 Y53.4 E1902.7 F401.6 ;horizontal move
G1 Y53.5 E1902.8 F480.0 ;horizontal move
G1 Y53.8 E1903.1 ;horizontal move
G1 X58.4 Y55.9 E1905.2 F512.3 ;horizontal move
G1 X46.3 Y68.0 E1922.3 F480.0 ;horizontal move
G1 X46.6 Y68.1 E1922.7 ;horizontal move
G1 X47.1 Y68.3 E1923.2 F480.7 ;horizontal move
G1 X47.8 Y68.7 E1924.0 F481.4 ;horizontal move
G1 X47.9 Y68.8 E1924.1 F589.4 ;horizontal move
G1 X58.1 Y58.6 E1938.6 F480.0 ;horizontal move
G1 X58.0 Y59.3 E1939.3 ;horizontal move
G1 X57.5 Y61.7 E1941.7 F498.1 ;horizontal move
G1 X49.1 Y70.0 E1953.5 F572.9 ;horizontal move
G1 X49.2 Y70.3 E1953.9 F484.4 ;horizontal move
G1 X49.5 Y71.1 E1954.7 F482.4 ;horizontal move
G1 Y71.9 E1955.5 F480.0 ;horizontal move
G1 Y72.0 E1955.6 F402.9 ;horizontal move
G1 X49.6 Y71.9 E1955.7 F480.0 ;horizontal move
G1 X56.0 Y65.5 E1964.8 ;horizontal move
G1 F1200.0; feed for start of next move
G1 E1958.1; extruder retraction
G1 F600.0; feed for start of next move
M106 ;cooler on
G1 X55.6 F1200.0 ;horizontal move
G1 X-249.5 ;horizontal move
G1 X-250.0 F600.0 ;horizontal move
G92 X0 ;set x 0
G1 Y65.1 F1200.0 ;horizontal move
G1 Y-249.5 ;horizontal move
G1 Y-250.0 F600.0 ;horizontal move
G92 Y0 ;set y 0
G92 E0 ;zero the extruded length
;#!LAYER: 3/12
M107 ;cooler off
G4 P20 ;delay
G1 F40.0; feed for start of next move
G1 Z1.5 F67.8 ;z move
G1 Z2.0 F40.0 ;z move
G1 F600.0; feed for start of next move
G1 X-0.3 Y-0.3 F1200.0 ;horizontal move
G1 X-2.7 Y-2.7 ;horizontal move
G1 X-3.0 Y-3.0 F600.0 ;horizontal move
G1 F1200.0; feed for start of next move
G1 E6.7; extruder dwell
G1 F600.0; feed for start of next move
G1 X-5.0 Y6.9 E16.8 F480.0 ;horizontal move
G1 Y7.0 E16.9 F305.8 ;horizontal move
G1 Y6.9 E17.0 F480.0 ;horizontal move
G1 Y-5.0 E28.9 ;horizontal move
G1 X17.0 E50.9 F600.0 ;horizontal move
G1 F1200.0; feed for start of next move
G1 E44.2; extruder retraction
G1 F600.0; feed for start of next move
G1 X16.7 Y-4.6 F1200.0 ;horizontal move
G1 X6.9 Y8.5 ;horizontal move
G1 X6.6 Y8.9 F600.0 ;horizontal move
G1 F1200.0; feed for start of next move
G1 E50.9; extruder dwell
G1 F600.0; feed for start of next move
G1 X6.4 Y8.7 E51.1 F1080.0 ;horizontal move
G1 X0.6 Y1.3 E60.6 ;horizontal move
G1 X0.4 Y0.9 E61.0 F363.2 ;horizontal move
G1 Y1.4 E61.5 F1080.0 ;horizontal move
G1 X0.3 Y48.0 E108.1 ;horizontal move
G1 X0.4 E108.2 ;horizontal move
G1 X0.7 Y49.8 E110.0 ;horizontal move
G1 X1.2 Y52.0 E112.3 ;horizontal move
G1 X1.8 Y53.7 E114.1 ;horizontal move
G1 X2.5 Y55.2 E115.7 ;horizontal move
G1 X3.5 Y56.6 E117.5 ;horizontal move
G1 X4.8 Y57.8 E119.2 ;horizontal move
G1 X6.3 Y59.0 E121.1 ;horizontal move
G1 X7.9 Y59.9 E123.0 ;horizontal move
G1 X9.7 Y60.5 E124.9 ;horizontal move
G1 X11.5 Y60.9 E126.7 ;horizontal move
G1 X13.2 Y61.0 E128.4 ;horizontal move
G1 X15.0 Y60.8 E130.2 ;horizontal move
G1 X16.3 Y60.5 E131.6 ;horizontal move
G1 X16.8 Y60.4 E132.1 F363.1 ;horizontal move
G1 X16.4 Y60.2 E132.5 F975.4 ;horizontal move
G1 X14.7 Y59.3 E134.5 F1080.0 ;horizontal move
G1 X13.9 Y58.7 E135.5 ;horizontal move
G1 X13.2 Y58.2 E136.3 ;horizontal move
G1 X12.8 Y57.7 E137.0 ;horizontal move
G1 X12.7 E137.1 F1072.4 ;horizontal move
G1 X12.4 Y57.2 E137.6 F1080.0 ;horizontal move
G1 Y57.1 E137.7 ;horizontal move
G1 X12.2 Y56.5 E138.4 ;horizontal move
G1 X12.1 Y55.9 E139.0 ;horizontal move
G1 Y55.2 E139.7 ;horizontal move
G1 Y55.1 E139.8 F1072.0 ;horizontal move
G1 X12.2 Y54.3 E140.6 F1080.0 ;horizontal move
G1 X12.4 Y53.3 E141.6 ;horizontal move
G1 Y53.2 E141.7 F1053.1 ;horizontal move
G1 X12.7 Y52.9 E142.1 F1080.0 ;horizontal move
G1 X13.1 Y51.9 E143.2 ;horizontal move
G1 X13.6 Y51.1 E144.1 ;horizontal move
G1 X14.2 Y50.4 E145.1 ;horizontal move
G1 X14.8 Y50.0 E145.8 ;horizontal move
G1 Y49.9 E145.9 F1058.7 ;horizontal move
G1 X15.7 Y49.6 E146.8 F1080.0 ;horizontal move
G1 X16.7 Y49.3 E147.9 ;horizontal move
G1 X18.4 Y49.0 E149.6 ;horizontal move
G1 X20.8 Y48.9 E152.0 ;horizontal move
G1 X22.5 Y49.0 E153.7 ;horizontal move
G1 X23.7 Y49.2 E154.9 ;horizontal move
G1 X24.5 Y49.5 E155.8 ;horizontal move
G1 X25.5 Y50.0 E156.9 ;horizontal move
G1 X26.4 Y50.7 E158.0 ;horizontal move
G1 X27.2 Y51.5 E159.2 ;horizontal move
G1 X28.0 Y52.6 E160.5 ;horizontal move
G1 X28.6 Y53.8 E161.9 ;horizontal move
G1 X28.9 Y55.1 E163.2 ;horizontal move
G1 X29.1 Y56.4 E164.5 ;horizontal move
G1 X29.0 Y57.7 E165.8 ;horizontal move
G1 X28.7 Y59.0 E167.2 ;horizontal move
G1 Y59.1 E167.3 F1073.9 ;horizontal move
G1 X28.3 Y60.1 E168.3 F1080.0 ;horizontal move
G1 X27.7 Y61.1 E169.5 ;horizontal move
G1 X26.6 Y62.4 E171.2 ;horizontal move
G1 X24.3 Y64.8 E174.5 ;horizontal move
G1 X22.2 Y67.4 E177.9 ;horizontal move
G1 X20.3 Y70.1 E181.2 ;horizontal move
G1 X19.2 Y71.9 E183.3 ;horizontal move
G1 X18.4 Y73.5 E185.1 ;horizontal move
G1 X17.9 Y75.0 E186.7 ;horizontal move
G1 X17.7 Y76.0 E187.7 ;horizontal move
G1 Y76.1 E187.8 F1073.5 ;horizontal move
G1 Y77.1 E188.8 F1080.0 ;horizontal move
G1 X17.9 Y78.4 E190.1 ;horizontal move
G1 X18.0 Y78.5 E190.2 ;horizontal move
G1 X18.4 Y79.7 E191.5 ;horizontal move
G1 X19.1 Y81.2 E193.2 ;horizontal move
G1 X20.1 Y82.8 E195.0 ;horizontal move
G1 X21.4 Y84.4 E197.1 ;horizontal move
G1 X22.9 Y85.8 E199.2 ;horizontal move
G1 X24.6 Y87.0 E201.2 ;horizontal move
G1 X26.4 Y87.9 E203.3 ;horizontal move
G1 X28.2 Y88.5 E205.1 ;horizontal move
G1 X30.2 Y88.9 E207.2 ;horizontal move
G1 X32.3 Y89.1 E209.3 ;horizontal move
G1 X34.2 Y88.9 E211.2 ;horizontal move
G1 X34.3 E211.3 ;horizontal move
G1 X36.2 Y88.5 E213.2 ;horizontal move
G1 X36.3 E213.3 F1077.0 ;horizontal move
G1 X38.3 Y87.8 E215.5 F1080.0 ;horizontal move
G1 X40.5 Y86.8 E217.9 ;horizontal move
G1 X42.9 Y85.5 E220.6 ;horizontal move
G1 X43.3 Y85.3 E221.1 F335.6 ;horizontal move
G1 X42.9 E221.5 F1060.4 ;horizontal move
G1 X40.7 Y85.2 E223.7 F1080.0 ;horizontal move
G1 X39.1 Y85.0 E225.3 ;horizontal move
G1 X37.9 Y84.7 E226.5 ;horizontal move
G1 X37.0 Y84.4 E227.5 ;horizontal move
G1 X36.9 E227.6 ;horizontal move
G1 X36.3 Y84.0 E228.3 ;horizontal move
G1 X35.6 Y83.4 E229.2 ;horizontal move
G1 X35.1 Y82.6 E230.1 ;horizontal move
G1 X34.6 Y81.7 E231.2 ;horizontal move
G1 X34.2 Y80.7 E232.3 ;horizontal move
G1 X33.9 Y79.5 E233.5 ;horizontal move
G1 X33.8 Y78.3 E234.7 ;horizontal move
G1 X33.9 Y78.0 E235.0 ;horizontal move
G1 X34.0 Y76.9 E236.1 ;horizontal move
G1 X34.4 Y75.8 E237.3 ;horizontal move
G1 X34.9 Y74.8 E238.4 ;horizontal move
G1 X35.8 Y73.5 E240.0 ;horizontal move
G1 X36.9 Y72.4 E241.5 ;horizontal move
G1 X38.5 Y71.2 E243.5 ;horizontal move
G1 X40.5 Y70.0 E245.9 ;horizontal move
G1 X42.5 Y69.0 E248.1 ;horizontal move
G1 X43.7 Y68.6 E249.4 ;horizontal move
G1 X44.4 Y68.4 E250.1 ;horizontal move
G1 X44.5 E250.2 ;horizontal move
G1 X45.1 Y68.3 E250.8 ;horizontal move
G1 X45.2 E250.9 F1056.7 ;horizontal move
G1 X45.8 Y68.4 E251.5 F1080.0 ;horizontal move
G1 X46.4 Y68.6 E252.2 ;horizontal move
G1 X46.8 Y68.8 E252.6 ;horizontal move
G1 X47.5 Y69.2 E253.4 ;horizontal move
G1 X48.0 Y69.6 E254.0 ;horizontal move
G1 X48.4 Y70.1 E254.7 ;horizontal move
G1 X48.7 Y70.6 E255.3 ;horizontal move
G1 X48.9 Y71.2 E255.9 ;horizontal move
G1 Y72.0 E256.7 ;horizontal move
G1 X49.0 Y73.0 E257.7 ;horizontal move
G1 X48.9 Y74.1 E258.8 ;horizontal move
G1 Y74.5 E259.2 F392.0 ;horizontal move
G1 X49.2 Y74.2 E259.6 F1080.0 ;horizontal move
G1 X50.2 Y73.4 E260.9 ;horizontal move
G1 X52.2 Y71.7 E263.5 ;horizontal move
G1 X53.8 Y70.0 E265.9 ;horizontal move
G1 X55.1 Y68.3 E268.0 ;horizontal move
G1 X56.2 Y66.4 E270.2 ;horizontal move
G1 X56.3 E270.3 ;horizontal move
G1 X57.2 Y64.3 E272.6 ;horizontal move
G1 X58.0 Y62.0 E275.0 ;horizontal move
G1 X58.6 Y59.4 E277.7 ;horizontal move
G1 X59.0 Y56.6 E280.5 ;horizontal move
G1 X59.1 Y53.8 E283.3 ;horizontal move
G1 X58.9 Y50.9 E286.2 ;horizontal move
G1 X58.4 Y48.1 E289.1 ;horizontal move
G1 X57.7 Y45.3 E292.0 ;horizontal move
G1 X56.7 Y42.5 E294.9 ;horizontal move
G1 X55.4 Y39.7 E298.0 ;horizontal move
G1 Y39.6 E298.1 ;horizontal move
G1 X54.1 Y37.3 E300.8 ;horizontal move
G1 X52.4 Y35.0 E303.6 ;horizontal move
G1 X50.5 Y32.8 E306.5 ;horizontal move
G1 X48.3 Y30.7 E309.6 ;horizontal move
G1 X45.9 Y28.7 E312.7 ;horizontal move
G1 X45.8 E312.8 ;horizontal move
G1 X43.5 Y27.1 E315.6 ;horizontal move
G1 X41.3 Y25.8 E318.2 ;horizontal move
G1 X39.0 Y24.8 E320.7 ;horizontal move
G1 X36.6 Y24.1 E323.2 ;horizontal move
G1 X34.0 Y23.5 E325.8 ;horizontal move
G1 X31.4 Y23.3 E328.4 ;horizontal move
G1 X27.9 E331.9 ;horizontal move
G1 X25.9 Y23.2 E333.9 ;horizontal move
G1 X24.2 Y23.0 E335.7 ;horizontal move
G1 X24.1 E335.8 F1074.8 ;horizontal move
G1 X22.3 Y22.4 E337.7 F1080.0 ;horizontal move
G1 X20.5 Y21.7 E339.6 ;horizontal move
G1 X18.7 Y20.6 E341.7 ;horizontal move
G1 X17.0 Y19.3 E343.8 ;horizontal move
G1 X15.2 Y17.6 E346.3 ;horizontal move
G1 X12.7 Y15.0 E349.9 ;horizontal move
G1 X0.6 Y1.3 E368.2 ;horizontal move
G1 X0.4 Y0.9 E368.6 F300.5 ;horizontal move
G1 X0.6 Y1.3 E369.1 F1080.0 ;horizontal move
G1 X6.4 Y8.7 E378.5 ;horizontal move
G1 F1200.0; feed for start of next move
G1 E371.8; extruder retraction
G1 F600.0; feed for start of next move
G1 X6.6 Y8.9 F1200.0 ;horizontal move
G1 E378.5; extruder dwell
G1 F600.0; feed for start of next move
G1 X12.2 Y15.4 E387.1 F480.1 ;horizontal move
G1 X14.7 Y18.0 E390.7 F480.3 ;horizontal move
G1 X16.6 Y19.7 E393.2 F480.5 ;horizontal move
G1 X18.4 Y21.1 E395.5 F480.7 ;horizontal move
G1 X20.2 Y22.2 E397.6 F480.9 ;horizontal move
G1 X20.9 Y22.5 E398.4 F488.1 ;horizontal move
G1 X57.9 Y59.5 E450.7 F480.0 ;horizontal move
G1 X58.0 E450.8 F441.5 ;horizontal move
G1 Y59.3 E451.0 F480.0 ;horizontal move
G1 X58.3 Y57.4 E452.9 F527.6 ;horizontal move
G1 X24.5 Y23.6 E500.7 F480.0 ;horizontal move
G1 X25.9 Y23.8 E502.1 ;horizontal move
G1 X27.1 E503.3 F512.6 ;horizontal move
G1 X58.4 Y55.2 E547.7 F480.0 ;horizontal move
G1 X58.5 Y53.8 E549.1 ;horizontal move
G1 X58.4 Y52.8 E550.1 F510.0 ;horizontal move
G1 X29.6 Y23.9 E590.9 F480.0 ;horizontal move
G1 X29.5 E591.0 F385.5 ;horizontal move
G1 X29.6 E591.1 F480.0 ;horizontal move
G1 X31.4 E592.9 ;horizontal move
G1 X32.0 Y24.0 E593.5 F507.8 ;horizontal move
G1 X58.1 Y50.1 E630.4 F480.0 ;horizontal move
G1 X58.2 E630.5 F356.8 ;horizontal move
G1 X57.9 Y48.2 E632.4 F480.0 ;horizontal move
G1 X57.6 Y47.1 E633.6 F496.7 ;horizontal move
G1 X34.8 Y24.3 E665.8 F480.0 ;horizontal move
G1 X36.4 Y24.6 E667.4 ;horizontal move
G1 X38.0 Y25.1 E669.1 F493.6 ;horizontal move
G1 X56.5 Y43.6 E695.3 F480.0 ;horizontal move
G1 X56.2 Y42.7 E696.2 ;horizontal move
G1 X54.9 Y39.9 E699.3 F480.6 ;horizontal move
G1 X54.5 Y39.2 E700.1 F484.0 ;horizontal move
G1 X42.4 Y27.2 E717.2 F600.0 ;horizontal move
G1 F1200.0; feed for start of next move
G1 E710.5; extruder retraction
G1 F600.0; feed for start of next move
G1 X42.2 Y27.6 F1200.0 ;horizontal move
G1 X29.7 Y54.7 ;horizontal move
G1 X29.5 Y55.1 F600.0 ;horizontal move
G1 F1200.0; feed for start of next move
G1 E717.2; extruder dwell
G1 F600.0; feed for start of next move
G1 X42.7 Y68.3 E735.8 F480.0 ;horizontal move
G1 X42.3 Y68.5 E736.3 ;horizontal move
G1 X41.1 Y69.1 E737.6 F560.4 ;horizontal move
G1 X29.6 Y57.6 E753.9 F480.0 ;horizontal move
G1 Y57.8 E754.1 ;horizontal move
G1 X29.3 Y59.2 E755.5 F481.5 ;horizontal move
G1 X29.2 Y59.6 E755.9 F552.2 ;horizontal move
G1 X39.5 Y69.9 E770.5 F523.7 ;horizontal move
G1 X38.1 Y70.7 E772.1 F481.0 ;horizontal move
G1 X38.0 Y70.8 E772.3 F584.4 ;horizontal move
G1 X28.3 Y61.2 E785.9 F528.1 ;horizontal move
G1 X28.2 Y61.5 E786.2 F481.8 ;horizontal move
G1 X27.3 Y62.5 E787.6 F591.6 ;horizontal move
G1 X36.6 Y71.9 E800.8 F561.0 ;horizontal move
G1 X36.5 E800.9 F481.1 ;horizontal move
G1 X35.4 Y73.0 E802.4 F598.6 ;horizontal move
G1 X26.1 Y63.7 E815.6 F594.3 ;horizontal move
G1 X24.9 Y65.0 E817.4 F597.7 ;horizontal move
G1 X34.4 Y74.4 E830.7 F575.2 ;horizontal move
G1 Y74.5 E830.8 F481.3 ;horizontal move
G1 X33.8 Y75.6 E832.1 F481.5 ;horizontal move
G1 X33.7 Y76.1 E832.6 F480.0 ;horizontal move
G1 X33.6 E832.7 ;horizontal move
G1 X23.8 Y66.3 E846.5 ;horizontal move
G1 X22.8 Y67.6 E848.2 F587.3 ;horizontal move
G1 X33.2 Y78.1 E863.0 F518.5 ;horizontal move
G1 Y78.3 E863.2 F480.5 ;horizontal move
G1 X33.3 Y79.6 E864.5 F481.7 ;horizontal move
G1 X33.6 Y80.8 E865.7 F480.0 ;horizontal move
G1 X21.8 Y69.0 E882.4 ;horizontal move
G1 X20.8 Y70.4 E884.1 F480.2 ;horizontal move
G1 X37.7 Y87.4 E908.1 F480.0 ;horizontal move
G1 X36.1 Y87.9 E909.8 ;horizontal move
G1 X35.9 E910.0 F534.0 ;horizontal move
G1 X19.9 Y71.9 E932.6 F528.4 ;horizontal move
G1 X19.7 Y72.2 E932.9 F480.5 ;horizontal move
G1 X19.1 Y73.5 E934.4 F561.2 ;horizontal move
G1 X33.9 Y88.3 E955.3 F480.0 ;horizontal move
G1 X33.8 E955.4 ;horizontal move
G1 X32.3 Y88.5 E956.9 ;horizontal move
G1 X31.6 Y88.4 E957.6 F510.0 ;horizontal move
G1 X18.5 Y75.3 E976.2 F480.0 ;horizontal move
G1 Y75.4 E976.3 ;horizontal move
G1 X18.3 Y76.1 E977.0 ;horizontal move
G1 Y77.0 E977.9 F481.4 ;horizontal move
G1 X18.4 Y77.7 E978.6 F503.9 ;horizontal move
G1 X28.7 Y88.0 E993.2 F480.0 ;horizontal move
G1 X28.8 E993.3 F351.2 ;horizontal move
G1 X28.7 E993.4 F480.0 ;horizontal move
G1 X28.4 E993.7 ;horizontal move
G1 X26.6 Y87.3 E995.6 F481.1 ;horizontal move
G1 X24.9 Y86.5 E997.5 F481.2 ;horizontal move
G1 X24.6 Y86.2 E997.9 F481.7 ;horizontal move
G1 X20.3 Y82.0 E1003.9 F600.0 ;horizontal move
G1 F1200.0; feed for start of next move
G1 E997.2; extruder retraction
G1 F600.0; feed for start of next move
G1 X20.7 Y82.1 F1200.0 ;horizontal move
G1 X37.7 Y85.3 ;horizontal move
G1 X38.1 Y85.4 F600.0 ;horizontal move
G1 F1200.0; feed for start of next move
G1 E1003.9; extruder dwell
G1 F600.0; feed for start of next move
G1 X39.4 Y86.7 E1005.7 F557.0 ;horizontal move
G1 X40.2 Y86.3 E1006.6 F480.4 ;horizontal move
G1 X41.0 Y85.9 E1007.5 F516.6 ;horizontal move
G1 Y85.8 E1007.6 F600.0 ;horizontal move
G1 F1200.0; feed for start of next move
G1 E1001.0; extruder retraction
G1 F600.0; feed for start of next move
G1 X41.3 Y85.4 F1200.0 ;horizontal move
G1 X49.5 Y73.4 ;horizontal move
G1 X49.8 Y73.0 F600.0 ;horizontal move
G1 F1200.0; feed for start of next move
G1 E1007.6; extruder dwell
G1 F600.0; feed for start of next move
G1 X49.6 Y72.8 E1007.9 F509.5 ;horizontal move
G1 X49.5 Y71.9 E1008.8 F480.0 ;horizontal move
G1 Y71.1 E1009.6 F482.4 ;horizontal move
G1 X49.2 Y70.3 E1010.5 F484.4 ;horizontal move
G1 X48.9 Y69.7 E1011.1 F481.9 ;horizontal move
G1 X48.5 Y69.3 E1011.7 F480.0 ;horizontal move
G1 X48.4 Y69.2 E1011.9 F300.4 ;horizontal move
G1 X48.5 E1012.0 F480.0 ;horizontal move
G1 X51.1 Y71.9 E1015.7 ;horizontal move
G1 X51.8 Y71.2 E1016.7 F480.4 ;horizontal move
G1 X52.3 Y70.7 E1017.4 F597.5 ;horizontal move
G1 X0.9 Y19.3 E1090.1 F515.1 ;horizontal move
G1 Y17.0 E1092.4 F480.0 ;horizontal move
G1 Y16.9 E1092.5 F387.9 ;horizontal move
G1 X1.0 Y17.0 E1092.6 F480.0 ;horizontal move
G1 X53.5 Y69.5 E1166.9 ;horizontal move
G1 X54.5 Y68.1 E1168.6 F584.9 ;horizontal move
G1 X0.9 Y14.5 E1244.4 F515.1 ;horizontal move
G1 Y12.2 E1246.7 F480.0 ;horizontal move
G1 Y12.1 E1246.8 F387.9 ;horizontal move
G1 X1.0 Y12.2 E1246.9 F480.0 ;horizontal move
G1 X55.4 Y66.6 E1323.9 ;horizontal move
G1 X55.7 Y66.1 E1324.5 F480.8 ;horizontal move
G1 X56.2 Y65.0 E1325.7 F557.7 ;horizontal move
G1 X0.9 Y9.7 E1403.9 F515.1 ;horizontal move
G1 Y7.4 E1406.2 F480.0 ;horizontal move
G1 Y7.3 E1406.3 F387.9 ;horizontal move
G1 X1.0 E1406.4 F480.0 ;horizontal move
G1 X56.9 Y63.3 E1485.5 ;horizontal move
G1 X57.4 Y61.8 E1487.1 ;horizontal move
G1 X57.5 Y61.5 E1487.4 F536.6 ;horizontal move
G1 X0.9 Y4.9 E1567.4 F515.1 ;horizontal move
G1 Y2.6 E1569.7 F480.0 ;horizontal move
G1 Y2.5 E1569.8 F374.5 ;horizontal move
G1 X1.0 Y2.6 E1570.0 F480.0 ;horizontal move
G1 X6.6 Y8.9 E1578.4 ;horizontal move
G1 F1200.0; feed for start of next move
G1 E1571.7; extruder retraction
G1 F600.0; feed for start of next move
G1 X6.4 Y9.3 F1200.0 ;horizontal move
G1 X1.1 Y21.3 ;horizontal move
G1 X0.9 Y21.7 F600.0 ;horizontal move
G1 F1200.0; feed for start of next move
G1 E1578.4; extruder dwell
G1 F600.0; feed for start of next move
G1 X48.3 Y69.1 E1645.4 F480.0 ;horizontal move
G1 X48.4 Y69.2 E1645.6 F301.2 ;horizontal move
G1 X48.3 Y69.1 E1645.7 F480.0 ;horizontal move
G1 X47.8 Y68.7 E1646.4 ;horizontal move
G1 X47.1 Y68.3 E1647.2 F480.7 ;horizontal move
G1 X46.6 Y68.1 E1647.7 F481.8 ;horizontal move
G1 X45.9 Y67.9 E1648.4 F480.3 ;horizontal move
G1 X45.2 Y67.7 E1649.2 F485.8 ;horizontal move
G1 X44.6 Y67.8 E1649.8 F525.4 ;horizontal move
G1 X1.0 Y24.2 E1711.4 F480.0 ;horizontal move
G1 X0.9 Y24.1 E1711.6 F387.9 ;horizontal move
G1 Y24.2 E1711.7 F480.0 ;horizontal move
G1 Y26.6 E1714.1 ;horizontal move
G1 X22.8 Y48.4 E1745.0 ;horizontal move
G1 X22.5 E1745.3 ;horizontal move
G1 X20.8 Y48.3 E1747.0 F480.5 ;horizontal move
G1 X20.3 E1747.5 F518.8 ;horizontal move
G1 X1.0 Y29.0 E1774.8 F480.0 ;horizontal move
G1 X0.9 E1774.9 F387.9 ;horizontal move
G1 X1.0 Y31.4 E1777.3 F480.0 ;horizontal move
G1 X18.0 Y48.4 E1801.3 ;horizontal move
G1 X16.6 Y48.7 E1802.7 ;horizontal move
G1 X16.1 Y48.9 E1803.3 F547.3 ;horizontal move
G1 X1.0 Y33.8 E1824.6 F480.0 ;horizontal move
G1 X0.9 E1824.7 F387.9 ;horizontal move
G1 Y36.2 E1827.1 F480.0 ;horizontal move
G1 X14.3 Y49.6 E1846.1 F560.1 ;horizontal move
G1 X13.8 Y50.0 E1846.7 F482.0 ;horizontal move
G1 X13.1 Y50.7 E1847.7 F585.5 ;horizontal move
G1 X1.0 Y38.6 E1864.8 F480.0 ;horizontal move
G1 X0.9 E1864.9 F387.9 ;horizontal move
G1 X1.0 Y41.0 E1867.3 F480.0 ;horizontal move
G1 X12.3 Y52.3 E1883.3 F560.1 ;horizontal move
G1 X12.1 Y52.6 E1883.7 F480.7 ;horizontal move
G1 X11.9 Y53.0 E1884.1 F486.7 ;horizontal move
G1 X11.6 Y54.0 E1885.2 F480.0 ;horizontal move
G1 Y54.1 E1885.3 F439.7 ;horizontal move
G1 X1.0 Y43.4 E1900.3 F480.0 ;horizontal move
G1 Y45.8 E1902.7 ;horizontal move
G1 X11.6 Y56.4 E1917.7 F504.0 ;horizontal move
G1 Y56.7 E1918.0 F481.7 ;horizontal move
G1 X11.9 Y57.4 E1918.8 F483.4 ;horizontal move
G1 X12.3 Y58.0 E1919.5 F481.9 ;horizontal move
G1 X12.8 Y58.7 E1920.4 F482.7 ;horizontal move
G1 X13.5 Y59.2 E1921.2 F480.0 ;horizontal move
G1 X14.4 Y59.8 E1922.3 F481.0 ;horizontal move
G1 X15.0 Y60.1 E1923.0 F480.0 ;horizontal move
G1 Y60.2 E1923.1 F375.4 ;horizontal move
G1 X14.9 E1923.2 F480.0 ;horizontal move
G1 X13.2 Y60.4 E1924.9 F481.4 ;horizontal move
G1 X13.1 E1925.0 F511.5 ;horizontal move
G1 X1.0 Y48.3 E1942.1 F480.0 ;horizontal move
G1 Y48.2 E1942.2 F352.1 ;horizontal move
G1 Y48.3 E1942.3 F480.0 ;horizontal move
G1 X1.3 Y49.7 E1943.7 ;horizontal move
G1 X1.7 Y51.3 E1945.4 F497.9 ;horizontal move
G1 X10.4 Y60.1 E1957.8 F480.0 ;horizontal move
G1 X9.8 Y60.0 E1958.4 ;horizontal move
G1 X8.2 Y59.3 E1960.1 F481.4 ;horizontal move
G1 X6.6 Y58.5 E1961.9 F481.3 ;horizontal move
G1 X5.9 Y57.9 E1962.8 F481.1 ;horizontal move
G1 X3.6 Y55.7 E1966.0 F600.0 ;horizontal move
G1 F1200.0; feed for start of next move
G1 E1959.3; extruder retraction
G1 F600.0; feed for start of next move
M106 ;cooler on
G1 X3.2 F1200.0 ;horizontal move
G1 X-249.5 ;horizontal move
G1 X-250.0 F600.0 ;horizontal move
G92 X0 ;set x 0
G1 Y55.3 F1200.0 ;horizontal move
G1 Y-249.5 ;horizontal move
G1 Y-250.0 F600.0 ;horizontal move
G92 Y0 ;set y 0
G92 E0 ;zero the extruded length
;#!LAYER: 4/12
M107 ;cooler off
G4 P20 ;delay
G1 F40.0; feed for start of next move
G1 Z2.5 F67.8 ;z move
G1 Z3.0 F40.0 ;z move
G1 F600.0; feed for start of next move
G1 X-0.3 Y-0.3 F1200.0 ;horizontal move
G1 X-2.7 Y-2.7 ;horizontal move
G1 X-3.0 Y-3.0 F600.0 ;horizontal move
G1 F1200.0; feed for start of next move
G1 E6.7; extruder dwell
G1 F600.0; feed for start of next move
G1 X-5.0 Y6.9 E16.8 F480.0 ;horizontal move
G1 Y7.0 E16.9 F305.8 ;horizontal move
G1 Y6.9 E17.0 F480.0 ;horizontal move
G1 Y-5.0 E28.9 ;horizontal move
G1 X17.0 E50.9 F600.0 ;horizontal move
G1 F1200.0; feed for start of next move
G1 E44.2; extruder retraction
G1 F600.0; feed for start of next move
G1 X17.2 Y-4.6 F1200.0 ;horizontal move
G1 X40.1 Y44.7 ;horizontal move
G1 X40.3 Y45.1 F600.0 ;horizontal move
G1 F1200.0; feed for start of next move
G1 E50.9; extruder dwell
G1 F600.0; feed for start of next move
G1 X40.6 Y44.9 E51.2 F1080.0 ;horizontal move
G1 X50.9 Y34.5 E65.9 ;horizontal move
G1 X51.1 Y34.4 E66.1 F796.3 ;horizontal move
G1 X51.0 Y34.2 E66.3 F1080.0 ;horizontal move
G1 X50.5 Y32.8 E67.8 ;horizontal move
G1 X50.4 Y32.7 E67.9 ;horizontal move
G1 X48.3 Y30.7 E70.8 ;horizontal move
G1 X45.9 Y28.7 E74.0 ;horizontal move
G1 X45.8 E74.1 ;horizontal move
G1 X43.5 Y27.1 E76.9 ;horizontal move
G1 X41.3 Y25.8 E79.4 ;horizontal move
G1 X39.0 Y24.8 E81.9 ;horizontal move
G1 X36.6 Y24.1 E84.4 ;horizontal move
G1 X34.0 Y23.5 E87.1 ;horizontal move
G1 X31.4 Y23.3 E89.7 ;horizontal move
G1 X27.9 E93.2 ;horizontal move
G1 X25.9 Y23.2 E95.2 ;horizontal move
G1 X24.2 Y23.0 E96.9 ;horizontal move
G1 X24.1 E97.0 F1074.8 ;horizontal move
G1 X22.3 Y22.4 E98.9 F1080.0 ;horizontal move
G1 X20.5 Y21.7 E100.8 ;horizontal move
G1 X18.7 Y20.6 E103.0 ;horizontal move
G1 X17.0 Y19.3 E105.1 ;horizontal move
G1 X15.2 Y17.6 E107.6 ;horizontal move
G1 X12.7 Y15.0 E111.2 ;horizontal move
G1 X0.6 Y1.3 E129.5 ;horizontal move
G1 X0.4 Y0.9 E129.9 F374.5 ;horizontal move
G1 Y1.4 E130.4 F1080.0 ;horizontal move
G1 X0.3 Y48.0 E177.0 ;horizontal move
G1 X0.4 E177.1 ;horizontal move
G1 X0.7 Y49.8 E178.9 ;horizontal move
G1 X1.2 Y52.0 E181.2 ;horizontal move
G1 X1.8 Y53.7 E183.0 ;horizontal move
G1 X2.5 Y55.2 E184.6 ;horizontal move
G1 X3.5 Y56.6 E186.4 ;horizontal move
G1 X4.8 Y57.8 E188.1 ;horizontal move
G1 X6.3 Y59.0 E190.1 ;horizontal move
G1 X7.9 Y59.9 E191.9 ;horizontal move
G1 X9.7 Y60.5 E193.8 ;horizontal move
G1 X11.5 Y60.9 E195.6 ;horizontal move
G1 X13.2 Y61.0 E197.3 ;horizontal move
G1 X15.0 Y60.8 E199.1 ;horizontal move
G1 X16.3 Y60.5 E200.5 ;horizontal move
G1 X16.8 Y60.4 E201.0 F363.1 ;horizontal move
G1 X16.4 Y60.2 E201.4 F975.4 ;horizontal move
G1 X14.7 Y59.3 E203.4 F1080.0 ;horizontal move
G1 X13.9 Y58.7 E204.4 ;horizontal move
G1 X13.2 Y58.2 E205.2 ;horizontal move
G1 X12.8 Y57.7 E205.9 ;horizontal move
G1 X12.7 E206.0 F1072.4 ;horizontal move
G1 X12.4 Y57.2 E206.5 F1080.0 ;horizontal move
G1 Y57.1 E206.6 ;horizontal move
G1 X12.2 Y56.5 E207.3 ;horizontal move
G1 X12.1 Y55.9 E207.9 ;horizontal move
G1 Y55.2 E208.6 ;horizontal move
G1 Y55.1 E208.7 F1072.0 ;horizontal move
G1 X12.2 Y54.3 E209.5 F1080.0 ;horizontal move
G1 X12.4 Y53.3 E210.5 ;horizontal move
G1 Y53.2 E210.6 F1053.1 ;horizontal move
G1 X12.7 Y52.9 E211.0 F1080.0 ;horizontal move
G1 X13.1 Y51.9 E212.1 ;horizontal move
G1 X13.6 Y51.1 E213.1 ;horizontal move
G1 X14.2 Y50.4 E214.0 ;horizontal move
G1 X14.8 Y50.0 E214.7 ;horizontal move
G1 Y49.9 E214.8 F1058.7 ;horizontal move
G1 X15.7 Y49.6 E215.7 F1080.0 ;horizontal move
G1 X16.7 Y49.3 E216.8 ;horizontal move
G1 X18.4 Y49.0 E218.5 ;horizontal move
G1 X20.8 Y48.9 E220.9 ;horizontal move
G1 X22.5 Y49.0 E222.6 ;horizontal move
G1 X23.7 Y49.2 E223.8 ;horizontal move
G1 X24.5 Y49.5 E224.7 ;horizontal move
G1 X25.5 Y50.0 E225.8 ;horizontal move
G1 X26.4 Y50.7 E227.0 ;horizontal move
G1 X27.2 Y51.5 E228.1 ;horizontal move
G1 X28.0 Y52.6 E229.4 ;horizontal move
G1 X28.6 Y53.8 E230.8 ;horizontal move
G1 X28.9 Y55.1 E232.1 ;horizontal move
G1 X29.1 Y56.4 E233.4 ;horizontal move
G1 X29.0 Y57.7 E234.7 ;horizontal move
G1 X28.7 Y59.0 E236.1 ;horizontal move
G1 Y59.1 E236.2 F1073.9 ;horizontal move
G1 X28.3 Y60.1 E237.3 F1080.0 ;horizontal move
G1 X27.7 Y61.1 E238.4 ;horizontal move
G1 X26.6 Y62.4 E240.1 ;horizontal move
G1 X24.3 Y64.8 E243.4 ;horizontal move
G1 X22.2 Y67.4 E246.8 ;horizontal move
G1 X20.3 Y70.1 E250.1 ;horizontal move
G1 X19.2 Y71.9 E252.2 ;horizontal move
G1 X18.4 Y73.5 E254.0 ;horizontal move
G1 X17.9 Y75.0 E255.6 ;horizontal move
G1 X17.7 Y76.0 E256.6 ;horizontal move
G1 Y76.1 E256.7 F1073.5 ;horizontal move
G1 Y77.1 E257.7 F1080.0 ;horizontal move
G1 X17.9 Y78.5 E259.1 ;horizontal move
G1 X18.0 Y78.6 E259.2 ;horizontal move
G1 Y78.7 E259.3 ;horizontal move
G1 X18.4 Y79.7 E260.4 ;horizontal move
G1 X19.1 Y81.2 E262.1 ;horizontal move
G1 X20.1 Y82.8 E264.0 ;horizontal move
G1 X21.4 Y84.4 E266.0 ;horizontal move
G1 X22.9 Y85.8 E268.1 ;horizontal move
G1 X24.6 Y87.0 E270.2 ;horizontal move
G1 X26.4 Y87.9 E272.2 ;horizontal move
G1 X28.2 Y88.5 E274.1 ;horizontal move
G1 X30.2 Y88.9 E276.1 ;horizontal move
G1 X32.3 Y89.1 E278.2 ;horizontal move
G1 X34.2 Y88.9 E280.1 ;horizontal move
G1 X34.3 E280.2 ;horizontal move
G1 X36.2 Y88.5 E282.2 ;horizontal move
G1 X36.3 E282.3 F1077.0 ;horizontal move
G1 X38.3 Y87.8 E284.4 F1080.0 ;horizontal move
G1 X40.5 Y86.8 E286.8 ;horizontal move
G1 X42.9 Y85.5 E289.5 ;horizontal move
G1 X43.3 Y85.3 E290.0 F335.6 ;horizontal move
G1 X42.9 E290.4 F1060.4 ;horizontal move
G1 X40.7 Y85.2 E292.6 F1080.0 ;horizontal move
G1 X39.1 Y85.0 E294.2 ;horizontal move
G1 X37.9 Y84.7 E295.4 ;horizontal move
G1 X37.0 Y84.4 E296.4 ;horizontal move
G1 X36.9 E296.5 ;horizontal move
G1 X36.3 Y84.0 E297.2 ;horizontal move
G1 X35.6 Y83.4 E298.1 ;horizontal move
G1 X35.1 Y82.6 E299.1 ;horizontal move
G1 X34.6 Y81.7 E300.1 ;horizontal move
G1 X34.2 Y80.7 E301.2 ;horizontal move
G1 X33.9 Y79.5 E302.4 ;horizontal move
G1 X33.8 Y78.2 E303.7 ;horizontal move
G1 X34.0 Y76.9 E305.0 ;horizontal move
G1 X34.4 Y75.8 E306.2 ;horizontal move
G1 X34.9 Y74.8 E307.3 ;horizontal move
G1 X35.8 Y73.5 E308.9 ;horizontal move
G1 X36.9 Y72.4 E310.5 ;horizontal move
G1 X38.5 Y71.2 E312.5 ;horizontal move
G1 X40.5 Y70.0 E314.8 ;horizontal move
G1 X42.5 Y69.0 E317.0 ;horizontal move
G1 X43.7 Y68.6 E318.3 ;horizontal move
G1 X44.4 Y68.4 E319.0 ;horizontal move
G1 X44.5 E319.1 ;horizontal move
G1 X45.1 Y68.3 E319.7 ;horizontal move
G1 X45.2 E319.8 F1056.7 ;horizontal move
G1 X45.8 Y68.4 E320.4 F1080.0 ;horizontal move
G1 X46.4 Y68.6 E321.1 ;horizontal move
G1 X46.8 Y68.8 E321.5 ;horizontal move
G1 X47.5 Y69.2 E322.3 ;horizontal move
G1 X48.0 Y69.6 E323.0 ;horizontal move
G1 X48.4 Y70.1 E323.6 ;horizontal move
G1 X48.7 Y70.6 E324.2 ;horizontal move
G1 X48.9 Y71.2 E324.8 ;horizontal move
G1 Y72.0 E325.6 ;horizontal move
G1 X49.0 Y73.0 E326.6 ;horizontal move
G1 X48.9 Y74.1 E327.7 ;horizontal move
G1 Y74.5 E328.1 F392.0 ;horizontal move
G1 X49.2 Y74.2 E328.5 F1080.0 ;horizontal move
G1 X50.2 Y73.4 E329.8 ;horizontal move
G1 X52.2 Y71.7 E332.5 ;horizontal move
G1 X53.8 Y70.0 E334.8 ;horizontal move
G1 X55.1 Y68.3 E336.9 ;horizontal move
G1 X56.2 Y66.4 E339.1 ;horizontal move
G1 X56.3 E339.2 ;horizontal move
G1 X57.2 Y64.3 E341.5 ;horizontal move
G1 X58.0 Y62.0 E343.9 ;horizontal move
G1 X58.6 Y59.4 E346.6 ;horizontal move
G1 X59.0 Y56.6 E349.4 ;horizontal move
G1 X59.1 Y53.8 E352.2 ;horizontal move
G1 X58.9 Y50.9 E355.1 ;horizontal move
G1 X58.4 Y48.1 E358.0 ;horizontal move
G1 X57.7 Y45.3 E360.9 ;horizontal move
G1 X56.7 Y42.5 E363.9 ;horizontal move
G1 X55.4 Y39.7 E366.9 ;horizontal move
G1 Y39.6 E367.0 ;horizontal move
G1 X54.1 Y37.3 E369.7 ;horizontal move
G1 X52.4 Y35.0 E372.5 ;horizontal move
G1 X50.7 Y33.0 E375.2 ;horizontal move
G1 X50.5 Y32.8 E375.4 F550.1 ;horizontal move
G1 X50.2 Y33.0 E375.8 F1080.0 ;horizontal move
G1 X40.6 Y44.8 E391.0 ;horizontal move
G1 F1200.0; feed for start of next move
G1 E384.4; extruder retraction
G1 F600.0; feed for start of next move
G1 X40.3 Y45.1 F1200.0 ;horizontal move
G1 E391.0; extruder dwell
G1 F600.0; feed for start of next move
G1 X29.6 Y55.8 E406.2 F525.0 ;horizontal move
G1 X29.7 Y56.4 E406.8 F481.5 ;horizontal move
G1 X29.6 Y57.8 E408.2 F481.7 ;horizontal move
G1 X29.5 Y58.3 E408.7 F480.0 ;horizontal move
G1 Y58.4 E408.8 F347.4 ;horizontal move
G1 X52.2 Y35.7 E440.9 F480.0 ;horizontal move
G1 X53.2 Y37.1 E442.6 F580.0 ;horizontal move
G1 X23.2 Y67.1 E485.0 F480.7 ;horizontal move
G1 X22.7 Y67.7 E485.8 F480.4 ;horizontal move
G1 X20.8 Y70.4 E489.1 F480.2 ;horizontal move
G1 X19.7 Y72.2 E491.2 F480.5 ;horizontal move
G1 X19.1 Y73.6 E492.7 F480.0 ;horizontal move
G1 X19.0 E492.8 F316.1 ;horizontal move
G1 X19.1 E492.9 F480.0 ;horizontal move
G1 X54.1 Y38.6 E542.4 ;horizontal move
G1 X54.9 Y39.9 E544.0 F480.6 ;horizontal move
G1 X55.0 Y40.1 E544.2 F558.0 ;horizontal move
G1 X18.3 Y76.7 E596.0 F514.4 ;horizontal move
G1 Y77.0 E596.3 F481.4 ;horizontal move
G1 X18.5 Y78.3 E597.6 F500.6 ;horizontal move
G1 X18.6 E597.7 F490.8 ;horizontal move
G1 X18.7 Y78.8 E598.2 F480.0 ;horizontal move
G1 X55.7 Y41.7 E650.6 ;horizontal move
G1 X56.2 Y42.7 E651.8 F480.4 ;horizontal move
G1 X56.4 Y43.4 E652.5 F548.6 ;horizontal move
G1 X19.4 Y80.5 E704.9 F560.0 ;horizontal move
G1 X19.6 Y80.9 E705.3 F480.8 ;horizontal move
G1 X20.3 Y82.0 E706.6 F534.0 ;horizontal move
G1 X57.1 Y45.2 E758.7 F480.0 ;horizontal move
G1 X57.2 Y45.5 E759.0 ;horizontal move
G1 X57.6 Y47.1 E760.6 F538.9 ;horizontal move
G1 X21.3 Y83.3 E811.9 F587.8 ;horizontal move
G1 X21.9 Y84.0 E812.8 F481.0 ;horizontal move
G1 X22.5 Y84.6 E813.7 F596.4 ;horizontal move
G1 X58.0 Y49.1 E863.9 F480.0 ;horizontal move
G1 X58.3 Y51.0 E865.8 ;horizontal move
G1 Y51.2 E866.0 F520.6 ;horizontal move
G1 X39.7 Y69.8 E892.3 F480.0 ;horizontal move
G1 X40.3 Y69.5 E893.0 ;horizontal move
G1 X42.3 Y68.5 E895.2 F480.7 ;horizontal move
G1 X43.5 Y68.1 E896.5 F480.1 ;horizontal move
G1 X44.0 Y67.9 E897.0 F493.9 ;horizontal move
G1 X58.4 Y53.5 E917.4 F480.0 ;horizontal move
G1 X58.5 Y53.4 E917.5 F401.6 ;horizontal move
G1 Y53.5 E917.6 F480.0 ;horizontal move
G1 Y53.8 E917.9 ;horizontal move
G1 X58.4 Y55.9 E920.0 F512.3 ;horizontal move
G1 X46.3 Y68.0 E937.1 F480.0 ;horizontal move
G1 X46.6 Y68.1 E937.5 ;horizontal move
G1 X47.1 Y68.3 E938.0 F480.7 ;horizontal move
G1 X47.8 Y68.7 E938.8 F481.4 ;horizontal move
G1 X47.9 Y68.8 E938.9 F589.4 ;horizontal move
G1 X58.1 Y58.6 E953.4 F480.0 ;horizontal move
G1 X58.0 Y59.3 E954.1 ;horizontal move
G1 X57.5 Y61.7 E956.5 F498.1 ;horizontal move
G1 X49.1 Y70.0 E968.3 F572.9 ;horizontal move
G1 X49.2 Y70.3 E968.7 F484.4 ;horizontal move
G1 X49.5 Y71.1 E969.5 F482.4 ;horizontal move
G1 Y71.9 E970.3 F480.0 ;horizontal move
G1 Y72.0 E970.4 F402.9 ;horizontal move
G1 X49.6 Y71.9 E970.5 F480.0 ;horizontal move
G1 X56.0 Y65.5 E979.6 ;horizontal move
G1 F1200.0; feed for start of next move
G1 E972.9; extruder retraction
G1 F600.0; feed for start of next move
G1 X55.6 Y65.7 F1200.0 ;horizontal move
G1 X34.2 Y75.5 ;horizontal move
G1 X33.8 Y75.7 F600.0 ;horizontal move
G1 F1200.0; feed for start of next move
G1 E979.6; extruder dwell
G1 F600.0; feed for start of next move
G1 X23.8 Y85.7 E993.7 F549.0 ;horizontal move
G1 X24.9 Y86.5 E995.1 F481.2 ;horizontal move
G1 X25.2 Y86.6 E995.4 F563.1 ;horizontal move
G1 X33.2 Y78.7 E1006.7 F480.0 ;horizontal move
G1 X33.3 Y78.6 E1006.8 F398.5 ;horizontal move
G1 Y78.7 E1006.9 F480.0 ;horizontal move
G1 Y79.6 E1007.8 ;horizontal move
G1 X33.6 Y80.7 E1008.9 F535.9 ;horizontal move
G1 X26.9 Y87.4 E1018.4 F480.0 ;horizontal move
G1 X28.4 Y88.0 E1020.0 ;horizontal move
G1 X28.7 E1020.3 F533.0 ;horizontal move
G1 X34.3 Y82.4 E1028.3 F524.9 ;horizontal move
G1 X34.6 Y83.0 E1028.9 F480.1 ;horizontal move
G1 X35.2 Y83.8 E1029.9 F484.4 ;horizontal move
G1 Y83.9 E1030.0 F580.7 ;horizontal move
G1 X30.8 Y88.3 E1036.2 F480.0 ;horizontal move
G1 X30.7 Y88.4 E1036.4 F401.6 ;horizontal move
G1 X30.8 E1036.5 F480.0 ;horizontal move
G1 X32.3 Y88.5 E1038.0 ;horizontal move
G1 X33.1 Y88.4 E1038.8 F508.4 ;horizontal move
G1 X36.6 Y84.9 E1043.7 F575.9 ;horizontal move
G1 X36.7 Y85.0 E1043.9 F485.3 ;horizontal move
G1 X37.7 Y85.3 E1044.9 F480.1 ;horizontal move
G1 X38.4 Y85.4 E1045.6 F480.0 ;horizontal move
G1 X38.5 Y85.5 E1045.8 F447.2 ;horizontal move
G1 X36.0 Y87.9 E1049.2 F480.0 ;horizontal move
G1 X36.1 E1049.3 ;horizontal move
G1 X38.1 Y87.2 E1051.5 F480.6 ;horizontal move
G1 X39.8 Y86.5 E1053.3 F488.0 ;horizontal move
G1 X40.5 Y85.8 E1054.3 F600.0 ;horizontal move
G1 F1200.0; feed for start of next move
G1 E1047.6; extruder retraction
G1 F600.0; feed for start of next move
G1 X40.2 Y85.5 F1200.0 ;horizontal move
G1 X14.2 Y59.8 ;horizontal move
G1 X13.9 Y59.5 F600.0 ;horizontal move
G1 F1200.0; feed for start of next move
G1 E1054.3; extruder dwell
G1 F600.0; feed for start of next move
G1 X13.1 Y60.4 E1055.5 F519.0 ;horizontal move
G1 X11.5 Y60.3 E1057.1 F481.4 ;horizontal move
G1 X10.9 Y60.2 E1057.7 F480.0 ;horizontal move
G1 X12.6 Y58.4 E1060.2 ;horizontal move
G1 X12.3 Y58.0 E1060.7 F481.9 ;horizontal move
G1 X11.9 Y57.4 E1061.4 F483.4 ;horizontal move
G1 X11.7 Y56.9 E1061.9 F480.0 ;horizontal move
G1 X9.0 Y59.6 E1065.8 ;horizontal move
G1 X8.2 Y59.3 E1066.6 F481.4 ;horizontal move
G1 X7.3 Y58.9 E1067.6 F517.0 ;horizontal move
G1 X11.5 Y54.7 E1073.5 F505.0 ;horizontal move
G1 X11.6 Y54.2 E1074.1 F480.5 ;horizontal move
G1 X11.9 Y53.0 E1075.3 F486.7 ;horizontal move
G1 X12.1 Y52.6 E1075.7 F480.7 ;horizontal move
G1 X12.6 Y51.7 E1076.8 F480.3 ;horizontal move
G1 X13.1 Y50.7 E1077.9 F483.0 ;horizontal move
G1 X13.3 Y50.5 E1078.2 F480.0 ;horizontal move
G1 X5.9 Y57.9 E1088.6 ;horizontal move
G1 X5.2 Y57.4 E1089.5 F481.2 ;horizontal move
G1 X4.6 Y56.8 E1090.3 F599.1 ;horizontal move
G1 X36.7 Y24.7 E1135.7 F480.0 ;horizontal move
G1 X36.4 Y24.6 E1136.1 ;horizontal move
G1 X34.7 Y24.3 E1137.8 F533.7 ;horizontal move
G1 X3.5 Y55.5 E1181.9 F550.7 ;horizontal move
G1 X3.0 Y54.9 E1182.7 F481.5 ;horizontal move
G1 X2.6 Y54.0 E1183.7 F562.1 ;horizontal move
G1 X32.6 Y24.0 E1226.1 F480.0 ;horizontal move
G1 X31.4 Y23.9 E1227.3 ;horizontal move
G1 X30.3 E1228.4 F516.1 ;horizontal move
G1 X1.9 Y52.3 E1268.6 F480.0 ;horizontal move
G1 X1.8 Y51.8 E1269.1 ;horizontal move
G1 X1.4 Y50.4 E1270.5 F536.9 ;horizontal move
G1 X27.9 Y23.9 E1308.0 F480.0 ;horizontal move
G1 X25.9 Y23.8 E1310.0 ;horizontal move
G1 X25.6 E1310.3 F526.9 ;horizontal move
G1 X1.0 Y48.3 E1345.0 F480.0 ;horizontal move
G1 Y48.4 E1345.1 F431.0 ;horizontal move
G1 Y48.3 E1345.2 F480.0 ;horizontal move
G1 X0.9 Y48.0 E1345.5 ;horizontal move
G1 X1.0 Y46.0 E1347.5 F515.1 ;horizontal move
G1 X23.5 Y23.4 E1379.4 F480.0 ;horizontal move
G1 X23.6 E1379.5 F454.3 ;horizontal move
G1 X23.5 E1379.6 F480.0 ;horizontal move
G1 X22.1 Y23.0 E1381.1 ;horizontal move
G1 X21.7 Y22.9 E1381.5 F556.7 ;horizontal move
G1 X1.0 Y43.6 E1410.8 F480.0 ;horizontal move
G1 X0.9 Y41.2 E1413.2 ;horizontal move
G1 X20.1 Y22.1 E1440.3 F526.7 ;horizontal move
G1 X18.6 Y21.2 E1442.0 F570.7 ;horizontal move
G1 X1.0 Y38.8 E1466.9 F480.0 ;horizontal move
G1 X0.9 E1467.0 F387.9 ;horizontal move
G1 Y36.4 E1469.4 F480.0 ;horizontal move
G1 X17.2 Y20.2 E1492.4 F558.4 ;horizontal move
G1 X16.6 Y19.7 E1493.2 F480.5 ;horizontal move
G1 X15.9 Y19.1 E1494.1 F594.8 ;horizontal move
G1 X1.0 Y34.0 E1515.2 F480.0 ;horizontal move
G1 X0.9 E1515.3 F387.9 ;horizontal move
G1 Y31.6 E1517.7 F480.0 ;horizontal move
G1 X14.6 Y17.9 E1537.0 F596.5 ;horizontal move
G1 X13.5 Y16.7 E1538.7 F591.2 ;horizontal move
G1 X1.0 Y29.2 E1556.3 F480.0 ;horizontal move
G1 X0.9 E1556.4 F387.9 ;horizontal move
G1 Y26.8 E1558.8 F480.0 ;horizontal move
G1 X12.3 Y15.4 E1575.0 F596.5 ;horizontal move
G1 X12.2 E1575.1 F480.1 ;horizontal move
G1 X11.2 Y14.2 E1576.6 F580.5 ;horizontal move
G1 X1.0 Y24.4 E1591.0 F480.0 ;horizontal move
G1 X0.9 E1591.1 F387.9 ;horizontal move
G1 X1.0 Y22.0 E1593.6 F480.0 ;horizontal move
G1 X10.0 Y12.9 E1606.3 F592.2 ;horizontal move
G1 X8.9 Y11.6 E1608.1 F580.5 ;horizontal move
G1 X1.0 Y19.6 E1619.3 F480.0 ;horizontal move
G1 Y19.5 E1619.4 ;horizontal move
G1 X0.9 Y17.2 E1621.7 ;horizontal move
G1 X7.8 Y10.3 E1631.5 F592.2 ;horizontal move
G1 X6.7 Y9.0 E1633.2 F580.5 ;horizontal move
G1 X1.0 Y14.8 E1641.3 F480.0 ;horizontal move
G1 X0.9 E1641.4 F387.9 ;horizontal move
G1 Y14.7 E1641.5 F480.0 ;horizontal move
G1 Y12.4 E1643.8 ;horizontal move
G1 X5.6 Y7.8 E1650.4 F592.2 ;horizontal move
G1 X4.4 Y6.5 E1652.1 F580.5 ;horizontal move
G1 X1.0 Y9.9 E1656.9 F480.0 ;horizontal move
G1 X0.9 Y10.0 E1657.1 F387.9 ;horizontal move
G1 Y9.9 E1657.2 F480.0 ;horizontal move
G1 Y7.6 E1659.5 ;horizontal move
G1 X3.3 Y5.2 E1662.9 F592.2 ;horizontal move
G1 X2.2 Y3.9 E1664.6 F580.5 ;horizontal move
G1 X1.0 Y5.1 E1666.3 F480.0 ;horizontal move
G1 X0.9 Y5.2 E1666.4 F387.9 ;horizontal move
G1 Y5.1 E1666.5 F480.0 ;horizontal move
G1 X1.0 Y2.8 E1668.8 ;horizontal move
G1 X1.1 Y2.6 E1669.0 F600.0 ;horizontal move
G1 F1200.0; feed for start of next move
G1 E1662.4; extruder retraction
G1 F600.0; feed for start of next move
G1 X1.2 Y3.0 F1200.0 ;horizontal move
G1 X13.8 Y49.5 ;horizontal move
G1 X13.9 Y49.9 F600.0 ;horizontal move
G1 F1200.0; feed for start of next move
G1 E1669.0; extruder dwell
G1 F600.0; feed for start of next move
G1 X38.5 Y25.3 E1703.8 F544.5 ;horizontal move
G1 X38.8 Y25.4 E1704.2 F480.7 ;horizontal move
G1 X40.2 Y26.0 E1705.7 F491.4 ;horizontal move
G1 X17.7 Y48.5 E1737.5 F480.0 ;horizontal move
G1 X17.8 E1737.6 ;horizontal move
G1 X18.3 Y48.4 E1738.1 ;horizontal move
G1 X20.3 Y48.3 E1740.1 F511.7 ;horizontal move
G1 X41.8 Y26.8 E1770.5 F567.4 ;horizontal move
G1 X43.2 Y27.6 E1772.1 F480.5 ;horizontal move
G1 X43.3 Y27.7 E1772.3 F545.4 ;horizontal move
G1 X22.6 Y48.4 E1801.5 F480.0 ;horizontal move
G1 X23.9 Y48.6 E1802.9 ;horizontal move
G1 X24.6 Y48.9 E1803.6 F548.0 ;horizontal move
G1 X44.8 Y28.7 E1832.2 F578.2 ;horizontal move
G1 X45.5 Y29.2 E1833.0 F480.4 ;horizontal move
G1 X46.1 Y29.7 E1833.8 F568.5 ;horizontal move
G1 X26.1 Y49.7 E1862.1 F558.7 ;horizontal move
G1 X26.8 Y50.2 E1863.0 F481.4 ;horizontal move
G1 X27.4 Y50.8 E1863.8 F596.3 ;horizontal move
G1 X47.5 Y30.8 E1892.2 F587.4 ;horizontal move
G1 X47.9 Y31.1 E1892.7 F480.4 ;horizontal move
G1 X48.7 Y31.9 E1893.8 F594.4 ;horizontal move
G1 X28.4 Y52.2 E1922.5 F579.5 ;horizontal move
G1 X28.5 Y52.3 E1922.7 F481.8 ;horizontal move
G1 X29.1 Y53.6 E1924.1 F481.5 ;horizontal move
G1 X29.2 Y53.8 E1924.3 F480.0 ;horizontal move
G1 Y53.9 E1924.4 F455.5 ;horizontal move
G1 Y53.8 E1924.5 F480.0 ;horizontal move
G1 X49.9 Y33.1 E1953.8 ;horizontal move
G1 X50.0 Y33.2 E1953.9 F480.4 ;horizontal move
G1 X51.1 Y34.4 E1955.6 F600.0 ;horizontal move
G1 F1200.0; feed for start of next move
G1 E1948.9; extruder retraction
G1 F600.0; feed for start of next move
M106 ;cooler on
G1 X50.7 F1200.0 ;horizontal move
G1 X-249.6 ;horizontal move
G1 X-250.0 F600.0 ;horizontal move
G92 X0 ;set x 0
G1 Y33.9 F1200.0 ;horizontal move
G1 Y-249.5 ;horizontal move
G1 Y-250.0 F600.0 ;horizontal move
G92 Y0 ;set y 0
G92 E0 ;zero the extruded length
;#!LAYER: 5/12
M107 ;cooler off
G4 P20 ;delay
G1 F40.0; feed for start of next move
G1 Z3.5 F67.8 ;z move
G1 Z4.0 F40.0 ;z move
G1 F600.0; feed for start of next move
G1 X-0.3 Y-0.3 F1200.0 ;horizontal move
G1 X-2.7 Y-2.7 ;horizontal move
G1 X-3.0 Y-3.0 F600.0 ;horizontal move
G1 F1200.0; feed for start of next move
G1 E6.7; extruder dwell
G1 F600.0; feed for start of next move
G1 X-5.0 Y6.9 E16.8 F480.0 ;horizontal move
G1 Y7.0 E16.9 F305.8 ;horizontal move
G1 Y6.9 E17.0 F480.0 ;horizontal move
G1 Y-5.0 E28.9 ;horizontal move
G1 X17.0 E50.9 F600.0 ;horizontal move
G1 F1200.0; feed for start of next move
G1 E44.2; extruder retraction
G1 F600.0; feed for start of next move
G1 X17.1 Y-4.6 F1200.0 ;horizontal move
G1 X38.7 Y85.6 ;horizontal move
G1 X38.8 Y86.0 F600.0 ;horizontal move
G1 F1200.0; feed for start of next move
G1 E50.9; extruder dwell
G1 F600.0; feed for start of next move
G1 X39.0 Y86.3 E51.2 F1080.0 ;horizontal move
G1 X39.3 Y86.5 E51.6 ;horizontal move
G1 X39.4 Y86.7 E51.8 F772.1 ;horizontal move
G1 X39.6 Y86.6 E52.0 F1080.0 ;horizontal move
G1 X40.2 Y86.3 E52.7 ;horizontal move
G1 X41.0 Y85.9 E53.6 ;horizontal move
G1 X42.9 Y85.4 E55.6 ;horizontal move
G1 X43.3 Y85.3 E56.0 F308.3 ;horizontal move
G1 X42.9 E56.4 F1052.1 ;horizontal move
G1 X40.7 Y85.2 E58.6 F1080.0 ;horizontal move
G1 X39.1 Y85.0 E60.2 ;horizontal move
G1 X37.9 Y84.7 E61.4 ;horizontal move
G1 X37.0 Y84.4 E62.4 ;horizontal move
G1 X36.9 E62.5 ;horizontal move
G1 X36.3 Y84.0 E63.2 ;horizontal move
G1 X35.6 Y83.4 E64.1 ;horizontal move
G1 X35.1 Y82.6 E65.1 ;horizontal move
G1 X34.6 Y81.7 E66.1 ;horizontal move
G1 X34.2 Y80.7 E67.2 ;horizontal move
G1 X33.9 Y79.5 E68.4 ;horizontal move
G1 X33.8 Y78.2 E69.7 ;horizontal move
G1 X34.0 Y76.9 E71.0 ;horizontal move
G1 X34.4 Y75.8 E72.2 ;horizontal move
G1 X34.9 Y74.8 E73.3 ;horizontal move
G1 X35.8 Y73.5 E74.9 ;horizontal move
G1 X36.9 Y72.4 E76.5 ;horizontal move
G1 X38.5 Y71.2 E78.5 ;horizontal move
G1 X40.5 Y70.0 E80.8 ;horizontal move
G1 X42.5 Y69.0 E83.0 ;horizontal move
G1 X43.7 Y68.6 E84.3 ;horizontal move
G1 X44.4 Y68.4 E85.0 ;horizontal move
G1 X44.5 E85.1 ;horizontal move
G1 X45.1 Y68.3 E85.7 ;horizontal move
G1 X45.2 E85.8 F1056.7 ;horizontal move
G1 X45.8 Y68.4 E86.4 F1080.0 ;horizontal move
G1 X46.4 Y68.6 E87.1 ;horizontal move
G1 X46.8 Y68.8 E87.5 ;horizontal move
G1 X47.5 Y69.2 E88.3 ;horizontal move
G1 X48.0 Y69.6 E89.0 ;horizontal move
G1 X48.4 Y70.1 E89.6 ;horizontal move
G1 X48.7 Y70.6 E90.2 ;horizontal move
G1 X48.9 Y71.2 E90.8 ;horizontal move
G1 Y72.0 E91.6 ;horizontal move
G1 X49.0 Y73.0 E92.6 ;horizontal move
G1 X48.9 Y74.1 E93.7 ;horizontal move
G1 Y74.5 E94.1 F392.0 ;horizontal move
G1 X49.2 Y74.2 E94.5 F1080.0 ;horizontal move
G1 X50.2 Y73.4 E95.8 ;horizontal move
G1 X52.2 Y71.7 E98.5 ;horizontal move
G1 X53.8 Y70.0 E100.8 ;horizontal move
G1 X55.1 Y68.3 E102.9 ;horizontal move
G1 X56.2 Y66.4 E105.1 ;horizontal move
G1 X56.3 E105.2 ;horizontal move
G1 X57.2 Y64.3 E107.5 ;horizontal move
G1 X58.0 Y62.0 E109.9 ;horizontal move
G1 X58.6 Y59.4 E112.6 ;horizontal move
G1 X59.0 Y56.6 E115.4 ;horizontal move
G1 X59.1 Y53.8 E118.2 ;horizontal move
G1 X58.9 Y50.9 E121.1 ;horizontal move
G1 X58.4 Y48.1 E124.0 ;horizontal move
G1 X57.7 Y45.3 E126.9 ;horizontal move
G1 X56.7 Y42.5 E129.9 ;horizontal move
G1 X55.4 Y39.7 E132.9 ;horizontal move
G1 Y39.6 E133.0 ;horizontal move
G1 X54.1 Y37.3 E135.7 ;horizontal move
G1 X52.4 Y35.0 E138.5 ;horizontal move
G1 X50.5 Y32.8 E141.4 ;horizontal move
G1 X48.3 Y30.7 E144.5 ;horizontal move
G1 X45.9 Y28.7 E147.6 ;horizontal move
G1 X45.8 E147.7 ;horizontal move
G1 X43.5 Y27.1 E150.5 ;horizontal move
G1 X41.3 Y25.8 E153.1 ;horizontal move
G1 X39.0 Y24.8 E155.6 ;horizontal move
G1 X36.6 Y24.1 E158.1 ;horizontal move
G1 X34.0 Y23.5 E160.7 ;horizontal move
G1 X31.4 Y23.3 E163.4 ;horizontal move
G1 X27.9 E166.9 ;horizontal move
G1 X25.9 Y23.2 E168.9 ;horizontal move
G1 X24.2 Y23.0 E170.6 ;horizontal move
G1 X24.1 E170.7 F1074.8 ;horizontal move
G1 X22.3 Y22.4 E172.6 F1080.0 ;horizontal move
G1 X20.5 Y21.7 E174.5 ;horizontal move
G1 X18.7 Y20.6 E176.6 ;horizontal move
G1 X17.0 Y19.3 E178.7 ;horizontal move
G1 X15.2 Y17.6 E181.2 ;horizontal move
G1 X12.7 Y15.0 E184.8 ;horizontal move
G1 X0.6 Y1.3 E203.1 ;horizontal move
G1 X0.4 Y0.9 E203.6 F374.5 ;horizontal move
G1 Y1.4 E204.1 F1080.0 ;horizontal move
G1 X0.3 Y48.0 E250.7 ;horizontal move
G1 X0.4 E250.8 ;horizontal move
G1 X0.7 Y49.8 E252.6 ;horizontal move
G1 X1.2 Y52.0 E254.8 ;horizontal move
G1 X1.8 Y53.7 E256.6 ;horizontal move
G1 X2.5 Y55.2 E258.3 ;horizontal move
G1 X3.5 Y56.6 E260.0 ;horizontal move
G1 X4.8 Y57.8 E261.8 ;horizontal move
G1 X6.3 Y59.0 E263.7 ;horizontal move
G1 X7.9 Y59.9 E265.5 ;horizontal move
G1 X9.7 Y60.5 E267.4 ;horizontal move
G1 X11.5 Y60.9 E269.3 ;horizontal move
G1 X13.2 Y61.0 E271.0 ;horizontal move
G1 X15.0 Y60.8 E272.8 ;horizontal move
G1 X16.3 Y60.5 E274.1 ;horizontal move
G1 X16.8 Y60.4 E274.6 F363.1 ;horizontal move
G1 X16.4 Y60.2 E275.1 F975.4 ;horizontal move
G1 X14.7 Y59.3 E277.0 F1080.0 ;horizontal move
G1 X13.9 Y58.7 E278.0 ;horizontal move
G1 X13.2 Y58.2 E278.9 ;horizontal move
G1 X12.8 Y57.7 E279.5 ;horizontal move
G1 X12.7 E279.6 F1072.4 ;horizontal move
G1 X12.4 Y57.2 E280.2 F1080.0 ;horizontal move
G1 Y57.1 E280.3 ;horizontal move
G1 X12.2 Y56.5 E280.9 ;horizontal move
G1 X12.1 Y55.9 E281.5 ;horizontal move
G1 Y55.2 E282.2 ;horizontal move
G1 Y55.1 E282.3 F1072.0 ;horizontal move
G1 X12.2 Y54.3 E283.1 F1080.0 ;horizontal move
G1 X12.4 Y53.3 E284.2 ;horizontal move
G1 Y53.2 E284.3 F1053.1 ;horizontal move
G1 X12.7 Y52.9 E284.7 F1080.0 ;horizontal move
G1 X13.1 Y51.9 E285.8 ;horizontal move
G1 X13.6 Y51.1 E286.7 ;horizontal move
G1 X14.2 Y50.4 E287.6 ;horizontal move
G1 X14.8 Y50.0 E288.3 ;horizontal move
G1 Y49.9 E288.4 F1058.7 ;horizontal move
G1 X15.7 Y49.6 E289.4 F1080.0 ;horizontal move
G1 X16.7 Y49.3 E290.4 ;horizontal move
G1 X18.4 Y49.0 E292.2 ;horizontal move
G1 X20.8 Y48.9 E294.6 ;horizontal move
G1 X22.5 Y49.0 E296.3 ;horizontal move
G1 X23.7 Y49.2 E297.5 ;horizontal move
G1 X24.5 Y49.5 E298.3 ;horizontal move
G1 X25.5 Y50.0 E299.5 ;horizontal move
G1 X26.4 Y50.7 E300.6 ;horizontal move
G1 X27.2 Y51.5 E301.7 ;horizontal move
G1 X28.0 Y52.6 E303.1 ;horizontal move
G1 X28.6 Y53.8 E304.4 ;horizontal move
G1 X28.9 Y55.1 E305.8 ;horizontal move
G1 X29.1 Y56.4 E307.1 ;horizontal move
G1 X29.0 Y57.7 E308.4 ;horizontal move
G1 X28.7 Y59.0 E309.7 ;horizontal move
G1 Y59.1 E309.8 F1073.9 ;horizontal move
G1 X28.3 Y60.1 E310.9 F1080.0 ;horizontal move
G1 X27.7 Y61.1 E312.1 ;horizontal move
G1 X26.6 Y62.4 E313.8 ;horizontal move
G1 X24.3 Y64.8 E317.1 ;horizontal move
G1 X22.2 Y67.4 E320.4 ;horizontal move
G1 X20.3 Y70.1 E323.7 ;horizontal move
G1 X19.2 Y71.9 E325.8 ;horizontal move
G1 X18.4 Y73.5 E327.6 ;horizontal move
G1 X17.9 Y75.0 E329.2 ;horizontal move
G1 X17.7 Y76.0 E330.2 ;horizontal move
G1 Y76.1 E330.3 F1073.5 ;horizontal move
G1 Y76.7 E330.9 F1080.0 ;horizontal move
G1 Y77.1 E331.3 F462.4 ;horizontal move
G1 X17.9 Y76.7 E331.8 F1080.0 ;horizontal move
G1 X18.5 Y75.5 E333.1 ;horizontal move
G1 X18.7 Y75.1 E333.6 F312.7 ;horizontal move
G1 Y75.5 E334.0 F1080.0 ;horizontal move
G1 X18.1 Y78.9 E337.4 ;horizontal move
G1 Y79.0 E337.5 ;horizontal move
G1 X18.4 Y79.7 E338.3 ;horizontal move
G1 X19.1 Y81.2 E339.9 ;horizontal move
G1 X20.1 Y82.8 E341.8 ;horizontal move
G1 X21.4 Y84.4 E343.9 ;horizontal move
G1 X22.9 Y85.8 E345.9 ;horizontal move
G1 X24.6 Y87.0 E348.0 ;horizontal move
G1 X26.4 Y87.9 E350.0 ;horizontal move
G1 X28.2 Y88.5 E351.9 ;horizontal move
G1 X30.2 Y88.9 E354.0 ;horizontal move
G1 X32.3 Y89.1 E356.1 ;horizontal move
G1 X34.2 Y88.9 E358.0 ;horizontal move
G1 X34.3 E358.1 ;horizontal move
G1 X36.2 Y88.5 E360.0 ;horizontal move
G1 X36.3 E360.1 F1077.0 ;horizontal move
G1 X38.3 Y87.8 E362.3 F1080.0 ;horizontal move
G1 X40.5 Y86.8 E364.7 ;horizontal move
G1 X42.9 Y85.5 E367.4 ;horizontal move
G1 X43.3 Y85.3 E367.8 F317.6 ;horizontal move
G1 X42.9 Y85.4 E368.3 F1080.0 ;horizontal move
G1 X39.1 Y86.0 E372.1 ;horizontal move
G1 F1200.0; feed for start of next move
G1 E365.4; extruder retraction
G1 F600.0; feed for start of next move
G1 X38.8 F1200.0 ;horizontal move
G1 E372.1; extruder dwell
G1 F600.0; feed for start of next move
G1 X38.1 Y85.4 E373.0 ;horizontal move
G1 F1200.0; feed for start of next move
G1 E366.4; extruder retraction
G1 F600.0; feed for start of next move
G1 X38.5 Y85.5 F1200.0 ;horizontal move
G1 X40.6 Y85.7 ;horizontal move
G1 X41.0 Y85.8 F600.0 ;horizontal move
G1 F1200.0; feed for start of next move
G1 E373.0; extruder dwell
G1 F600.0; feed for start of next move
G1 Y85.9 E373.1 ;horizontal move
G1 F1200.0; feed for start of next move
G1 E366.5; extruder retraction
G1 F600.0; feed for start of next move
G1 X41.3 Y85.5 F1200.0 ;horizontal move
G1 X49.5 Y73.4 ;horizontal move
G1 X49.8 Y73.0 F600.0 ;horizontal move
G1 F1200.0; feed for start of next move
G1 E373.1; extruder dwell
G1 F600.0; feed for start of next move
G1 X49.6 Y72.8 E373.4 F509.5 ;horizontal move
G1 X49.5 Y71.9 E374.3 F480.0 ;horizontal move
G1 Y71.1 E375.1 F482.4 ;horizontal move
G1 X49.2 Y70.3 E376.0 F484.4 ;horizontal move
G1 X48.9 Y69.7 E376.6 F481.9 ;horizontal move
G1 X48.5 Y69.3 E377.2 F480.0 ;horizontal move
G1 X48.4 Y69.2 E377.3 F300.4 ;horizontal move
G1 X48.5 E377.4 F480.0 ;horizontal move
G1 X51.1 Y71.9 E381.2 ;horizontal move
G1 X51.8 Y71.2 E382.2 F480.4 ;horizontal move
G1 X52.3 Y70.7 E382.9 F597.5 ;horizontal move
G1 X0.9 Y19.3 E455.6 F515.1 ;horizontal move
G1 Y17.0 E457.9 F480.0 ;horizontal move
G1 Y16.9 E458.0 F387.9 ;horizontal move
G1 X1.0 Y17.0 E458.1 F480.0 ;horizontal move
G1 X53.5 Y69.5 E532.4 ;horizontal move
G1 X54.5 Y68.1 E534.1 F584.9 ;horizontal move
G1 X0.9 Y14.5 E609.9 F515.1 ;horizontal move
G1 Y12.2 E612.2 F480.0 ;horizontal move
G1 Y12.1 E612.3 F387.9 ;horizontal move
G1 X1.0 Y12.2 E612.4 F480.0 ;horizontal move
G1 X55.4 Y66.6 E689.4 ;horizontal move
G1 X55.7 Y66.1 E690.0 F480.8 ;horizontal move
G1 X56.2 Y65.0 E691.2 F557.7 ;horizontal move
G1 X0.9 Y9.7 E769.4 F515.1 ;horizontal move
G1 Y7.4 E771.7 F480.0 ;horizontal move
G1 Y7.3 E771.8 F387.9 ;horizontal move
G1 X1.0 E771.9 F480.0 ;horizontal move
G1 X56.9 Y63.3 E851.0 ;horizontal move
G1 X57.4 Y61.8 E852.6 ;horizontal move
G1 X57.5 Y61.5 E852.9 F536.6 ;horizontal move
G1 X0.9 Y4.9 E932.9 F515.1 ;horizontal move
G1 Y2.6 E935.2 F480.0 ;horizontal move
G1 Y2.5 E935.3 F374.5 ;horizontal move
G1 X1.0 Y2.6 E935.5 F480.0 ;horizontal move
G1 X12.2 Y15.4 E952.5 ;horizontal move
G1 X14.7 Y18.0 E956.1 F480.3 ;horizontal move
G1 X16.6 Y19.7 E958.6 F480.5 ;horizontal move
G1 X18.4 Y21.1 E960.9 F480.7 ;horizontal move
G1 X20.2 Y22.2 E963.0 F480.9 ;horizontal move
G1 X20.9 Y22.5 E963.8 F488.1 ;horizontal move
G1 X57.9 Y59.5 E1016.1 F480.0 ;horizontal move
G1 X58.0 E1016.2 F441.5 ;horizontal move
G1 Y59.3 E1016.4 F480.0 ;horizontal move
G1 X58.3 Y57.4 E1018.3 F527.6 ;horizontal move
G1 X24.5 Y23.6 E1066.1 F480.0 ;horizontal move
G1 X25.9 Y23.8 E1067.6 ;horizontal move
G1 X27.1 E1068.8 F512.6 ;horizontal move
G1 X58.4 Y55.2 E1113.1 F480.0 ;horizontal move
G1 X58.5 Y53.8 E1114.5 ;horizontal move
G1 X58.4 Y52.8 E1115.5 F510.0 ;horizontal move
G1 X29.6 Y23.9 E1156.3 F480.0 ;horizontal move
G1 X29.5 E1156.4 F385.5 ;horizontal move
G1 X29.6 E1156.5 F480.0 ;horizontal move
G1 X31.4 E1158.3 ;horizontal move
G1 X32.0 Y24.0 E1158.9 F507.8 ;horizontal move
G1 X58.1 Y50.1 E1195.8 F480.0 ;horizontal move
G1 X58.2 E1195.9 F356.8 ;horizontal move
G1 X57.9 Y48.2 E1197.8 F480.0 ;horizontal move
G1 X57.6 Y47.1 E1199.0 F496.7 ;horizontal move
G1 X34.8 Y24.3 E1231.2 F480.0 ;horizontal move
G1 X36.4 Y24.6 E1232.9 ;horizontal move
G1 X38.0 Y25.1 E1234.5 F493.6 ;horizontal move
G1 X56.5 Y43.6 E1260.7 F480.0 ;horizontal move
G1 X56.2 Y42.7 E1261.6 ;horizontal move
G1 X54.9 Y39.9 E1264.7 F480.6 ;horizontal move
G1 X54.5 Y39.2 E1265.5 F484.0 ;horizontal move
G1 X42.4 Y27.2 E1282.6 F600.0 ;horizontal move
G1 F1200.0; feed for start of next move
G1 E1275.9; extruder retraction
G1 F600.0; feed for start of next move
G1 X42.2 Y27.6 F1200.0 ;horizontal move
G1 X29.7 Y54.7 ;horizontal move
G1 X29.5 Y55.1 F600.0 ;horizontal move
G1 F1200.0; feed for start of next move
G1 E1282.6; extruder dwell
G1 F600.0; feed for start of next move
G1 X42.7 Y68.3 E1301.2 F480.0 ;horizontal move
G1 X42.3 Y68.5 E1301.7 ;horizontal move
G1 X41.1 Y69.1 E1303.0 F560.4 ;horizontal move
G1 X29.6 Y57.6 E1319.3 F480.0 ;horizontal move
G1 Y57.8 E1319.5 ;horizontal move
G1 X29.3 Y59.2 E1320.9 F481.5 ;horizontal move
G1 X29.2 Y59.6 E1321.3 F552.2 ;horizontal move
G1 X39.5 Y69.9 E1335.9 F523.7 ;horizontal move
G1 X38.1 Y70.7 E1337.5 F481.0 ;horizontal move
G1 X38.0 Y70.8 E1337.7 F584.4 ;horizontal move
G1 X28.3 Y61.2 E1351.3 F528.1 ;horizontal move
G1 X28.2 Y61.5 E1351.6 F481.8 ;horizontal move
G1 X27.3 Y62.5 E1353.0 F591.6 ;horizontal move
G1 X36.6 Y71.9 E1366.2 F561.0 ;horizontal move
G1 X36.5 E1366.3 F481.1 ;horizontal move
G1 X35.4 Y73.0 E1367.8 F598.6 ;horizontal move
G1 X26.1 Y63.7 E1381.0 F594.3 ;horizontal move
G1 X24.9 Y65.0 E1382.8 F597.7 ;horizontal move
G1 X34.4 Y74.4 E1396.1 F575.2 ;horizontal move
G1 Y74.5 E1396.2 F481.3 ;horizontal move
G1 X33.8 Y75.6 E1397.5 F481.5 ;horizontal move
G1 X33.7 Y76.1 E1398.0 F480.0 ;horizontal move
G1 X33.6 E1398.1 ;horizontal move
G1 X23.8 Y66.3 E1412.0 ;horizontal move
G1 X22.8 Y67.6 E1413.6 F587.3 ;horizontal move
G1 X33.2 Y78.1 E1428.4 F527.6 ;horizontal move
G1 Y78.2 E1428.5 F482.1 ;horizontal move
G1 X33.3 Y79.6 E1429.9 F481.8 ;horizontal move
G1 X33.6 Y80.8 E1431.1 F480.0 ;horizontal move
G1 X21.8 Y69.0 E1447.8 ;horizontal move
G1 X20.8 Y70.4 E1449.5 F480.2 ;horizontal move
G1 X37.7 Y87.4 E1473.5 F480.0 ;horizontal move
G1 X36.1 Y87.9 E1475.2 ;horizontal move
G1 X35.9 E1475.4 F534.0 ;horizontal move
G1 X19.9 Y71.9 E1498.0 F528.4 ;horizontal move
G1 Y72.0 E1498.1 F488.5 ;horizontal move
G1 X19.5 Y74.0 E1500.1 F530.4 ;horizontal move
G1 X33.9 Y88.3 E1520.4 F480.0 ;horizontal move
G1 X33.8 E1520.5 ;horizontal move
G1 X32.3 Y88.5 E1522.0 ;horizontal move
G1 X31.6 Y88.4 E1522.8 F510.0 ;horizontal move
G1 X19.2 Y76.1 E1540.2 F480.0 ;horizontal move
G1 Y76.0 E1540.3 F426.0 ;horizontal move
G1 Y76.1 E1540.4 F480.0 ;horizontal move
G1 X18.8 Y78.1 E1542.5 ;horizontal move
G1 X28.7 Y88.0 E1556.5 ;horizontal move
G1 X28.8 E1556.6 F351.2 ;horizontal move
G1 X28.7 E1556.7 F480.0 ;horizontal move
G1 X28.4 E1557.0 ;horizontal move
G1 X26.6 Y87.3 E1558.9 F481.1 ;horizontal move
G1 X24.9 Y86.5 E1560.8 F481.2 ;horizontal move
G1 X24.6 Y86.2 E1561.2 F481.7 ;horizontal move
G1 X20.3 Y82.0 E1567.2 F600.0 ;horizontal move
G1 F1200.0; feed for start of next move
G1 E1560.5; extruder retraction
G1 F600.0; feed for start of next move
G1 X20.1 Y81.6 F1200.0 ;horizontal move
G1 X3.8 Y56.1 ;horizontal move
G1 X3.6 Y55.7 F600.0 ;horizontal move
G1 F1200.0; feed for start of next move
G1 E1567.2; extruder dwell
G1 F600.0; feed for start of next move
G1 X5.9 Y57.9 E1570.4 F481.1 ;horizontal move
G1 X6.6 Y58.5 E1571.3 F481.3 ;horizontal move
G1 X8.2 Y59.3 E1573.1 F481.4 ;horizontal move
G1 X9.8 Y60.0 E1574.8 F481.5 ;horizontal move
G1 X10.4 Y60.1 E1575.5 F480.0 ;horizontal move
G1 X1.7 Y51.3 E1587.8 ;horizontal move
G1 X1.3 Y49.7 E1589.5 F480.1 ;horizontal move
G1 X1.0 Y48.3 E1590.9 F480.0 ;horizontal move
G1 Y48.2 E1591.0 F352.1 ;horizontal move
G1 Y48.3 E1591.1 F480.0 ;horizontal move
G1 X13.1 Y60.4 E1608.2 ;horizontal move
G1 X13.2 E1608.3 F481.4 ;horizontal move
G1 X14.9 Y60.2 E1610.0 F480.9 ;horizontal move
G1 X15.0 E1610.1 F480.0 ;horizontal move
G1 Y60.1 E1610.2 ;horizontal move
G1 X14.4 Y59.8 E1610.9 ;horizontal move
G1 X13.5 Y59.2 E1612.0 ;horizontal move
G1 X12.8 Y58.7 E1612.8 F482.7 ;horizontal move
G1 X12.3 Y58.0 E1613.7 F481.9 ;horizontal move
G1 X11.9 Y57.4 E1614.4 F483.4 ;horizontal move
G1 X11.6 Y56.7 E1615.2 F481.7 ;horizontal move
G1 Y56.4 E1615.5 F504.0 ;horizontal move
G1 X1.0 Y45.8 E1630.5 F515.1 ;horizontal move
G1 Y43.4 E1632.9 F480.0 ;horizontal move
G1 X11.6 Y54.1 E1647.9 ;horizontal move
G1 Y54.0 E1648.0 ;horizontal move
G1 X11.9 Y53.0 E1649.1 ;horizontal move
G1 X12.1 Y52.6 E1649.5 F480.7 ;horizontal move
G1 X12.3 Y52.3 E1649.9 F560.1 ;horizontal move
G1 X1.0 Y41.0 E1665.9 F515.1 ;horizontal move
G1 X0.9 Y38.6 E1668.3 F480.0 ;horizontal move
G1 X1.0 E1668.4 ;horizontal move
G1 X13.1 Y50.7 E1685.5 ;horizontal move
G1 X13.8 Y50.0 E1686.5 F482.0 ;horizontal move
G1 X14.3 Y49.6 E1687.1 F560.1 ;horizontal move
G1 X0.9 Y36.2 E1706.1 F515.1 ;horizontal move
G1 Y33.8 E1708.5 F480.0 ;horizontal move
G1 X1.0 E1708.6 ;horizontal move
G1 X16.1 Y48.9 E1729.9 ;horizontal move
G1 X16.6 Y48.7 E1730.5 F481.6 ;horizontal move
G1 X18.0 Y48.4 E1731.9 F480.0 ;horizontal move
G1 X0.9 Y31.4 E1756.0 ;horizontal move
G1 X1.0 E1756.1 F515.1 ;horizontal move
G1 X0.9 Y29.0 E1758.5 F480.0 ;horizontal move
G1 X1.0 E1758.6 ;horizontal move
G1 X20.3 Y48.3 E1785.9 ;horizontal move
G1 X20.8 E1786.4 F480.5 ;horizontal move
G1 X22.5 Y48.4 E1788.1 F481.2 ;horizontal move
G1 X22.8 E1788.4 F480.0 ;horizontal move
G1 X0.9 Y26.6 E1819.3 ;horizontal move
G1 Y24.2 E1821.7 ;horizontal move
G1 Y24.1 E1821.8 F387.9 ;horizontal move
G1 X1.0 Y24.2 E1821.9 F480.0 ;horizontal move
G1 X44.6 Y67.8 E1883.6 ;horizontal move
G1 X45.2 Y67.7 E1884.2 F485.8 ;horizontal move
G1 X45.9 Y67.9 E1884.9 F480.3 ;horizontal move
G1 X46.6 Y68.1 E1885.7 F481.8 ;horizontal move
G1 X47.1 Y68.3 E1886.2 F480.7 ;horizontal move
G1 X47.8 Y68.7 E1887.0 F481.4 ;horizontal move
G1 X48.3 Y69.1 E1887.7 F480.0 ;horizontal move
G1 X48.4 Y69.2 E1887.8 F301.2 ;horizontal move
G1 X48.3 Y69.1 E1887.9 F480.0 ;horizontal move
G1 X1.0 Y21.7 E1954.9 ;horizontal move
G1 X0.9 E1955.0 F600.0 ;horizontal move
G1 F1200.0; feed for start of next move
G1 E1948.3; extruder retraction
G1 F600.0; feed for start of next move
M106 ;cooler on
G1 X0.5 F1200.0 ;horizontal move
G1 X-249.5 ;horizontal move
G1 X-250.0 F600.0 ;horizontal move
G92 X0 ;set x 0
G1 Y21.3 F1200.0 ;horizontal move
G1 Y-249.5 ;horizontal move
G1 Y-250.0 F600.0 ;horizontal move
G92 Y0 ;set y 0
G92 E0 ;zero the extruded length
;#!LAYER: 6/12
M107 ;cooler off
G4 P20 ;delay
G1 F40.0; feed for start of next move
G1 Z4.5 F67.8 ;z move
G1 Z5.0 F40.0 ;z move
G1 F600.0; feed for start of next move
G1 X-0.3 Y-0.3 F1200.0 ;horizontal move
G1 X-2.7 Y-2.7 ;horizontal move
G1 X-3.0 Y-3.0 F600.0 ;horizontal move
G1 F1200.0; feed for start of next move
G1 E6.7; extruder dwell
G1 F600.0; feed for start of next move
G1 X-5.0 Y6.9 E16.8 F480.0 ;horizontal move
G1 Y7.0 E16.9 F305.8 ;horizontal move
G1 Y6.9 E17.0 F480.0 ;horizontal move
G1 Y-5.0 E28.9 ;horizontal move
G1 X17.0 E50.9 F600.0 ;horizontal move
G1 F1200.0; feed for start of next move
G1 E44.2; extruder retraction
G1 F600.0; feed for start of next move
G1 X17.1 Y-4.6 F1200.0 ;horizontal move
G1 X39.4 Y64.8 ;horizontal move
G1 X39.5 Y65.2 F600.0 ;horizontal move
G1 F1200.0; feed for start of next move
G1 E50.9; extruder dwell
G1 F600.0; feed for start of next move
G1 X39.2 Y65.5 E51.3 F1080.0 ;horizontal move
G1 X21.6 Y83.1 E76.2 ;horizontal move
G1 X21.3 Y83.3 E76.5 F648.9 ;horizontal move
G1 X21.5 Y83.6 E76.9 F1080.0 ;horizontal move
G1 X21.7 Y83.7 E77.1 ;horizontal move
G1 X21.9 Y84.0 E77.5 F631.7 ;horizontal move
G1 X21.6 Y84.2 E77.8 F1043.7 ;horizontal move
G1 X21.4 Y84.4 E78.1 F580.2 ;horizontal move
G1 X21.7 Y84.6 E78.5 F1080.0 ;horizontal move
G1 X22.9 Y85.8 E80.2 ;horizontal move
G1 X24.6 Y87.0 E82.3 ;horizontal move
G1 X26.4 Y87.9 E84.3 ;horizontal move
G1 X28.2 Y88.5 E86.2 ;horizontal move
G1 X30.2 Y88.9 E88.2 ;horizontal move
G1 X32.3 Y89.1 E90.3 ;horizontal move
G1 X34.2 Y88.9 E92.2 ;horizontal move
G1 X34.3 E92.3 ;horizontal move
G1 X36.2 Y88.5 E94.3 ;horizontal move
G1 X36.3 E94.4 F1077.0 ;horizontal move
G1 X38.3 Y87.8 E96.5 F1080.0 ;horizontal move
G1 X40.5 Y86.8 E98.9 ;horizontal move
G1 X42.9 Y85.5 E101.6 ;horizontal move
G1 X43.3 Y85.3 E102.1 F335.6 ;horizontal move
G1 X42.9 E102.5 F1060.4 ;horizontal move
G1 X40.7 Y85.2 E104.7 F1080.0 ;horizontal move
G1 X39.1 Y85.0 E106.3 ;horizontal move
G1 X37.9 Y84.7 E107.5 ;horizontal move
G1 X37.0 Y84.4 E108.5 ;horizontal move
G1 X36.9 E108.6 ;horizontal move
G1 X36.3 Y84.0 E109.3 ;horizontal move
G1 X35.6 Y83.4 E110.2 ;horizontal move
G1 X35.1 Y82.6 E111.2 ;horizontal move
G1 X34.6 Y81.7 E112.2 ;horizontal move
G1 X34.2 Y80.7 E113.3 ;horizontal move
G1 X33.9 Y79.5 E114.5 ;horizontal move
G1 X33.8 Y78.3 E115.7 ;horizontal move
G1 X33.9 Y78.0 E116.0 ;horizontal move
G1 X34.0 Y76.9 E117.1 ;horizontal move
G1 X34.4 Y75.8 E118.3 ;horizontal move
G1 X34.9 Y74.8 E119.4 ;horizontal move
G1 X35.8 Y73.5 E121.0 ;horizontal move
G1 X36.9 Y72.4 E122.6 ;horizontal move
G1 X38.5 Y71.2 E124.6 ;horizontal move
G1 X40.5 Y70.0 E126.9 ;horizontal move
G1 X42.5 Y69.0 E129.1 ;horizontal move
G1 X43.7 Y68.6 E130.4 ;horizontal move
G1 X44.4 Y68.4 E131.1 ;horizontal move
G1 X44.5 E131.2 ;horizontal move
G1 X45.1 Y68.3 E131.8 ;horizontal move
G1 X45.2 E131.9 F1056.7 ;horizontal move
G1 X45.8 Y68.4 E132.6 F1080.0 ;horizontal move
G1 X46.4 Y68.6 E133.2 ;horizontal move
G1 X46.8 Y68.8 E133.6 ;horizontal move
G1 X47.5 Y69.2 E134.4 ;horizontal move
G1 X48.0 Y69.6 E135.1 ;horizontal move
G1 X48.4 Y70.1 E135.7 ;horizontal move
G1 X48.7 Y70.6 E136.3 ;horizontal move
G1 X48.9 Y71.2 E136.9 ;horizontal move
G1 Y72.0 E137.7 ;horizontal move
G1 X49.0 Y73.0 E138.7 ;horizontal move
G1 X48.9 Y74.1 E139.8 ;horizontal move
G1 Y74.5 E140.2 F392.0 ;horizontal move
G1 X49.2 Y74.2 E140.7 F1080.0 ;horizontal move
G1 X50.2 Y73.4 E141.9 ;horizontal move
G1 X52.2 Y71.7 E144.6 ;horizontal move
G1 X53.8 Y70.0 E146.9 ;horizontal move
G1 X55.1 Y68.3 E149.0 ;horizontal move
G1 X56.2 Y66.4 E151.2 ;horizontal move
G1 X56.3 E151.3 ;horizontal move
G1 X57.2 Y64.3 E153.6 ;horizontal move
G1 X58.0 Y62.0 E156.1 ;horizontal move
G1 X58.6 Y59.4 E158.7 ;horizontal move
G1 X59.0 Y56.6 E161.6 ;horizontal move
G1 X59.1 Y53.8 E164.4 ;horizontal move
G1 X58.9 Y50.9 E167.3 ;horizontal move
G1 X58.4 Y48.1 E170.1 ;horizontal move
G1 X57.7 Y45.3 E173.0 ;horizontal move
G1 X56.7 Y42.5 E176.0 ;horizontal move
G1 X55.4 Y39.7 E179.1 ;horizontal move
G1 Y39.6 E179.2 ;horizontal move
G1 X54.1 Y37.3 E181.8 ;horizontal move
G1 X52.4 Y35.0 E184.7 ;horizontal move
G1 X50.5 Y32.8 E187.6 ;horizontal move
G1 X48.3 Y30.7 E190.6 ;horizontal move
G1 X45.9 Y28.7 E193.7 ;horizontal move
G1 X45.8 E193.8 ;horizontal move
G1 X43.5 Y27.1 E196.6 ;horizontal move
G1 X41.3 Y25.8 E199.2 ;horizontal move
G1 X39.0 Y24.8 E201.7 ;horizontal move
G1 X36.6 Y24.1 E204.2 ;horizontal move
G1 X34.0 Y23.5 E206.9 ;horizontal move
G1 X31.4 Y23.3 E209.5 ;horizontal move
G1 X27.9 E213.0 ;horizontal move
G1 X25.9 Y23.2 E215.0 ;horizontal move
G1 X24.2 Y23.0 E216.7 ;horizontal move
G1 X24.1 E216.8 F1074.8 ;horizontal move
G1 X22.3 Y22.4 E218.7 F1080.0 ;horizontal move
G1 X20.5 Y21.7 E220.6 ;horizontal move
G1 X18.7 Y20.6 E222.7 ;horizontal move
G1 X17.0 Y19.3 E224.9 ;horizontal move
G1 X15.2 Y17.6 E227.3 ;horizontal move
G1 X12.7 Y15.0 E230.9 ;horizontal move
G1 X0.6 Y1.3 E249.2 ;horizontal move
G1 X0.4 Y0.9 E249.7 F374.5 ;horizontal move
G1 Y1.4 E250.2 F1080.0 ;horizontal move
G1 X0.3 Y48.0 E296.8 ;horizontal move
G1 X0.4 E296.9 ;horizontal move
G1 X0.7 Y49.8 E298.7 ;horizontal move
G1 X1.2 Y52.0 E301.0 ;horizontal move
G1 X1.8 Y53.7 E302.8 ;horizontal move
G1 X2.5 Y55.2 E304.4 ;horizontal move
G1 X3.5 Y56.6 E306.1 ;horizontal move
G1 X4.8 Y57.8 E307.9 ;horizontal move
G1 X6.3 Y59.0 E309.8 ;horizontal move
G1 X7.9 Y59.9 E311.7 ;horizontal move
G1 X9.7 Y60.5 E313.6 ;horizontal move
G1 X11.5 Y60.9 E315.4 ;horizontal move
G1 X13.2 Y61.0 E317.1 ;horizontal move
G1 X15.0 Y60.8 E318.9 ;horizontal move
G1 X16.3 Y60.5 E320.2 ;horizontal move
G1 X16.8 Y60.4 E320.8 F363.1 ;horizontal move
G1 X16.4 Y60.2 E321.2 F975.4 ;horizontal move
G1 X14.7 Y59.3 E323.1 F1080.0 ;horizontal move
G1 X13.9 Y58.7 E324.1 ;horizontal move
G1 X13.2 Y58.2 E325.0 ;horizontal move
G1 X12.8 Y57.7 E325.6 ;horizontal move
G1 X12.7 E325.7 F1072.4 ;horizontal move
G1 X12.4 Y57.2 E326.3 F1080.0 ;horizontal move
G1 Y57.1 E326.4 ;horizontal move
G1 X12.2 Y56.5 E327.0 ;horizontal move
G1 X12.1 Y55.9 E327.7 ;horizontal move
G1 Y55.2 E328.4 ;horizontal move
G1 Y55.1 E328.5 F1072.0 ;horizontal move
G1 X12.2 Y54.3 E329.3 F1080.0 ;horizontal move
G1 X12.4 Y53.3 E330.3 ;horizontal move
G1 Y53.2 E330.4 F1053.1 ;horizontal move
G1 X12.7 Y52.9 E330.8 F1080.0 ;horizontal move
G1 X13.1 Y51.9 E331.9 ;horizontal move
G1 X13.6 Y51.1 E332.8 ;horizontal move
G1 X14.2 Y50.4 E333.7 ;horizontal move
G1 X14.8 Y50.0 E334.5 ;horizontal move
G1 Y49.9 E334.6 F1058.7 ;horizontal move
G1 X15.7 Y49.6 E335.5 F1080.0 ;horizontal move
G1 X16.7 Y49.3 E336.6 ;horizontal move
G1 X18.4 Y49.0 E338.3 ;horizontal move
G1 X20.8 Y48.9 E340.7 ;horizontal move
G1 X22.5 Y49.0 E342.4 ;horizontal move
G1 X23.7 Y49.2 E343.6 ;horizontal move
G1 X24.5 Y49.5 E344.5 ;horizontal move
G1 X25.5 Y50.0 E345.6 ;horizontal move
G1 X26.4 Y50.7 E346.7 ;horizontal move
G1 X27.2 Y51.5 E347.9 ;horizontal move
G1 X28.0 Y52.6 E349.2 ;horizontal move
G1 X28.6 Y53.8 E350.6 ;horizontal move
G1 X28.9 Y55.1 E351.9 ;horizontal move
G1 X29.1 Y56.4 E353.2 ;horizontal move
G1 X29.0 Y57.7 E354.5 ;horizontal move
G1 X28.7 Y59.0 E355.8 ;horizontal move
G1 Y59.1 E355.9 F1073.9 ;horizontal move
G1 X28.3 Y60.1 E357.0 F1080.0 ;horizontal move
G1 X27.7 Y61.1 E358.2 ;horizontal move
G1 X26.6 Y62.4 E359.9 ;horizontal move
G1 X24.3 Y64.8 E363.2 ;horizontal move
G1 X22.2 Y67.4 E366.6 ;horizontal move
G1 X20.3 Y70.1 E369.9 ;horizontal move
G1 X19.2 Y71.9 E372.0 ;horizontal move
G1 X18.4 Y73.5 E373.8 ;horizontal move
G1 X17.9 Y75.0 E375.3 ;horizontal move
G1 X17.7 Y76.0 E376.4 ;horizontal move
