; GCode generated by RepRap Java Host Software
; Created: 2010-02-26:15-17-11
G21 ;metric is good!
G90 ;absolute positioning
T0; select new extruder
M108 S0.6; set extruder PWM
G92 E0 ;zero the extruded length
G28; go home
G1 F600.0; feed for start of next move
G1 X0.3 Y0.3 F1200.0 ;horizontal move
G1 X4.7 Y4.7 ;horizontal move
G1 X5.0 Y5.0 F600.0 ;horizontal move
M109 S165.0 ;set temperature and wait
G1 F1200.0; feed for start of next move
G1 E200.0; extruder dwell
G1 F600.0; feed for start of next move
G28; go home
G92 E0 ;zero the extruded length
;#!LAYER: 1/6
M107 ;cooler off
G4 P20 ;delay
G1 F40.0; feed for start of next move
G1 Z0.0 F67.8 ;z move
G1 Z0.5 F40.0 ;z move
G1 F600.0; feed for start of next move
G1 X-0.3 Y-0.3 F1200.0 ;horizontal move
G1 X-2.7 Y-2.7 ;horizontal move
G1 X-3.0 Y-3.0 F600.0 ;horizontal move
G4 P100 ;delay
G1 F1200.0; feed for start of next move
G1 E10.0; extruder dwell
G1 F600.0; feed for start of next move
G1 X-5.0 Y6.9 E20.1 F480.0 ;horizontal move
G1 Y7.0 E20.2 F305.8 ;horizontal move
G1 Y6.9 E20.3 F480.0 ;horizontal move
G1 Y-5.0 E32.2 ;horizontal move
G1 X17.0 E54.2 F600.0 ;horizontal move
G1 F1200.0; feed for start of next move
G1 E44.2; extruder retraction
G1 F600.0; feed for start of next move
G1 X17.1 Y-4.6 F1200.0 ;horizontal move
G1 X38.7 Y85.6 ;horizontal move
G1 X38.8 Y86.0 F600.0 ;horizontal move
G4 P100 ;delay
G1 F1200.0; feed for start of next move
G1 E54.2; extruder dwell
G1 F600.0; feed for start of next move
G1 X39.0 Y86.2 E54.5 F1080.0 ;horizontal move
G1 X39.3 Y86.5 E54.9 ;horizontal move
G1 X39.4 Y86.7 E55.1 F773.8 ;horizontal move
G1 X39.6 Y86.6 E55.4 F1080.0 ;horizontal move
G1 X40.2 Y86.3 E56.0 ;horizontal move
G1 X41.0 Y85.9 E56.9 ;horizontal move
G1 X42.9 Y85.4 E58.9 ;horizontal move
G1 X43.3 Y85.3 E59.3 F308.1 ;horizontal move
G1 X42.9 E59.7 F1075.8 ;horizontal move
G1 X40.7 Y85.2 E61.9 F1080.0 ;horizontal move
G1 X39.1 Y85.0 E63.5 ;horizontal move
G1 X37.9 Y84.7 E64.7 ;horizontal move
G1 X37.0 Y84.4 E65.7 ;horizontal move
G1 X36.3 Y84.0 E66.5 ;horizontal move
G1 X35.6 Y83.4 E67.4 ;horizontal move
G1 X35.1 Y82.6 E68.4 ;horizontal move
G1 X34.6 Y81.7 E69.4 ;horizontal move
G1 X34.2 Y80.7 E70.5 ;horizontal move
G1 X33.9 Y79.5 E71.7 ;horizontal move
G1 X33.8 Y78.3 E72.9 ;horizontal move
G1 X33.9 Y78.0 E73.2 ;horizontal move
G1 X34.0 Y76.9 E74.3 ;horizontal move
G1 X34.4 Y75.8 E75.5 ;horizontal move
G1 X34.9 Y74.8 E76.6 ;horizontal move
G1 X35.8 Y73.5 E78.2 ;horizontal move
G1 X36.9 Y72.4 E79.8 ;horizontal move
G1 X38.4 Y71.2 E81.7 ;horizontal move
G1 X40.2 Y70.2 E83.7 ;horizontal move
G1 X42.3 Y69.1 E86.1 ;horizontal move
G1 X43.6 Y68.7 E87.5 ;horizontal move
G1 X44.4 Y68.4 E88.3 ;horizontal move
G1 X44.5 E88.4 F1069.9 ;horizontal move
G1 X45.1 Y68.3 E89.0 F1080.0 ;horizontal move
G1 X45.8 Y68.4 E89.7 ;horizontal move
G1 X46.4 Y68.6 E90.4 ;horizontal move
G1 X46.8 Y68.8 E90.8 ;horizontal move
G1 X47.5 Y69.2 E91.6 ;horizontal move
G1 X48.0 Y69.6 E92.3 ;horizontal move
G1 X48.4 Y70.1 E92.9 ;horizontal move
G1 X48.7 Y70.6 E93.5 ;horizontal move
G1 X48.9 Y71.1 E94.0 ;horizontal move
G1 Y71.2 E94.1 F1052.5 ;horizontal move
G1 Y72.0 E94.9 F1080.0 ;horizontal move
G1 X49.0 Y73.0 E95.9 ;horizontal move
G1 X48.9 Y74.1 E97.0 ;horizontal move
G1 Y74.5 E97.4 F392.1 ;horizontal move
G1 X49.2 Y74.2 E97.9 F1080.0 ;horizontal move
G1 X50.2 Y73.4 E99.1 ;horizontal move
G1 X52.2 Y71.7 E101.8 ;horizontal move
G1 X53.8 Y70.0 E104.1 ;horizontal move
G1 X55.1 Y68.3 E106.2 ;horizontal move
G1 X56.2 Y66.4 E108.4 ;horizontal move
G1 X57.2 Y64.3 E110.8 ;horizontal move
G1 X58.0 Y62.0 E113.2 ;horizontal move
G1 X58.6 Y59.4 E115.9 ;horizontal move
G1 X59.0 Y56.7 E118.6 ;horizontal move
G1 X59.1 Y53.8 E121.5 ;horizontal move
G1 X58.9 Y51.0 E124.3 ;horizontal move
G1 X58.5 Y48.2 E127.1 ;horizontal move
G1 X57.7 Y45.4 E130.0 ;horizontal move
G1 X56.8 Y42.6 E133.0 ;horizontal move
G1 Y42.5 E133.1 ;horizontal move
G1 X55.5 Y39.7 E136.2 ;horizontal move
G1 X54.1 Y37.4 E138.9 ;horizontal move
G1 X52.5 Y35.1 E141.7 ;horizontal move
G1 X50.5 Y32.8 E144.7 ;horizontal move
G1 X48.4 Y30.7 E147.7 ;horizontal move
G1 X46.0 Y28.8 E150.7 ;horizontal move
G1 X43.6 Y27.1 E153.7 ;horizontal move
G1 X41.4 Y25.9 E156.2 ;horizontal move
G1 X39.1 Y24.9 E158.7 ;horizontal move
G1 X36.7 Y24.1 E161.2 ;horizontal move
G1 X34.2 Y23.6 E163.8 ;horizontal move
G1 X34.1 E163.9 F1077.2 ;horizontal move
G1 X31.6 Y23.3 E166.4 F1080.0 ;horizontal move
G1 X26.1 Y23.2 E171.9 ;horizontal move
G1 X24.3 Y23.0 E173.7 ;horizontal move
G1 X22.4 Y22.5 E175.7 ;horizontal move
G1 X20.6 Y21.7 E177.6 ;horizontal move
G1 X18.9 Y20.7 E179.6 ;horizontal move
G1 X17.1 Y19.4 E181.8 ;horizontal move
G1 X15.3 Y17.7 E184.3 ;horizontal move
G1 X12.8 Y15.2 E187.9 ;horizontal move
G1 X0.6 Y1.3 E206.3 ;horizontal move
G1 X0.4 Y0.9 E206.8 F374.6 ;horizontal move
G1 Y1.4 E207.3 F1080.0 ;horizontal move
G1 X0.3 Y48.0 E253.9 ;horizontal move
G1 X0.4 E254.0 ;horizontal move
G1 X0.7 Y49.8 E255.8 ;horizontal move
G1 X1.2 Y52.0 E258.1 ;horizontal move
G1 X1.8 Y53.7 E259.9 ;horizontal move
G1 X2.5 Y55.2 E261.5 ;horizontal move
G1 X3.5 Y56.6 E263.3 ;horizontal move
G1 X4.7 Y57.8 E265.0 ;horizontal move
G1 X6.2 Y59.0 E266.9 ;horizontal move
G1 X7.9 Y59.9 E268.8 ;horizontal move
G1 X9.6 Y60.5 E270.6 ;horizontal move
G1 X9.7 E270.7 ;horizontal move
G1 X11.4 Y60.9 E272.4 ;horizontal move
G1 X13.2 Y61.0 E274.2 ;horizontal move
G1 X14.9 Y60.8 E276.0 ;horizontal move
G1 X15.0 E276.1 F1076.5 ;horizontal move
G1 X16.4 Y60.5 E277.5 F1080.0 ;horizontal move
G1 X16.8 Y60.4 E277.9 F361.8 ;horizontal move
G1 X16.4 Y60.2 E278.4 F1001.4 ;horizontal move
G1 X14.7 Y59.3 E280.3 F1080.0 ;horizontal move
G1 X13.9 Y58.7 E281.3 ;horizontal move
G1 X13.2 Y58.2 E282.1 ;horizontal move
G1 X12.8 Y57.7 E282.8 ;horizontal move
G1 X12.7 E282.9 F1072.4 ;horizontal move
G1 X12.4 Y57.2 E283.5 F1080.0 ;horizontal move
G1 Y57.1 E283.6 ;horizontal move
G1 X12.2 Y56.5 E284.2 ;horizontal move
G1 X12.1 Y55.9 E284.8 ;horizontal move
G1 Y55.2 E285.5 ;horizontal move
G1 Y55.1 E285.6 F1072.0 ;horizontal move
G1 X12.2 Y54.3 E286.4 F1080.0 ;horizontal move
G1 X12.4 Y53.3 E287.4 ;horizontal move
G1 Y53.2 E287.5 F1053.1 ;horizontal move
G1 X12.7 Y52.9 E287.9 F1080.0 ;horizontal move
G1 X13.1 Y51.9 E289.0 ;horizontal move
G1 X13.6 Y51.1 E290.0 ;horizontal move
G1 X14.2 Y50.4 E290.9 ;horizontal move
G1 X14.8 Y50.0 E291.6 ;horizontal move
G1 Y49.9 E291.7 F1058.7 ;horizontal move
G1 X15.7 Y49.6 E292.7 F1080.0 ;horizontal move
G1 X16.7 Y49.3 E293.7 ;horizontal move
G1 X18.4 Y49.0 E295.4 ;horizontal move
G1 X20.8 Y48.9 E297.8 ;horizontal move
G1 X22.5 Y49.0 E299.5 ;horizontal move
G1 X23.7 Y49.2 E300.8 ;horizontal move
G1 X24.6 Y49.5 E301.7 ;horizontal move
G1 X25.5 Y50.0 E302.7 ;horizontal move
G1 X26.4 Y50.7 E303.9 ;horizontal move
G1 X27.2 Y51.5 E305.0 ;horizontal move
G1 X28.0 Y52.6 E306.4 ;horizontal move
G1 X28.6 Y53.8 E307.7 ;horizontal move
G1 Y53.9 E307.8 ;horizontal move
G1 X28.9 Y55.1 E309.0 ;horizontal move
G1 X29.1 Y56.4 E310.4 ;horizontal move
G1 X29.0 Y57.7 E311.7 ;horizontal move
G1 X28.7 Y59.1 E313.1 ;horizontal move
G1 X28.3 Y60.1 E314.2 ;horizontal move
G1 X27.7 Y61.1 E315.3 ;horizontal move
G1 X26.6 Y62.4 E317.0 ;horizontal move
G1 X24.3 Y64.8 E320.4 ;horizontal move
G1 X22.2 Y67.4 E323.7 ;horizontal move
G1 X20.3 Y70.1 E327.0 ;horizontal move
G1 X19.2 Y71.9 E329.1 ;horizontal move
G1 X18.4 Y73.5 E330.9 ;horizontal move
G1 X17.9 Y75.0 E332.5 ;horizontal move
G1 X17.7 Y76.0 E333.5 ;horizontal move
G1 Y76.1 E333.6 F1073.7 ;horizontal move
G1 Y77.1 E334.6 F1080.0 ;horizontal move
G1 X17.9 Y78.3 E335.8 ;horizontal move
G1 Y78.4 E335.9 ;horizontal move
G1 X18.0 E336.0 ;horizontal move
G1 X18.4 Y79.7 E337.4 ;horizontal move
G1 X19.1 Y81.2 E339.0 ;horizontal move
G1 X20.1 Y82.8 E340.9 ;horizontal move
G1 X21.4 Y84.4 E343.0 ;horizontal move
G1 X22.9 Y85.8 E345.0 ;horizontal move
G1 X24.6 Y87.0 E347.1 ;horizontal move
G1 X26.3 Y87.9 E349.0 ;horizontal move
G1 X28.2 Y88.5 E351.0 ;horizontal move
G1 X30.2 Y88.9 E353.1 ;horizontal move
G1 X32.2 Y89.1 E355.1 ;horizontal move
G1 X34.2 Y88.9 E357.1 ;horizontal move
G1 X36.2 Y88.5 E359.1 ;horizontal move
G1 X38.3 Y87.8 E361.3 ;horizontal move
G1 X40.4 Y86.9 E363.6 ;horizontal move
G1 X42.9 Y85.5 E366.5 ;horizontal move
G1 X43.3 Y85.3 E366.9 F326.1 ;horizontal move
G1 X42.9 Y85.4 E367.4 F1080.0 ;horizontal move
G1 X39.1 Y86.0 E371.2 ;horizontal move
G1 F1200.0; feed for start of next move
G1 E361.2; extruder retraction
G1 F600.0; feed for start of next move
G1 X38.8 F1200.0 ;horizontal move
G4 P100 ;delay
G1 E371.2; extruder dwell
G1 F600.0; feed for start of next move
G1 X38.1 Y85.4 E372.1 ;horizontal move
G1 F1200.0; feed for start of next move
G1 E362.1; extruder retraction
G1 F600.0; feed for start of next move
G1 X38.5 Y85.5 F1200.0 ;horizontal move
G1 X40.6 Y85.7 ;horizontal move
G1 X41.0 Y85.8 F600.0 ;horizontal move
G4 P100 ;delay
G1 F1200.0; feed for start of next move
G1 E372.1; extruder dwell
G1 F600.0; feed for start of next move
G1 Y85.9 E372.2 ;horizontal move
G1 F1200.0; feed for start of next move
G1 E362.2; extruder retraction
G1 F600.0; feed for start of next move
G1 X41.3 Y85.5 F1200.0 ;horizontal move
G1 X49.5 Y73.4 ;horizontal move
G1 X49.8 Y73.0 F600.0 ;horizontal move
G4 P100 ;delay
G1 F1200.0; feed for start of next move
G1 E372.2; extruder dwell
G1 F600.0; feed for start of next move
G1 X49.6 Y72.8 E372.5 F509.6 ;horizontal move
G1 X49.5 Y71.9 E373.4 F480.0 ;horizontal move
G1 Y71.0 E374.3 F486.9 ;horizontal move
G1 X49.2 Y70.3 E375.1 F481.7 ;horizontal move
G1 X48.9 Y69.7 E375.7 F480.9 ;horizontal move
G1 X48.6 Y69.4 E376.2 F480.0 ;horizontal move
G1 X48.5 Y69.3 E376.3 F301.9 ;horizontal move
G1 X48.6 Y69.4 E376.5 F480.0 ;horizontal move
G1 X51.1 Y71.9 E380.0 ;horizontal move
G1 X51.8 Y71.2 E381.0 F480.4 ;horizontal move
G1 X52.3 Y70.7 E381.7 F597.5 ;horizontal move
G1 X0.9 Y19.3 E454.4 F515.1 ;horizontal move
G1 Y17.0 E456.7 F480.0 ;horizontal move
G1 Y16.9 E456.8 F387.9 ;horizontal move
G1 X1.0 Y17.0 E456.9 F480.0 ;horizontal move
G1 X53.5 Y69.5 E531.2 ;horizontal move
G1 X54.5 Y68.1 E532.9 F584.9 ;horizontal move
G1 X0.9 Y14.5 E608.7 F515.1 ;horizontal move
G1 Y12.2 E611.0 F480.0 ;horizontal move
G1 Y12.1 E611.1 F387.9 ;horizontal move
G1 X1.0 Y12.2 E611.2 F480.0 ;horizontal move
G1 X55.4 Y66.6 E688.2 ;horizontal move
G1 X55.7 Y66.1 E688.7 F480.8 ;horizontal move
G1 X56.2 Y65.0 E690.0 F557.9 ;horizontal move
G1 X0.9 Y9.7 E768.2 F515.1 ;horizontal move
G1 Y7.4 E770.5 F480.0 ;horizontal move
G1 Y7.3 E770.6 F387.9 ;horizontal move
G1 X1.0 E770.7 F480.0 ;horizontal move
G1 X56.9 Y63.3 E849.8 ;horizontal move
G1 X57.4 Y61.8 E851.4 ;horizontal move
G1 X57.5 Y61.5 E851.7 F537.1 ;horizontal move
G1 X0.9 Y4.9 E931.7 F515.1 ;horizontal move
G1 Y2.6 E934.0 F480.0 ;horizontal move
G1 Y2.5 E934.1 F374.6 ;horizontal move
G1 X1.0 Y2.6 E934.3 F480.0 ;horizontal move
G1 X12.4 Y15.6 E951.6 ;horizontal move
G1 X14.9 Y18.2 E955.2 F480.4 ;horizontal move
G1 X16.7 Y19.8 E957.6 F480.5 ;horizontal move
G1 X18.5 Y21.2 E959.9 F480.7 ;horizontal move
G1 X20.4 Y22.3 E962.0 F480.9 ;horizontal move
G1 X21.0 Y22.5 E962.7 F488.4 ;horizontal move
G1 X57.9 Y59.5 E1014.9 F480.0 ;horizontal move
G1 X58.0 E1015.0 F442.6 ;horizontal move
G1 Y59.3 E1015.2 F480.0 ;horizontal move
G1 X58.3 Y57.4 E1017.2 F527.3 ;horizontal move
G1 X24.5 Y23.7 E1064.9 F480.0 ;horizontal move
G1 Y23.6 E1065.0 F364.1 ;horizontal move
G1 X26.0 Y23.8 E1066.5 F480.0 ;horizontal move
G1 X27.1 E1067.6 F513.6 ;horizontal move
G1 X58.4 Y55.2 E1111.9 F480.0 ;horizontal move
G1 Y55.1 E1112.0 ;horizontal move
G1 X58.5 Y53.8 E1113.3 ;horizontal move
G1 X58.4 Y52.8 E1114.3 F510.3 ;horizontal move
G1 X29.6 Y23.9 E1155.1 F480.0 ;horizontal move
G1 X29.5 E1155.2 F384.0 ;horizontal move
G1 X29.6 E1155.3 F480.0 ;horizontal move
G1 X31.5 E1157.2 ;horizontal move
G1 X32.0 Y24.0 E1157.8 F507.4 ;horizontal move
G1 X58.1 Y50.1 E1194.7 F480.0 ;horizontal move
G1 X58.2 E1194.8 F357.4 ;horizontal move
G1 X57.9 Y48.3 E1196.6 F480.0 ;horizontal move
G1 X57.6 Y47.1 E1197.8 F496.7 ;horizontal move
G1 X34.8 Y24.3 E1230.1 F480.0 ;horizontal move
G1 X36.5 Y24.7 E1231.8 ;horizontal move
G1 X38.0 Y25.2 E1233.4 F493.1 ;horizontal move
G1 X56.5 Y43.6 E1259.5 F480.0 ;horizontal move
G1 X56.2 Y42.8 E1260.3 ;horizontal move
G1 X54.9 Y40.0 E1263.4 F480.5 ;horizontal move
G1 X54.5 Y39.2 E1264.3 F484.2 ;horizontal move
G1 X42.4 Y27.2 E1281.4 F600.0 ;horizontal move
G1 F1200.0; feed for start of next move
G1 E1271.4; extruder retraction
G1 F600.0; feed for start of next move
G1 X42.2 Y27.6 F1200.0 ;horizontal move
G1 X29.7 Y54.7 ;horizontal move
G1 X29.5 Y55.1 F600.0 ;horizontal move
G4 P100 ;delay
G1 F1200.0; feed for start of next move
G1 E1281.4; extruder dwell
G1 F600.0; feed for start of next move
G1 X42.7 Y68.3 E1300.0 F480.0 ;horizontal move
G1 X42.1 Y68.6 E1300.7 ;horizontal move
G1 X41.1 Y69.1 E1301.8 F561.4 ;horizontal move
G1 X29.6 Y57.6 E1318.1 F480.0 ;horizontal move
G1 Y57.8 E1318.3 ;horizontal move
G1 X29.3 Y59.3 E1319.8 F481.5 ;horizontal move
G1 X29.1 Y59.6 E1320.2 F552.5 ;horizontal move
G1 X39.5 Y69.9 E1334.8 F528.0 ;horizontal move
G1 X38.1 Y70.7 E1336.4 F480.8 ;horizontal move
G1 X38.0 Y70.8 E1336.6 F584.8 ;horizontal move
G1 X28.3 Y61.2 E1350.2 F528.1 ;horizontal move
G1 X28.2 Y61.5 E1350.5 F481.8 ;horizontal move
G1 X27.3 Y62.5 E1351.9 F591.6 ;horizontal move
G1 X36.6 Y71.9 E1365.1 F562.0 ;horizontal move
G1 X36.5 Y72.0 E1365.2 F481.1 ;horizontal move
G1 X35.4 Y73.1 E1366.8 F597.2 ;horizontal move
G1 X26.1 Y63.7 E1380.0 F594.3 ;horizontal move
G1 X24.9 Y65.0 E1381.8 F597.7 ;horizontal move
G1 X34.4 Y74.4 E1395.2 F581.0 ;horizontal move
G1 Y74.5 E1395.3 F481.6 ;horizontal move
G1 X33.8 Y75.6 E1396.5 F481.3 ;horizontal move
G1 X33.7 Y76.1 E1397.0 F480.0 ;horizontal move
G1 X23.8 Y66.3 E1411.0 ;horizontal move
G1 X22.8 Y67.6 E1412.6 F587.0 ;horizontal move
G1 X33.2 Y78.1 E1427.4 F518.8 ;horizontal move
G1 Y78.3 E1427.6 F480.5 ;horizontal move
G1 X33.3 Y79.6 E1428.9 F481.7 ;horizontal move
G1 X33.6 Y80.8 E1430.1 F480.0 ;horizontal move
G1 X21.8 Y69.0 E1446.8 ;horizontal move
G1 X20.8 Y70.4 E1448.5 F480.2 ;horizontal move
G1 X37.7 Y87.4 E1472.5 F480.0 ;horizontal move
G1 X36.1 Y87.9 E1474.2 ;horizontal move
G1 X35.9 E1474.4 F534.1 ;horizontal move
G1 X19.9 Y71.9 E1497.0 F529.0 ;horizontal move
G1 X19.7 Y72.2 E1497.4 F480.5 ;horizontal move
G1 X19.1 Y73.5 E1498.8 F560.9 ;horizontal move
G1 X33.9 Y88.3 E1519.7 F480.0 ;horizontal move
G1 X33.8 E1519.8 ;horizontal move
G1 X32.2 Y88.5 E1521.4 ;horizontal move
G1 X31.6 Y88.4 E1522.0 F510.0 ;horizontal move
G1 X18.5 Y75.3 E1540.6 F480.0 ;horizontal move
G1 Y75.4 E1540.7 ;horizontal move
G1 X18.3 Y76.1 E1541.4 ;horizontal move
G1 Y77.0 E1542.3 F481.4 ;horizontal move
G1 X18.4 Y77.7 E1543.0 F503.9 ;horizontal move
G1 X28.7 Y88.0 E1557.6 F480.0 ;horizontal move
G1 X28.8 E1557.7 F350.2 ;horizontal move
G1 X28.7 E1557.8 F480.0 ;horizontal move
G1 X28.4 E1558.1 ;horizontal move
G1 X26.6 Y87.3 E1560.0 F481.1 ;horizontal move
G1 X24.9 Y86.5 E1561.9 F481.3 ;horizontal move
G1 X24.6 Y86.3 E1562.2 F481.7 ;horizontal move
G1 X20.3 Y82.0 E1568.3 F600.0 ;horizontal move
G1 F1200.0; feed for start of next move
G1 E1558.3; extruder retraction
G1 F600.0; feed for start of next move
G1 X20.1 Y81.6 F1200.0 ;horizontal move
G1 X3.8 Y56.0 ;horizontal move
G1 X3.6 Y55.6 F600.0 ;horizontal move
G4 P100 ;delay
G1 F1200.0; feed for start of next move
G1 E1568.3; extruder dwell
G1 F600.0; feed for start of next move
G1 X5.9 Y58.0 E1571.6 F481.1 ;horizontal move
G1 X6.6 Y58.5 E1572.5 F481.2 ;horizontal move
G1 X8.1 Y59.3 E1574.2 F481.4 ;horizontal move
G1 X9.8 Y60.0 E1576.0 F481.3 ;horizontal move
G1 X10.4 Y60.1 E1576.6 F480.0 ;horizontal move
G1 X1.7 Y51.3 E1589.0 ;horizontal move
G1 X1.3 Y49.7 E1590.7 F480.1 ;horizontal move
G1 X1.0 Y48.3 E1592.1 F480.0 ;horizontal move
G1 Y48.2 E1592.2 F352.0 ;horizontal move
G1 Y48.3 E1592.3 F480.0 ;horizontal move
G1 X13.1 Y60.4 E1609.4 ;horizontal move
G1 X13.2 E1609.5 F481.3 ;horizontal move
G1 X14.9 Y60.2 E1611.2 F480.9 ;horizontal move
G1 X15.0 E1611.3 F480.0 ;horizontal move
G1 Y60.1 E1611.4 ;horizontal move
G1 X14.4 Y59.8 E1612.1 ;horizontal move
G1 X13.5 Y59.2 E1613.2 ;horizontal move
G1 X12.8 Y58.7 E1614.0 F482.7 ;horizontal move
G1 X12.3 Y58.0 E1614.9 F481.9 ;horizontal move
G1 X11.9 Y57.4 E1615.6 F483.4 ;horizontal move
G1 X11.6 Y56.7 E1616.4 F481.7 ;horizontal move
G1 Y56.4 E1616.7 F504.0 ;horizontal move
G1 X1.0 Y45.8 E1631.7 F515.1 ;horizontal move
G1 Y43.4 E1634.1 F480.0 ;horizontal move
G1 X11.6 Y54.1 E1649.1 ;horizontal move
G1 Y54.0 E1649.2 ;horizontal move
G1 X11.9 Y53.0 E1650.3 ;horizontal move
G1 X12.1 Y52.6 E1650.7 F480.7 ;horizontal move
G1 X12.3 Y52.3 E1651.1 F560.1 ;horizontal move
G1 X1.0 Y41.0 E1667.1 F515.1 ;horizontal move
G1 X0.9 Y38.6 E1669.5 F480.0 ;horizontal move
G1 X1.0 E1669.6 ;horizontal move
G1 X13.1 Y50.7 E1686.7 ;horizontal move
G1 X13.8 Y50.0 E1687.7 F482.0 ;horizontal move
G1 X14.3 Y49.6 E1688.3 F560.1 ;horizontal move
G1 X0.9 Y36.2 E1707.3 F515.1 ;horizontal move
G1 Y33.8 E1709.7 F480.0 ;horizontal move
G1 X1.0 E1709.8 ;horizontal move
G1 X16.1 Y48.9 E1731.1 ;horizontal move
G1 X16.6 Y48.7 E1731.7 F481.6 ;horizontal move
G1 X18.0 Y48.4 E1733.1 F480.0 ;horizontal move
G1 X0.9 Y31.4 E1757.2 ;horizontal move
G1 X1.0 E1757.3 F515.1 ;horizontal move
G1 X0.9 Y29.0 E1759.7 F480.0 ;horizontal move
G1 X1.0 E1759.8 ;horizontal move
G1 X20.3 Y48.3 E1787.1 ;horizontal move
G1 X20.8 E1787.6 F480.5 ;horizontal move
G1 X22.5 Y48.4 E1789.3 F481.2 ;horizontal move
G1 X22.8 E1789.6 F480.0 ;horizontal move
G1 X0.9 Y26.6 E1820.5 ;horizontal move
G1 Y24.2 E1822.9 ;horizontal move
G1 Y24.1 E1823.0 F387.9 ;horizontal move
G1 X1.0 Y24.2 E1823.1 F480.0 ;horizontal move
G1 X44.6 Y67.8 E1884.8 ;horizontal move
G1 X45.1 Y67.7 E1885.3 F482.1 ;horizontal move
G1 X45.9 Y67.8 E1886.1 F484.5 ;horizontal move
G1 X46.7 Y68.1 E1887.0 F480.1 ;horizontal move
G1 X47.1 Y68.3 E1887.4 F481.0 ;horizontal move
G1 X47.8 Y68.7 E1888.2 F481.1 ;horizontal move
G1 X48.2 Y69.0 E1888.7 F480.0 ;horizontal move
G1 X48.3 Y69.1 E1888.9 F301.9 ;horizontal move
G1 X48.2 Y69.0 E1889.0 F480.0 ;horizontal move
G1 X1.0 Y21.7 E1955.8 ;horizontal move
G1 X0.9 E1955.9 F600.0 ;horizontal move
G1 F1200.0; feed for start of next move
G1 E1945.9; extruder retraction
G1 F600.0; feed for start of next move
M106 ;cooler on
G1 X0.5 F1200.0 ;horizontal move
G1 X-249.5 ;horizontal move
G1 X-250.0 F600.0 ;horizontal move
G92 X0 ;set x 0
G1 Y21.3 F1200.0 ;horizontal move
G1 Y-249.5 ;horizontal move
G1 Y-250.0 F600.0 ;horizontal move
G92 Y0 ;set y 0
G92 E0 ;zero the extruded length
;#!LAYER: 2/6
M107 ;cooler off
G4 P20 ;delay
G1 F40.0; feed for start of next move
G1 Z1.0 F67.8 ;z move
G1 Z1.5 F40.0 ;z move
G1 F600.0; feed for start of next move
G1 X-0.3 Y-0.3 F1200.0 ;horizontal move
G1 X-2.7 Y-2.7 ;horizontal move
G1 X-3.0 Y-3.0 F600.0 ;horizontal move
G4 P100 ;delay
G1 F1200.0; feed for start of next move
G1 E6.7; extruder dwell
G1 F600.0; feed for start of next move
G1 X-5.0 Y6.9 E16.8 F480.0 ;horizontal move
G1 Y7.0 E16.9 F305.8 ;horizontal move
G1 Y6.9 E17.0 F480.0 ;horizontal move
G1 Y-5.0 E28.9 ;horizontal move
G1 X17.0 E50.9 F600.0 ;horizontal move
G1 F1200.0; feed for start of next move
G1 E44.2; extruder retraction
G1 F600.0; feed for start of next move
G1 X17.1 Y-4.6 F1200.0 ;horizontal move
G1 X39.4 Y64.8 ;horizontal move
G1 X39.5 Y65.2 F600.0 ;horizontal move
G4 P100 ;delay
G1 F1200.0; feed for start of next move
G1 E50.9; extruder dwell
G1 F600.0; feed for start of next move
G1 X39.2 Y65.5 E51.3 F1080.0 ;horizontal move
G1 X21.6 Y83.1 E76.2 ;horizontal move
G1 X21.3 Y83.3 E76.5 F650.6 ;horizontal move
G1 X21.5 Y83.6 E76.9 F1080.0 ;horizontal move
G1 X21.7 Y83.7 E77.1 ;horizontal move
G1 X21.9 Y84.0 E77.5 F632.5 ;horizontal move
G1 X21.6 Y84.2 E77.8 F1043.9 ;horizontal move
G1 X21.4 Y84.4 E78.1 F579.7 ;horizontal move
G1 X21.7 Y84.6 E78.5 F1080.0 ;horizontal move
G1 X22.9 Y85.8 E80.2 ;horizontal move
G1 X24.6 Y87.0 E82.3 ;horizontal move
G1 X26.3 Y87.9 E84.2 ;horizontal move
G1 X28.2 Y88.5 E86.2 ;horizontal move
G1 X30.2 Y88.9 E88.2 ;horizontal move
G1 X32.2 Y89.1 E90.2 ;horizontal move
G1 X34.2 Y88.9 E92.2 ;horizontal move
G1 X36.2 Y88.5 E94.3 ;horizontal move
G1 X38.3 Y87.8 E96.5 ;horizontal move
G1 X40.4 Y86.9 E98.8 ;horizontal move
G1 X43.0 Y85.5 E101.7 ;horizontal move
G1 X43.3 Y85.3 E102.1 F344.9 ;horizontal move
G1 X42.9 E102.5 F1080.0 ;horizontal move
G1 X40.7 Y85.2 E104.7 ;horizontal move
G1 X39.1 Y85.0 E106.3 ;horizontal move
G1 X37.9 Y84.7 E107.5 ;horizontal move
G1 X37.0 Y84.4 E108.5 ;horizontal move
G1 X36.3 Y84.0 E109.3 ;horizontal move
G1 X35.6 Y83.4 E110.2 ;horizontal move
G1 X35.1 Y82.6 E111.2 ;horizontal move
G1 X34.6 Y81.7 E112.2 ;horizontal move
G1 X34.2 Y80.7 E113.3 ;horizontal move
G1 X33.9 Y79.5 E114.5 ;horizontal move
G1 X33.8 Y78.2 E115.8 ;horizontal move
G1 X34.0 Y76.9 E117.1 ;horizontal move
G1 X34.4 Y75.8 E118.3 ;horizontal move
G1 X34.9 Y74.8 E119.4 ;horizontal move
G1 X35.8 Y73.5 E121.0 ;horizontal move
G1 X36.9 Y72.4 E122.6 ;horizontal move
G1 X38.4 Y71.2 E124.5 ;horizontal move
G1 X40.2 Y70.2 E126.5 ;horizontal move
G1 X42.3 Y69.1 E128.9 ;horizontal move
G1 X43.6 Y68.7 E130.3 ;horizontal move
G1 X44.4 Y68.4 E131.1 ;horizontal move
G1 X44.5 E131.2 F1069.9 ;horizontal move
G1 X45.1 Y68.3 E131.8 F1080.0 ;horizontal move
G1 X45.8 Y68.4 E132.5 ;horizontal move
G1 X46.4 Y68.6 E133.2 ;horizontal move
G1 X46.8 Y68.8 E133.6 ;horizontal move
G1 X47.5 Y69.2 E134.4 ;horizontal move
G1 X48.0 Y69.6 E135.1 ;horizontal move
G1 X48.4 Y70.1 E135.7 ;horizontal move
G1 X48.7 Y70.6 E136.3 ;horizontal move
G1 X48.9 Y71.1 E136.8 ;horizontal move
G1 Y71.2 E136.9 F1052.5 ;horizontal move
G1 Y72.0 E137.7 F1080.0 ;horizontal move
G1 X49.0 Y73.0 E138.7 ;horizontal move
G1 X48.9 Y74.1 E139.8 ;horizontal move
G1 Y74.5 E140.2 F392.1 ;horizontal move
G1 X49.2 Y74.2 E140.7 F1080.0 ;horizontal move
G1 X50.2 Y73.4 E141.9 ;horizontal move
G1 X52.2 Y71.7 E144.6 ;horizontal move
G1 X53.8 Y70.0 E146.9 ;horizontal move
G1 X55.1 Y68.3 E149.0 ;horizontal move
G1 X56.2 Y66.4 E151.2 ;horizontal move
G1 X57.2 Y64.3 E153.6 ;horizontal move
G1 X58.0 Y62.0 E156.0 ;horizontal move
G1 X58.6 Y59.4 E158.7 ;horizontal move
G1 X59.0 Y56.7 E161.4 ;horizontal move
G1 X59.1 Y53.8 E164.3 ;horizontal move
G1 X58.9 Y51.0 E167.1 ;horizontal move
G1 X58.5 Y48.2 E169.9 ;horizontal move
G1 X57.7 Y45.4 E172.8 ;horizontal move
G1 X56.8 Y42.6 E175.8 ;horizontal move
G1 Y42.5 E175.9 ;horizontal move
G1 X55.5 Y39.7 E179.0 ;horizontal move
G1 X54.1 Y37.4 E181.7 ;horizontal move
G1 X52.5 Y35.1 E184.5 ;horizontal move
G1 X50.5 Y32.8 E187.5 ;horizontal move
G1 X48.4 Y30.7 E190.5 ;horizontal move
G1 X46.0 Y28.8 E193.5 ;horizontal move
G1 X43.6 Y27.1 E196.5 ;horizontal move
G1 X41.4 Y25.9 E199.0 ;horizontal move
G1 X39.1 Y24.9 E201.5 ;horizontal move
G1 X36.7 Y24.1 E204.0 ;horizontal move
G1 X34.2 Y23.6 E206.6 ;horizontal move
G1 X34.1 E206.7 F1077.2 ;horizontal move
G1 X31.6 Y23.3 E209.2 F1080.0 ;horizontal move
G1 X26.1 Y23.2 E214.7 ;horizontal move
G1 X24.3 Y23.0 E216.5 ;horizontal move
G1 X22.4 Y22.5 E218.5 ;horizontal move
G1 X20.6 Y21.7 E220.4 ;horizontal move
G1 X18.9 Y20.7 E222.4 ;horizontal move
G1 X17.1 Y19.4 E224.6 ;horizontal move
G1 X15.3 Y17.7 E227.1 ;horizontal move
G1 X12.8 Y15.2 E230.6 ;horizontal move
G1 X0.6 Y1.3 E249.1 ;horizontal move
G1 X0.4 Y0.9 E249.6 F374.6 ;horizontal move
G1 Y1.4 E250.1 F1080.0 ;horizontal move
G1 X0.3 Y48.0 E296.7 ;horizontal move
G1 X0.4 E296.8 ;horizontal move
G1 X0.7 Y49.8 E298.6 ;horizontal move
G1 X1.2 Y52.0 E300.9 ;horizontal move
G1 X1.8 Y53.7 E302.7 ;horizontal move
G1 X2.5 Y55.2 E304.3 ;horizontal move
G1 X3.5 Y56.6 E306.0 ;horizontal move
G1 X4.7 Y57.8 E307.7 ;horizontal move
G1 X6.2 Y59.0 E309.7 ;horizontal move
G1 X7.9 Y59.9 E311.6 ;horizontal move
G1 X9.6 Y60.5 E313.4 ;horizontal move
G1 X9.7 E313.5 ;horizontal move
G1 X11.4 Y60.9 E315.2 ;horizontal move
G1 X13.2 Y61.0 E317.0 ;horizontal move
G1 X14.9 Y60.8 E318.8 ;horizontal move
G1 X15.0 E318.9 F1076.5 ;horizontal move
G1 X16.4 Y60.5 E320.3 F1080.0 ;horizontal move
G1 X16.8 Y60.4 E320.7 F361.8 ;horizontal move
G1 X16.4 Y60.2 E321.1 F1001.4 ;horizontal move
G1 X14.7 Y59.3 E323.1 F1080.0 ;horizontal move
G1 X13.9 Y58.7 E324.1 ;horizontal move
G1 X13.2 Y58.2 E324.9 ;horizontal move
G1 X12.8 Y57.7 E325.6 ;horizontal move
G1 X12.7 E325.7 F1072.4 ;horizontal move
G1 X12.4 Y57.2 E326.3 F1080.0 ;horizontal move
G1 Y57.1 E326.4 ;horizontal move
G1 X12.2 Y56.5 E327.0 ;horizontal move
G1 X12.1 Y55.9 E327.6 ;horizontal move
G1 Y55.2 E328.3 ;horizontal move
G1 Y55.1 E328.4 F1072.0 ;horizontal move
G1 X12.2 Y54.3 E329.2 F1080.0 ;horizontal move
G1 X12.4 Y53.3 E330.2 ;horizontal move
G1 Y53.2 E330.3 F1053.1 ;horizontal move
G1 X12.7 Y52.9 E330.7 F1080.0 ;horizontal move
G1 X13.1 Y51.9 E331.8 ;horizontal move
G1 X13.6 Y51.1 E332.8 ;horizontal move
G1 X14.2 Y50.4 E333.7 ;horizontal move
G1 X14.8 Y50.0 E334.4 ;horizontal move
G1 Y49.9 E334.5 F1058.7 ;horizontal move
G1 X15.7 Y49.6 E335.5 F1080.0 ;horizontal move
G1 X16.7 Y49.3 E336.5 ;horizontal move
G1 X18.4 Y49.0 E338.2 ;horizontal move
G1 X20.8 Y48.9 E340.6 ;horizontal move
G1 X22.5 Y49.0 E342.3 ;horizontal move
G1 X23.7 Y49.2 E343.5 ;horizontal move
G1 X24.6 Y49.5 E344.5 ;horizontal move
G1 X25.5 Y50.0 E345.5 ;horizontal move
G1 X26.4 Y50.7 E346.7 ;horizontal move
G1 X27.2 Y51.5 E347.8 ;horizontal move
G1 X28.0 Y52.6 E349.2 ;horizontal move
G1 X28.6 Y53.8 E350.5 ;horizontal move
G1 Y53.9 E350.6 ;horizontal move
G1 X28.9 Y55.1 E351.8 ;horizontal move
G1 X29.1 Y56.4 E353.1 ;horizontal move
G1 X29.0 Y57.7 E354.5 ;horizontal move
G1 X28.7 Y59.1 E355.9 ;horizontal move
G1 X28.3 Y60.1 E357.0 ;horizontal move
G1 X27.7 Y61.1 E358.1 ;horizontal move
G1 X26.6 Y62.4 E359.8 ;horizontal move
G1 X24.3 Y64.8 E363.2 ;horizontal move
G1 X22.2 Y67.4 E366.5 ;horizontal move
G1 X20.3 Y70.1 E369.8 ;horizontal move
G1 X19.2 Y71.9 E371.9 ;horizontal move
G1 X18.4 Y73.5 E373.7 ;horizontal move
G1 X17.9 Y75.0 E375.3 ;horizontal move
G1 X17.7 Y76.0 E376.3 ;horizontal move
G1 Y76.1 E376.4 F1073.7 ;horizontal move
G1 Y77.1 E377.4 F1080.0 ;horizontal move
G1 X18.0 Y78.6 E378.9 ;horizontal move
G1 Y78.8 E379.1 ;horizontal move
G1 X18.4 Y79.7 E380.1 ;horizontal move
G1 X19.1 Y81.2 E381.8 ;horizontal move
G1 X20.1 Y82.8 E383.7 ;horizontal move
G1 X21.2 Y84.1 E385.4 ;horizontal move
G1 X21.4 Y84.4 E385.7 F559.3 ;horizontal move
G1 X21.7 Y84.1 E386.1 F1080.0 ;horizontal move
G1 X39.2 Y65.5 E411.7 ;horizontal move
G1 F1200.0; feed for start of next move
G1 E405.0; extruder retraction
G1 F600.0; feed for start of next move
G1 X39.5 Y65.2 F1200.0 ;horizontal move
G4 P100 ;delay
G1 E411.7; extruder dwell
G1 F600.0; feed for start of next move
G1 X57.6 Y47.1 E437.3 F538.9 ;horizontal move
G1 X57.2 Y45.5 E438.9 F480.4 ;horizontal move
G1 X57.1 Y45.2 E439.2 F480.0 ;horizontal move
G1 X20.3 Y82.0 E491.3 ;horizontal move
G1 X19.6 Y80.9 E492.6 F480.9 ;horizontal move
G1 X19.4 Y80.5 E493.0 F560.0 ;horizontal move
G1 X56.4 Y43.4 E545.4 F548.0 ;horizontal move
G1 X56.2 Y42.8 E546.1 F480.5 ;horizontal move
G1 X55.7 Y41.7 E547.3 F495.4 ;horizontal move
G1 X18.7 Y78.8 E599.7 F480.0 ;horizontal move
G1 X18.6 Y78.5 E600.0 ;horizontal move
G1 X18.5 Y78.4 E600.1 F485.8 ;horizontal move
G1 X18.3 Y77.0 E601.5 F481.4 ;horizontal move
G1 Y76.7 E601.8 F514.4 ;horizontal move
G1 X55.0 Y40.1 E653.7 F558.2 ;horizontal move
G1 X54.9 Y40.0 E653.8 F480.5 ;horizontal move
G1 X54.1 Y38.6 E655.4 F521.2 ;horizontal move
G1 X19.1 Y73.6 E704.9 F480.0 ;horizontal move
G1 X19.0 E705.0 F316.3 ;horizontal move
G1 X19.1 E705.1 F480.0 ;horizontal move
G1 X19.7 Y72.2 E706.6 ;horizontal move
G1 X20.8 Y70.4 E708.8 F480.2 ;horizontal move
G1 X22.7 Y67.7 E712.1 F480.3 ;horizontal move
G1 X23.2 Y67.0 E712.9 F480.7 ;horizontal move
G1 X53.2 Y37.1 E755.3 F580.0 ;horizontal move
G1 X52.2 Y35.7 E757.0 F550.0 ;horizontal move
G1 X29.5 Y58.3 E789.0 F480.0 ;horizontal move
G1 Y58.4 E789.1 F346.2 ;horizontal move
G1 Y58.3 E789.2 F480.0 ;horizontal move
G1 X29.6 Y57.8 E789.7 ;horizontal move
G1 X29.7 Y56.4 E791.1 F481.5 ;horizontal move
G1 X29.6 Y55.8 E791.8 F525.0 ;horizontal move
G1 X51.1 Y34.4 E822.1 F591.3 ;horizontal move
G1 X50.1 Y33.2 E823.6 F480.5 ;horizontal move
G1 X49.9 Y33.1 E823.9 F598.0 ;horizontal move
G1 X29.2 Y53.8 E853.1 F480.0 ;horizontal move
G1 X29.1 Y53.6 E853.4 ;horizontal move
G1 X28.5 Y52.3 E854.8 F481.8 ;horizontal move
G1 X28.4 Y52.2 E854.9 F579.5 ;horizontal move
G1 X48.7 Y31.9 E883.7 F595.1 ;horizontal move
G1 X48.0 Y31.2 E884.6 F480.4 ;horizontal move
G1 X47.5 Y30.8 E885.3 F587.9 ;horizontal move
G1 X27.4 Y50.8 E913.6 F596.3 ;horizontal move
G1 X26.8 Y50.2 E914.5 F481.4 ;horizontal move
G1 X26.1 Y49.7 E915.3 F558.7 ;horizontal move
G1 X46.1 Y29.7 E943.6 F569.7 ;horizontal move
G1 X45.6 Y29.2 E944.3 F480.4 ;horizontal move
G1 X44.8 Y28.7 E945.3 F578.5 ;horizontal move
G1 X24.6 Y48.9 E973.8 F548.4 ;horizontal move
G1 X23.9 Y48.6 E974.6 F481.4 ;horizontal move
G1 X22.6 Y48.4 E975.9 F480.0 ;horizontal move
G1 X43.3 Y27.7 E1005.2 ;horizontal move
G1 X41.8 Y26.8 E1006.9 F567.9 ;horizontal move
G1 X20.3 Y48.3 E1037.4 F511.6 ;horizontal move
G1 X18.3 Y48.4 E1039.4 F480.9 ;horizontal move
G1 X17.8 Y48.5 E1039.9 F480.0 ;horizontal move
G1 X17.7 E1040.0 F355.7 ;horizontal move
G1 X40.2 Y26.0 E1071.8 F480.0 ;horizontal move
G1 X38.9 Y25.4 E1073.2 F480.6 ;horizontal move
G1 X38.5 Y25.3 E1073.6 F545.6 ;horizontal move
G1 X13.9 Y49.9 E1108.4 F600.0 ;horizontal move
G1 F1200.0; feed for start of next move
G1 E1101.8; extruder retraction
G1 F600.0; feed for start of next move
G1 Y50.4 F1200.0 ;horizontal move
G1 Y59.1 ;horizontal move
G1 Y59.5 F600.0 ;horizontal move
G4 P100 ;delay
G1 F1200.0; feed for start of next move
G1 E1108.4; extruder dwell
G1 F600.0; feed for start of next move
G1 X13.1 Y60.4 E1109.6 F519.0 ;horizontal move
G1 X11.5 Y60.3 E1111.2 F481.5 ;horizontal move
G1 X10.9 Y60.2 E1111.8 F480.0 ;horizontal move
G1 X12.6 Y58.4 E1114.3 ;horizontal move
G1 X12.3 Y58.0 E1114.8 F481.9 ;horizontal move
G1 X11.9 Y57.4 E1115.5 F483.4 ;horizontal move
G1 X11.7 Y56.9 E1116.1 F480.0 ;horizontal move
G1 X9.0 Y59.6 E1119.9 ;horizontal move
G1 X8.1 Y59.3 E1120.8 F481.4 ;horizontal move
G1 X7.3 Y58.9 E1121.7 F517.7 ;horizontal move
G1 X11.5 Y54.7 E1127.7 F505.0 ;horizontal move
G1 X11.6 Y54.2 E1128.2 F480.5 ;horizontal move
G1 X11.9 Y53.0 E1129.4 F486.7 ;horizontal move
G1 X12.1 Y52.6 E1129.9 F480.7 ;horizontal move
G1 X12.6 Y51.7 E1130.9 F480.3 ;horizontal move
G1 X13.1 Y50.7 E1132.0 F483.0 ;horizontal move
G1 X13.3 Y50.5 E1132.3 F480.0 ;horizontal move
G1 X5.9 Y57.9 E1142.8 ;horizontal move
G1 X5.1 Y57.4 E1143.7 F481.3 ;horizontal move
G1 X4.6 Y56.8 E1144.5 F598.6 ;horizontal move
G1 X36.7 Y24.7 E1189.9 F480.0 ;horizontal move
G1 X36.5 E1190.1 ;horizontal move
G1 X34.7 Y24.3 E1191.9 F534.0 ;horizontal move
G1 X3.5 Y55.5 E1236.0 F550.7 ;horizontal move
G1 X3.0 Y54.9 E1236.8 F481.6 ;horizontal move
G1 X2.6 Y54.0 E1237.8 F561.4 ;horizontal move
G1 X32.6 Y24.0 E1280.2 F480.0 ;horizontal move
G1 X31.5 Y23.9 E1281.3 ;horizontal move
G1 X30.3 E1282.5 F516.7 ;horizontal move
G1 X1.9 Y52.3 E1322.7 F480.0 ;horizontal move
G1 X1.8 Y51.8 E1323.2 ;horizontal move
G1 X1.4 Y50.4 E1324.7 F536.9 ;horizontal move
G1 X27.9 Y23.9 E1362.2 F480.0 ;horizontal move
G1 X26.0 Y23.8 E1364.1 ;horizontal move
G1 X25.6 E1364.5 F525.9 ;horizontal move
G1 X1.0 Y48.3 E1399.2 F480.0 ;horizontal move
G1 Y48.4 E1399.3 F431.2 ;horizontal move
G1 Y48.3 E1399.4 F480.0 ;horizontal move
G1 X0.9 Y48.0 E1399.7 ;horizontal move
G1 X1.0 Y46.0 E1401.7 F515.1 ;horizontal move
G1 X23.5 Y23.4 E1433.6 F480.0 ;horizontal move
G1 X23.6 E1433.7 F452.2 ;horizontal move
G1 X23.5 E1433.8 F480.0 ;horizontal move
G1 X22.2 Y23.0 E1435.1 ;horizontal move
G1 X21.7 Y22.8 E1435.7 F555.8 ;horizontal move
G1 X1.0 Y43.6 E1465.0 F480.0 ;horizontal move
G1 X0.9 Y41.2 E1467.4 ;horizontal move
G1 X20.1 Y22.1 E1494.5 F524.3 ;horizontal move
G1 X18.6 Y21.2 E1496.3 F569.7 ;horizontal move
G1 X1.0 Y38.8 E1521.2 F480.0 ;horizontal move
G1 X0.9 E1521.3 F387.9 ;horizontal move
G1 Y36.4 E1523.7 F480.0 ;horizontal move
G1 X17.2 Y20.2 E1546.6 F557.0 ;horizontal move
G1 X16.7 Y19.8 E1547.3 F480.5 ;horizontal move
G1 X15.9 Y19.1 E1548.3 F593.7 ;horizontal move
G1 X1.0 Y34.0 E1569.4 F480.0 ;horizontal move
G1 X0.9 E1569.5 F387.9 ;horizontal move
G1 Y31.6 E1571.9 F480.0 ;horizontal move
G1 X14.6 Y17.9 E1591.3 F596.6 ;horizontal move
G1 X13.5 Y16.7 E1592.9 F591.6 ;horizontal move
G1 X1.0 Y29.2 E1610.6 F480.0 ;horizontal move
G1 X0.9 E1610.7 F387.9 ;horizontal move
G1 Y26.8 E1613.1 F480.0 ;horizontal move
G1 X12.3 Y15.4 E1629.2 F592.2 ;horizontal move
G1 X11.2 Y14.2 E1630.8 F580.6 ;horizontal move
G1 X1.0 Y24.4 E1645.3 F480.0 ;horizontal move
G1 X0.9 E1645.4 F387.9 ;horizontal move
G1 X1.0 Y22.0 E1647.8 F480.0 ;horizontal move
G1 X10.1 Y12.9 E1660.6 F592.2 ;horizontal move
G1 X8.9 Y11.6 E1662.4 F580.6 ;horizontal move
G1 X1.0 Y19.6 E1673.6 F480.0 ;horizontal move
G1 Y19.5 E1673.7 ;horizontal move
G1 X0.9 Y17.2 E1676.0 ;horizontal move
G1 X7.8 Y10.3 E1685.8 F592.2 ;horizontal move
G1 X6.7 Y9.0 E1687.5 F580.6 ;horizontal move
G1 X1.0 Y14.8 E1695.6 F480.0 ;horizontal move
G1 X0.9 E1695.7 F387.9 ;horizontal move
G1 Y14.7 E1695.8 F480.0 ;horizontal move
G1 Y12.4 E1698.1 ;horizontal move
G1 X5.6 Y7.8 E1704.7 F592.2 ;horizontal move
G1 X4.4 Y6.5 E1706.5 F580.6 ;horizontal move
G1 X1.0 Y9.9 E1711.3 F480.0 ;horizontal move
G1 X0.9 Y10.0 E1711.4 F387.9 ;horizontal move
G1 Y9.9 E1711.5 F480.0 ;horizontal move
G1 Y7.6 E1713.8 ;horizontal move
G1 X3.3 Y5.2 E1717.2 F592.2 ;horizontal move
G1 X2.2 Y3.9 E1718.9 F580.6 ;horizontal move
G1 X1.0 Y5.1 E1720.6 F480.0 ;horizontal move
G1 X0.9 Y5.2 E1720.8 F387.9 ;horizontal move
G1 Y5.1 E1720.9 F480.0 ;horizontal move
G1 X1.0 Y2.8 E1723.2 ;horizontal move
G1 X1.1 Y2.6 E1723.4 F600.0 ;horizontal move
G1 F1200.0; feed for start of next move
G1 E1716.7; extruder retraction
G1 F600.0; feed for start of next move
G1 X1.3 Y3.0 F1200.0 ;horizontal move
G1 X33.6 Y75.3 ;horizontal move
G1 X33.8 Y75.7 F600.0 ;horizontal move
G4 P100 ;delay
G1 F1200.0; feed for start of next move
G1 E1723.4; extruder dwell
G1 F600.0; feed for start of next move
G1 X23.8 Y85.7 E1737.5 F549.9 ;horizontal move
G1 X24.9 Y86.5 E1738.9 F481.3 ;horizontal move
G1 X25.2 Y86.6 E1739.2 F562.8 ;horizontal move
G1 X33.2 Y78.7 E1750.5 F480.0 ;horizontal move
G1 X33.3 Y78.6 E1750.6 F398.5 ;horizontal move
G1 Y78.7 E1750.7 F480.0 ;horizontal move
G1 Y79.6 E1751.6 ;horizontal move
G1 X33.6 Y80.7 E1752.7 F535.9 ;horizontal move
G1 X26.9 Y87.4 E1762.2 F480.0 ;horizontal move
G1 X28.4 Y88.0 E1763.8 ;horizontal move
G1 X28.7 E1764.1 F533.5 ;horizontal move
G1 X34.3 Y82.4 E1772.1 F528.7 ;horizontal move
G1 X34.6 Y82.9 E1772.6 F480.1 ;horizontal move
G1 X35.2 Y83.8 E1773.7 F483.2 ;horizontal move
G1 X35.3 E1773.8 F590.9 ;horizontal move
G1 X30.8 Y88.3 E1780.2 F480.0 ;horizontal move
G1 X30.7 Y88.4 E1780.3 F401.6 ;horizontal move
G1 X30.8 E1780.4 F480.0 ;horizontal move
G1 X32.2 Y88.5 E1781.8 ;horizontal move
G1 X33.1 Y88.4 E1782.7 F508.8 ;horizontal move
G1 X36.6 Y84.9 E1787.7 F570.5 ;horizontal move
G1 X36.7 E1787.8 F483.1 ;horizontal move
G1 X37.7 Y85.3 E1788.9 F480.2 ;horizontal move
G1 X38.4 Y85.4 E1789.6 F480.0 ;horizontal move
G1 X38.5 Y85.5 E1789.7 F447.2 ;horizontal move
G1 X36.0 Y87.9 E1793.2 F480.0 ;horizontal move
G1 X36.1 E1793.3 ;horizontal move
G1 X38.1 Y87.3 E1795.4 F480.6 ;horizontal move
G1 X39.8 Y86.5 E1797.2 F488.1 ;horizontal move
G1 X40.5 Y85.8 E1798.2 F600.0 ;horizontal move
G1 F1200.0; feed for start of next move
G1 E1791.6; extruder retraction
G1 F600.0; feed for start of next move
G1 X40.1 F1200.0 ;horizontal move
G1 X22.3 Y84.0 ;horizontal move
G1 X21.9 F600.0 ;horizontal move
G4 P100 ;delay
G1 F1200.0; feed for start of next move
G1 E1798.2; extruder dwell
G1 F600.0; feed for start of next move
G1 X22.5 Y84.6 E1799.1 F596.4 ;horizontal move
G1 X58.0 Y49.1 E1849.3 F480.0 ;horizontal move
G1 X58.3 Y51.1 E1851.3 ;horizontal move
G1 Y51.2 E1851.4 F520.3 ;horizontal move
G1 X39.8 Y69.7 E1877.6 F480.0 ;horizontal move
G1 X39.9 E1877.7 ;horizontal move
G1 X42.1 Y68.6 E1880.1 F480.7 ;horizontal move
G1 X43.4 Y68.1 E1881.5 F480.2 ;horizontal move
G1 X44.0 Y67.9 E1882.2 F494.1 ;horizontal move
G1 X58.4 Y53.5 E1902.5 F480.0 ;horizontal move
G1 X58.5 Y53.4 E1902.7 F400.8 ;horizontal move
G1 Y53.5 E1902.8 F480.0 ;horizontal move
G1 Y53.8 E1903.1 ;horizontal move
G1 X58.4 Y55.9 E1905.2 F512.0 ;horizontal move
G1 X46.3 Y68.0 E1922.3 F480.0 ;horizontal move
G1 X46.7 Y68.1 E1922.7 ;horizontal move
G1 X47.1 Y68.3 E1923.1 F481.0 ;horizontal move
G1 X47.8 Y68.7 E1923.9 F481.1 ;horizontal move
G1 X47.9 Y68.8 E1924.1 F586.7 ;horizontal move
G1 X58.1 Y58.6 E1938.5 F480.0 ;horizontal move
G1 X58.0 Y59.3 E1939.2 ;horizontal move
G1 X57.4 Y61.7 E1941.7 F497.8 ;horizontal move
G1 X49.1 Y70.1 E1953.5 F571.9 ;horizontal move
G1 X49.2 Y70.3 E1953.7 F481.7 ;horizontal move
G1 X49.5 Y71.0 E1954.5 F486.9 ;horizontal move
G1 Y71.9 E1955.4 F480.0 ;horizontal move
G1 Y72.0 E1955.5 F402.7 ;horizontal move
G1 X49.6 Y71.9 E1955.6 F480.0 ;horizontal move
G1 X56.0 Y65.5 E1964.7 ;horizontal move
G1 F1200.0; feed for start of next move
G1 E1958.0; extruder retraction
G1 F600.0; feed for start of next move
M106 ;cooler on
G1 X55.6 F1200.0 ;horizontal move
G1 X-249.5 ;horizontal move
G1 X-250.0 F600.0 ;horizontal move
G92 X0 ;set x 0
G1 Y65.1 F1200.0 ;horizontal move
G1 Y-249.5 ;horizontal move
G1 Y-250.0 F600.0 ;horizontal move
G92 Y0 ;set y 0
G92 E0 ;zero the extruded length
;#!LAYER: 3/6
M107 ;cooler off
G4 P20 ;delay
G1 F40.0; feed for start of next move
G1 Z2.0 F67.8 ;z move
G1 Z2.5 F40.0 ;z move
G1 F600.0; feed for start of next move
G1 X-0.3 Y-0.3 F1200.0 ;horizontal move
G1 X-2.7 Y-2.7 ;horizontal move
G1 X-3.0 Y-3.0 F600.0 ;horizontal move
G4 P100 ;delay
G1 F1200.0; feed for start of next move
G1 E6.7; extruder dwell
G1 F600.0; feed for start of next move
G1 X-5.0 Y6.9 E16.8 F480.0 ;horizontal move
G1 Y7.0 E16.9 F305.8 ;horizontal move
G1 Y6.9 E17.0 F480.0 ;horizontal move
G1 Y-5.0 E28.9 ;horizontal move
G1 X17.0 E50.9 F600.0 ;horizontal move
G1 F1200.0; feed for start of next move
G1 E44.2; extruder retraction
G1 F600.0; feed for start of next move
G1 X16.7 Y-4.6 F1200.0 ;horizontal move
G1 X7.0 Y8.6 ;horizontal move
G1 X6.7 Y9.0 F600.0 ;horizontal move
G4 P100 ;delay
G1 F1200.0; feed for start of next move
G1 E50.9; extruder dwell
G1 F600.0; feed for start of next move
G1 X6.5 Y8.8 E51.1 F1080.0 ;horizontal move
G1 X0.6 Y1.3 E60.7 ;horizontal move
G1 X0.4 Y0.9 E61.1 F363.4 ;horizontal move
G1 Y1.4 E61.6 F1080.0 ;horizontal move
G1 X0.3 Y48.0 E108.2 ;horizontal move
G1 X0.4 E108.3 ;horizontal move
G1 X0.7 Y49.8 E110.2 ;horizontal move
G1 X1.2 Y52.0 E112.4 ;horizontal move
G1 X1.8 Y53.7 E114.2 ;horizontal move
G1 X2.5 Y55.2 E115.9 ;horizontal move
G1 X3.5 Y56.6 E117.6 ;horizontal move
G1 X4.7 Y57.8 E119.3 ;horizontal move
G1 X6.2 Y59.0 E121.2 ;horizontal move
G1 X7.9 Y59.9 E123.1 ;horizontal move
G1 X9.6 Y60.5 E124.9 ;horizontal move
G1 X9.7 E125.0 ;horizontal move
G1 X11.4 Y60.9 E126.8 ;horizontal move
G1 X13.2 Y61.0 E128.6 ;horizontal move
G1 X14.9 Y60.8 E130.3 ;horizontal move
G1 X15.0 E130.4 F1076.4 ;horizontal move
G1 X16.3 Y60.5 E131.7 F1080.0 ;horizontal move
G1 X16.4 E131.8 F1066.5 ;horizontal move
G1 X16.8 Y60.4 E132.3 F364.3 ;horizontal move
G1 X16.4 Y60.2 E132.7 F989.1 ;horizontal move
G1 X14.7 Y59.3 E134.6 F1080.0 ;horizontal move
G1 X13.9 Y58.7 E135.6 ;horizontal move
G1 X13.2 Y58.2 E136.5 ;horizontal move
G1 X12.8 Y57.7 E137.1 ;horizontal move
G1 X12.7 E137.2 F1072.4 ;horizontal move
G1 X12.4 Y57.2 E137.8 F1080.0 ;horizontal move
G1 Y57.1 E137.9 ;horizontal move
G1 X12.2 Y56.5 E138.5 ;horizontal move
G1 X12.1 Y55.9 E139.1 ;horizontal move
G1 Y55.2 E139.8 ;horizontal move
G1 Y55.1 E139.9 ;horizontal move
G1 X12.2 Y54.2 E140.9 ;horizontal move
G1 X12.4 Y53.6 E141.5 ;horizontal move
G1 X12.6 Y53.1 E142.0 ;horizontal move
G1 X13.1 Y51.9 E143.3 ;horizontal move
G1 X13.6 Y51.1 E144.3 ;horizontal move
G1 X14.2 Y50.4 E145.2 ;horizontal move
G1 X14.8 Y50.0 E145.9 ;horizontal move
G1 Y49.9 E146.0 F1058.7 ;horizontal move
G1 X15.7 Y49.6 E147.0 F1080.0 ;horizontal move
G1 X16.7 Y49.3 E148.0 ;horizontal move
G1 X18.4 Y49.0 E149.7 ;horizontal move
G1 X20.8 Y48.9 E152.1 ;horizontal move
G1 X22.5 Y49.0 E153.8 ;horizontal move
G1 X23.7 Y49.2 E155.0 ;horizontal move
G1 X24.6 Y49.5 E156.0 ;horizontal move
G1 X25.5 Y50.0 E157.0 ;horizontal move
G1 X26.4 Y50.7 E158.2 ;horizontal move
G1 X27.2 Y51.5 E159.3 ;horizontal move
G1 X28.0 Y52.6 E160.7 ;horizontal move
G1 X28.6 Y53.8 E162.0 ;horizontal move
G1 Y53.9 E162.1 ;horizontal move
G1 X28.9 Y55.1 E163.3 ;horizontal move
G1 X29.1 Y56.4 E164.7 ;horizontal move
G1 X29.0 Y57.7 E166.0 ;horizontal move
G1 X28.7 Y59.1 E167.4 ;horizontal move
G1 X28.3 Y60.1 E168.5 ;horizontal move
G1 X27.7 Y61.1 E169.6 ;horizontal move
G1 X26.6 Y62.4 E171.3 ;horizontal move
G1 X24.3 Y64.8 E174.7 ;horizontal move
G1 X22.2 Y67.4 E178.0 ;horizontal move
G1 X20.3 Y70.1 E181.3 ;horizontal move
G1 X19.2 Y71.9 E183.4 ;horizontal move
G1 X18.4 Y73.5 E185.2 ;horizontal move
G1 X17.9 Y75.0 E186.8 ;horizontal move
G1 X17.7 Y76.0 E187.8 ;horizontal move
G1 Y76.1 E187.9 F1073.7 ;horizontal move
G1 Y77.1 E188.9 F1080.0 ;horizontal move
G1 X17.8 Y77.9 E189.7 ;horizontal move
G1 X17.9 Y78.0 E189.8 F885.6 ;horizontal move
G1 X18.0 Y78.1 E190.0 F1078.8 ;horizontal move
G1 X18.2 Y78.2 E190.2 F804.2 ;horizontal move
G1 Y78.4 E190.4 F1080.0 ;horizontal move
G1 Y79.1 E191.1 ;horizontal move
G1 X18.1 E191.2 F1033.4 ;horizontal move
G1 X18.2 Y79.2 E191.4 F1080.0 ;horizontal move
G1 X18.4 Y79.7 E191.9 ;horizontal move
G1 X19.1 Y81.2 E193.5 ;horizontal move
G1 X20.1 Y82.8 E195.4 ;horizontal move
G1 X21.4 Y84.4 E197.5 ;horizontal move
G1 X22.9 Y85.8 E199.5 ;horizontal move
G1 X24.6 Y87.0 E201.6 ;horizontal move
G1 X26.3 Y87.9 E203.6 ;horizontal move
G1 X28.2 Y88.5 E205.5 ;horizontal move
G1 X30.2 Y88.9 E207.6 ;horizontal move
G1 X32.2 Y89.1 E209.6 ;horizontal move
G1 X34.2 Y88.9 E211.6 ;horizontal move
G1 X36.2 Y88.5 E213.6 ;horizontal move
G1 X38.3 Y87.8 E215.9 ;horizontal move
G1 X40.4 Y86.9 E218.1 ;horizontal move
G1 X43.0 Y85.5 E221.1 ;horizontal move
G1 X43.3 Y85.3 E221.5 F344.9 ;horizontal move
G1 X42.9 E221.9 F1080.0 ;horizontal move
G1 X40.7 Y85.2 E224.1 ;horizontal move
G1 X39.1 Y85.0 E225.7 ;horizontal move
G1 X37.9 Y84.7 E226.9 ;horizontal move
G1 X37.0 Y84.4 E227.9 ;horizontal move
G1 X36.3 Y84.0 E228.7 ;horizontal move
G1 X35.6 Y83.4 E229.6 ;horizontal move
G1 X35.1 Y82.6 E230.5 ;horizontal move
G1 X34.6 Y81.7 E231.6 ;horizontal move
G1 X34.2 Y80.7 E232.6 ;horizontal move
G1 X33.9 Y79.5 E233.9 ;horizontal move
G1 X33.8 Y78.8 E234.6 ;horizontal move
G1 X33.9 Y78.2 E235.2 ;horizontal move
G1 Y78.1 E235.3 F1077.7 ;horizontal move
G1 X34.0 Y76.9 E236.5 F1080.0 ;horizontal move
G1 X34.4 Y75.8 E237.7 ;horizontal move
G1 X34.9 Y74.8 E238.8 ;horizontal move
G1 X35.8 Y73.5 E240.4 ;horizontal move
G1 X36.9 Y72.4 E241.9 ;horizontal move
G1 X38.4 Y71.2 E243.8 ;horizontal move
G1 X40.2 Y70.2 E245.9 ;horizontal move
G1 X42.3 Y69.1 E248.3 ;horizontal move
G1 X43.6 Y68.7 E249.6 ;horizontal move
G1 X44.4 Y68.4 E250.5 ;horizontal move
G1 X44.5 E250.6 F1069.9 ;horizontal move
G1 X45.1 Y68.3 E251.2 F1080.0 ;horizontal move
G1 X45.8 Y68.4 E251.9 ;horizontal move
G1 X46.4 Y68.6 E252.5 ;horizontal move
G1 X46.8 Y68.8 E253.0 ;horizontal move
G1 X47.5 Y69.2 E253.8 ;horizontal move
G1 X48.0 Y69.6 E254.4 ;horizontal move
G1 X48.4 Y70.1 E255.1 ;horizontal move
G1 X48.7 Y70.6 E255.6 ;horizontal move
G1 X48.9 Y71.1 E256.2 ;horizontal move
G1 Y71.2 E256.3 F1052.5 ;horizontal move
G1 Y72.0 E257.1 F1080.0 ;horizontal move
G1 X49.0 Y73.0 E258.1 ;horizontal move
G1 X48.9 Y74.1 E259.2 ;horizontal move
G1 Y74.5 E259.6 F392.1 ;horizontal move
G1 X49.2 Y74.2 E260.0 F1080.0 ;horizontal move
G1 X50.2 Y73.4 E261.3 ;horizontal move
G1 X52.2 Y71.7 E263.9 ;horizontal move
G1 X53.8 Y70.0 E266.3 ;horizontal move
G1 X55.1 Y68.3 E268.4 ;horizontal move
G1 X56.2 Y66.4 E270.6 ;horizontal move
G1 X57.2 Y64.3 E272.9 ;horizontal move
G1 X58.0 Y62.0 E275.4 ;horizontal move
G1 X58.6 Y59.4 E278.0 ;horizontal move
G1 X59.0 Y56.7 E280.8 ;horizontal move
G1 X59.1 Y53.8 E283.7 ;horizontal move
G1 X58.9 Y51.0 E286.5 ;horizontal move
G1 X58.5 Y48.2 E289.3 ;horizontal move
G1 X57.7 Y45.4 E292.2 ;horizontal move
G1 X56.8 Y42.6 E295.1 ;horizontal move
G1 Y42.5 E295.2 ;horizontal move
G1 X55.5 Y39.7 E298.3 ;horizontal move
G1 X54.1 Y37.4 E301.0 ;horizontal move
G1 X52.5 Y35.1 E303.8 ;horizontal move
G1 X50.5 Y32.8 E306.9 ;horizontal move
G1 X48.4 Y30.7 E309.8 ;horizontal move
G1 X46.0 Y28.8 E312.9 ;horizontal move
G1 X43.6 Y27.1 E315.8 ;horizontal move
G1 X41.4 Y25.9 E318.4 ;horizontal move
G1 X39.1 Y24.9 E320.9 ;horizontal move
G1 X36.7 Y24.1 E323.4 ;horizontal move
G1 X34.2 Y23.6 E325.9 ;horizontal move
G1 X34.1 E326.0 F1077.2 ;horizontal move
G1 X31.6 Y23.3 E328.6 F1080.0 ;horizontal move
G1 X26.1 Y23.2 E334.1 ;horizontal move
G1 X24.3 Y23.0 E335.9 ;horizontal move
G1 X22.4 Y22.5 E337.8 ;horizontal move
G1 X20.6 Y21.7 E339.8 ;horizontal move
G1 X18.9 Y20.7 E341.8 ;horizontal move
G1 X17.1 Y19.4 E344.0 ;horizontal move
G1 X15.3 Y17.7 E346.5 ;horizontal move
G1 X12.8 Y15.2 E350.0 ;horizontal move
G1 X0.6 Y1.3 E368.5 ;horizontal move
G1 X0.4 Y0.9 E369.0 F300.5 ;horizontal move
G1 X0.6 Y1.3 E369.4 F1080.0 ;horizontal move
G1 X6.5 Y8.8 E378.9 ;horizontal move
G1 F1200.0; feed for start of next move
G1 E372.3; extruder retraction
G1 F600.0; feed for start of next move
G1 X6.7 Y9.0 F1200.0 ;horizontal move
G4 P100 ;delay
G1 E378.9; extruder dwell
G1 F600.0; feed for start of next move
G1 X12.4 Y15.6 E387.7 F480.1 ;horizontal move
G1 X14.9 Y18.2 E391.3 F480.4 ;horizontal move
G1 X16.7 Y19.8 E393.7 F480.5 ;horizontal move
G1 X18.5 Y21.2 E396.0 F480.7 ;horizontal move
G1 X20.4 Y22.3 E398.2 F480.9 ;horizontal move
G1 X21.0 Y22.5 E398.8 F488.4 ;horizontal move
G1 X57.9 Y59.5 E451.0 F480.0 ;horizontal move
G1 X58.0 E451.1 F442.6 ;horizontal move
G1 Y59.3 E451.3 F480.0 ;horizontal move
G1 X58.3 Y57.4 E453.3 F527.3 ;horizontal move
G1 X24.5 Y23.7 E501.0 F480.0 ;horizontal move
G1 Y23.6 E501.1 F364.1 ;horizontal move
G1 X26.0 Y23.8 E502.6 F480.0 ;horizontal move
G1 X27.1 E503.7 F513.6 ;horizontal move
G1 X58.4 Y55.2 E548.0 F480.0 ;horizontal move
G1 Y55.1 E548.1 ;horizontal move
G1 X58.5 Y53.8 E549.4 ;horizontal move
G1 X58.4 Y52.8 E550.5 F510.3 ;horizontal move
G1 X29.6 Y23.9 E591.3 F480.0 ;horizontal move
G1 X29.5 E591.4 F384.0 ;horizontal move
G1 X29.6 E591.5 F480.0 ;horizontal move
G1 X31.5 E593.4 ;horizontal move
G1 X32.0 Y24.0 E593.9 F507.4 ;horizontal move
G1 X58.1 Y50.1 E630.8 F480.0 ;horizontal move
G1 X58.2 E630.9 F357.4 ;horizontal move
G1 X57.9 Y48.3 E632.7 F480.0 ;horizontal move
G1 X57.6 Y47.1 E633.9 F496.7 ;horizontal move
G1 X34.8 Y24.3 E666.2 F480.0 ;horizontal move
G1 X36.5 Y24.7 E667.9 ;horizontal move
G1 X38.0 Y25.2 E669.5 F493.1 ;horizontal move
G1 X56.5 Y43.6 E695.6 F480.0 ;horizontal move
G1 X56.2 Y42.8 E696.5 ;horizontal move
G1 X54.9 Y40.0 E699.5 F480.5 ;horizontal move
G1 X54.5 Y39.2 E700.4 F484.2 ;horizontal move
G1 X42.4 Y27.2 E717.5 F600.0 ;horizontal move
G1 F1200.0; feed for start of next move
G1 E710.8; extruder retraction
G1 F600.0; feed for start of next move
G1 X42.2 Y27.6 F1200.0 ;horizontal move
G1 X29.7 Y54.7 ;horizontal move
G1 X29.5 Y55.1 F600.0 ;horizontal move
G4 P100 ;delay
G1 F1200.0; feed for start of next move
G1 E717.5; extruder dwell
G1 F600.0; feed for start of next move
G1 X42.7 Y68.3 E736.1 F480.0 ;horizontal move
G1 X42.1 Y68.6 E736.8 ;horizontal move
G1 X41.1 Y69.1 E737.9 F561.4 ;horizontal move
G1 X29.6 Y57.6 E754.2 F480.0 ;horizontal move
G1 Y57.8 E754.4 ;horizontal move
G1 X29.3 Y59.3 E755.9 F481.5 ;horizontal move
G1 X29.1 Y59.6 E756.3 F552.5 ;horizontal move
G1 X39.5 Y69.9 E770.9 F528.0 ;horizontal move
G1 X38.1 Y70.7 E772.5 F480.8 ;horizontal move
G1 X38.0 Y70.8 E772.7 F584.8 ;horizontal move
G1 X28.3 Y61.2 E786.3 F528.1 ;horizontal move
G1 X28.2 Y61.5 E786.6 F481.8 ;horizontal move
G1 X27.3 Y62.5 E788.0 F591.6 ;horizontal move
G1 X36.6 Y71.9 E801.2 F562.0 ;horizontal move
G1 X36.5 Y72.0 E801.3 F481.1 ;horizontal move
G1 X35.4 Y73.1 E802.9 F597.2 ;horizontal move
G1 X26.1 Y63.7 E816.1 F594.3 ;horizontal move
G1 X24.9 Y65.0 E817.9 F597.7 ;horizontal move
G1 X34.4 Y74.4 E831.3 F581.0 ;horizontal move
G1 Y74.5 E831.4 F481.6 ;horizontal move
G1 X33.8 Y75.6 E832.6 F481.3 ;horizontal move
G1 X33.7 Y76.1 E833.1 F480.0 ;horizontal move
G1 X23.8 Y66.3 E847.1 ;horizontal move
G1 X22.8 Y67.6 E848.7 F587.0 ;horizontal move
G1 X33.3 Y78.1 E863.5 F502.2 ;horizontal move
G1 X33.2 Y78.8 E864.3 F481.2 ;horizontal move
G1 X33.3 Y79.6 E865.1 F480.8 ;horizontal move
G1 X33.6 Y80.8 E866.3 F480.0 ;horizontal move
G1 X21.8 Y69.0 E883.0 ;horizontal move
G1 X20.8 Y70.4 E884.7 F480.2 ;horizontal move
G1 X37.7 Y87.4 E908.7 F480.0 ;horizontal move
G1 X36.1 Y87.9 E910.4 ;horizontal move
G1 X35.9 E910.6 F534.1 ;horizontal move
G1 X19.9 Y71.9 E933.2 F529.0 ;horizontal move
G1 X19.7 Y72.2 E933.5 F480.5 ;horizontal move
G1 X19.1 Y73.5 E935.0 F560.9 ;horizontal move
G1 X33.9 Y88.3 E955.9 F480.0 ;horizontal move
G1 X33.8 E956.0 ;horizontal move
G1 X32.2 Y88.5 E957.6 ;horizontal move
G1 X31.6 Y88.4 E958.2 F510.0 ;horizontal move
G1 X18.5 Y75.3 E976.7 F480.0 ;horizontal move
G1 Y75.4 E976.8 ;horizontal move
G1 X18.3 Y76.1 E977.6 ;horizontal move
G1 Y77.0 E978.5 F481.4 ;horizontal move
G1 X18.4 Y77.7 E979.2 F528.6 ;horizontal move
G1 X18.8 Y77.9 E979.6 F549.0 ;horizontal move
G1 Y78.1 E979.8 F519.9 ;horizontal move
G1 X28.7 Y88.0 E993.8 F480.0 ;horizontal move
G1 X28.8 E993.9 F350.2 ;horizontal move
G1 X28.7 E994.0 F480.0 ;horizontal move
G1 X28.4 E994.3 ;horizontal move
G1 X26.6 Y87.3 E996.3 F481.1 ;horizontal move
G1 X24.9 Y86.5 E998.1 F481.3 ;horizontal move
G1 X24.6 Y86.3 E998.5 F481.7 ;horizontal move
G1 X20.3 Y82.0 E1004.6 F600.0 ;horizontal move
G1 F1200.0; feed for start of next move
G1 E997.9; extruder retraction
G1 F600.0; feed for start of next move
G1 X20.7 Y82.1 F1200.0 ;horizontal move
G1 X37.7 Y85.3 ;horizontal move
G1 X38.1 Y85.4 F600.0 ;horizontal move
G4 P100 ;delay
G1 F1200.0; feed for start of next move
G1 E1004.6; extruder dwell
G1 F600.0; feed for start of next move
G1 X39.4 Y86.7 E1006.4 F556.5 ;horizontal move
G1 X40.2 Y86.3 E1007.3 F480.4 ;horizontal move
G1 X41.0 Y85.9 E1008.2 F515.1 ;horizontal move
G1 Y85.8 E1008.3 F600.0 ;horizontal move
G1 F1200.0; feed for start of next move
G1 E1001.6; extruder retraction
G1 F600.0; feed for start of next move
G1 X41.3 Y85.4 F1200.0 ;horizontal move
G1 X49.5 Y73.4 ;horizontal move
G1 X49.8 Y73.0 F600.0 ;horizontal move
G4 P100 ;delay
G1 F1200.0; feed for start of next move
G1 E1008.3; extruder dwell
G1 F600.0; feed for start of next move
G1 X49.6 Y72.8 E1008.6 F509.6 ;horizontal move
G1 X49.5 Y71.9 E1009.5 F480.0 ;horizontal move
G1 Y71.0 E1010.4 F486.9 ;horizontal move
G1 X49.2 Y70.3 E1011.2 F481.7 ;horizontal move
G1 X48.9 Y69.7 E1011.8 F480.9 ;horizontal move
G1 X48.6 Y69.4 E1012.3 F480.0 ;horizontal move
G1 X48.5 Y69.3 E1012.4 F301.9 ;horizontal move
G1 X48.6 Y69.4 E1012.5 F480.0 ;horizontal move
G1 X51.1 Y71.9 E1016.1 ;horizontal move
G1 X51.8 Y71.2 E1017.1 F480.4 ;horizontal move
G1 X52.3 Y70.7 E1017.8 F597.5 ;horizontal move
G1 X0.9 Y19.3 E1090.5 F515.1 ;horizontal move
G1 Y17.0 E1092.8 F480.0 ;horizontal move
G1 Y16.9 E1092.9 F387.9 ;horizontal move
G1 X1.0 Y17.0 E1093.0 F480.0 ;horizontal move
G1 X53.5 Y69.5 E1167.2 ;horizontal move
G1 X54.5 Y68.1 E1169.0 F584.9 ;horizontal move
G1 X0.9 Y14.5 E1244.8 F515.1 ;horizontal move
G1 Y12.2 E1247.1 F480.0 ;horizontal move
G1 Y12.1 E1247.2 F387.9 ;horizontal move
G1 X1.0 Y12.2 E1247.3 F480.0 ;horizontal move
G1 X55.4 Y66.6 E1324.2 ;horizontal move
G1 X55.7 Y66.1 E1324.8 F480.8 ;horizontal move
G1 X56.2 Y65.0 E1326.0 F557.9 ;horizontal move
G1 X0.9 Y9.7 E1404.2 F515.1 ;horizontal move
G1 Y7.4 E1406.5 F480.0 ;horizontal move
G1 Y7.3 E1406.6 F387.9 ;horizontal move
G1 X1.0 E1406.7 F480.0 ;horizontal move
G1 X56.9 Y63.3 E1485.9 ;horizontal move
G1 X57.4 Y61.8 E1487.4 ;horizontal move
G1 X57.5 Y61.5 E1487.8 F537.1 ;horizontal move
G1 X0.9 Y4.9 E1567.8 F515.1 ;horizontal move
G1 Y2.6 E1570.1 F480.0 ;horizontal move
G1 Y2.5 E1570.2 F374.6 ;horizontal move
G1 X1.0 Y2.6 E1570.4 F480.0 ;horizontal move
G1 X6.7 Y9.0 E1578.9 ;horizontal move
G1 F1200.0; feed for start of next move
G1 E1572.3; extruder retraction
G1 F600.0; feed for start of next move
G1 X6.5 Y9.4 F1200.0 ;horizontal move
G1 X1.1 Y21.3 ;horizontal move
G1 X0.9 Y21.7 F600.0 ;horizontal move
G4 P100 ;delay
G1 F1200.0; feed for start of next move
G1 E1578.9; extruder dwell
G1 F600.0; feed for start of next move
G1 X48.2 Y69.0 E1645.8 F480.0 ;horizontal move
G1 X48.3 Y69.1 E1646.0 F301.9 ;horizontal move
G1 X48.2 Y69.0 E1646.1 F480.0 ;horizontal move
G1 X47.8 Y68.7 E1646.6 ;horizontal move
G1 X47.1 Y68.3 E1647.4 F481.0 ;horizontal move
G1 X46.7 Y68.1 E1647.8 F480.1 ;horizontal move
G1 X45.9 Y67.8 E1648.7 F484.5 ;horizontal move
G1 X45.1 Y67.7 E1649.5 F482.1 ;horizontal move
G1 X44.6 Y67.8 E1650.0 F523.1 ;horizontal move
G1 X1.0 Y24.2 E1711.7 F480.0 ;horizontal move
G1 X0.9 Y24.1 E1711.8 F387.9 ;horizontal move
G1 Y24.2 E1711.9 F480.0 ;horizontal move
G1 Y26.6 E1714.3 ;horizontal move
G1 X22.8 Y48.4 E1745.2 ;horizontal move
G1 X22.5 E1745.5 ;horizontal move
G1 X20.8 Y48.3 E1747.2 F480.5 ;horizontal move
G1 X20.3 E1747.7 F518.8 ;horizontal move
G1 X1.0 Y29.0 E1775.0 F480.0 ;horizontal move
G1 X0.9 E1775.1 F387.9 ;horizontal move
G1 X1.0 Y31.4 E1777.5 F480.0 ;horizontal move
G1 X18.0 Y48.4 E1801.6 ;horizontal move
G1 X16.6 Y48.7 E1803.0 ;horizontal move
G1 X16.1 Y48.9 E1803.5 F547.3 ;horizontal move
G1 X1.0 Y33.8 E1824.9 F480.0 ;horizontal move
G1 X0.9 E1825.0 F387.9 ;horizontal move
G1 Y36.2 E1827.4 F480.0 ;horizontal move
G1 X14.3 Y49.6 E1846.3 F560.1 ;horizontal move
G1 X13.8 Y50.0 E1847.0 F482.0 ;horizontal move
G1 X13.1 Y50.7 E1848.0 F585.5 ;horizontal move
G1 X1.0 Y38.6 E1865.1 F480.0 ;horizontal move
G1 X0.9 E1865.2 F387.9 ;horizontal move
G1 X1.0 Y41.0 E1867.6 F480.0 ;horizontal move
G1 X12.3 Y52.3 E1883.6 F558.7 ;horizontal move
G1 X12.0 Y52.8 E1884.1 F480.7 ;horizontal move
G1 X11.8 Y53.5 E1884.9 F480.0 ;horizontal move
G1 X11.6 Y54.0 E1885.4 ;horizontal move
G1 X1.0 Y43.4 E1900.4 ;horizontal move
G1 Y45.8 E1902.8 ;horizontal move
G1 X11.6 Y56.4 E1917.8 F504.0 ;horizontal move
G1 Y56.7 E1918.1 F481.7 ;horizontal move
G1 X11.9 Y57.4 E1918.9 F483.4 ;horizontal move
G1 X12.3 Y58.0 E1919.6 F481.9 ;horizontal move
G1 X12.8 Y58.7 E1920.4 F482.7 ;horizontal move
G1 X13.5 Y59.2 E1921.3 F480.0 ;horizontal move
G1 X14.4 Y59.8 E1922.4 F481.0 ;horizontal move
G1 X15.0 Y60.1 E1923.1 F480.0 ;horizontal move
G1 Y60.2 E1923.2 F373.8 ;horizontal move
G1 X14.9 E1923.3 F480.0 ;horizontal move
G1 X13.2 Y60.4 E1925.0 F481.3 ;horizontal move
G1 X13.1 E1925.1 F511.5 ;horizontal move
G1 X1.0 Y48.3 E1942.2 F480.0 ;horizontal move
G1 Y48.2 E1942.3 F352.0 ;horizontal move
G1 Y48.3 E1942.4 F480.0 ;horizontal move
G1 X1.3 Y49.7 E1943.8 ;horizontal move
G1 X1.7 Y51.3 E1945.5 F497.9 ;horizontal move
G1 X10.4 Y60.1 E1957.8 F480.0 ;horizontal move
G1 X9.8 Y60.0 E1958.4 ;horizontal move
G1 X8.1 Y59.3 E1960.3 F481.4 ;horizontal move
G1 X6.6 Y58.5 E1962.0 F481.2 ;horizontal move
G1 X5.9 Y58.0 E1962.8 F481.1 ;horizontal move
G1 X3.6 Y55.6 E1966.2 F600.0 ;horizontal move
G1 F1200.0; feed for start of next move
G1 E1959.5; extruder retraction
G1 F600.0; feed for start of next move
M106 ;cooler on
G1 X3.2 F1200.0 ;horizontal move
G1 X-249.5 ;horizontal move
G1 X-250.0 F600.0 ;horizontal move
G92 X0 ;set x 0
G1 Y55.2 F1200.0 ;horizontal move
G1 Y-249.6 ;horizontal move
G1 Y-250.0 F600.0 ;horizontal move
G92 Y0 ;set y 0
G92 E0 ;zero the extruded length
;#!LAYER: 4/6
M107 ;cooler off
G4 P20 ;delay
G1 F40.0; feed for start of next move
G1 Z3.0 F67.8 ;z move
G1 Z3.5 F40.0 ;z move
G1 F600.0; feed for start of next move
G1 X-0.3 Y-0.3 F1200.0 ;horizontal move
G1 X-2.7 Y-2.7 ;horizontal move
G1 X-3.0 Y-3.0 F600.0 ;horizontal move
G4 P100 ;delay
G1 F1200.0; feed for start of next move
G1 E6.7; extruder dwell
G1 F600.0; feed for start of next move
G1 X-5.0 Y6.9 E16.8 F480.0 ;horizontal move
G1 Y7.0 E16.9 F305.8 ;horizontal move
G1 Y6.9 E17.0 F480.0 ;horizontal move
G1 Y-5.0 E28.9 ;horizontal move
G1 X17.0 E50.9 F600.0 ;horizontal move
G1 F1200.0; feed for start of next move
G1 E44.2; extruder retraction
G1 F600.0; feed for start of next move
G1 X17.2 Y-4.6 F1200.0 ;horizontal move
G1 X40.1 Y44.7 ;horizontal move
G1 X40.3 Y45.1 F600.0 ;horizontal move
G4 P100 ;delay
G1 F1200.0; feed for start of next move
G1 E50.9; extruder dwell
G1 F600.0; feed for start of next move
G1 X40.6 Y44.9 E51.2 F1080.0 ;horizontal move
G1 X50.9 Y34.5 E65.9 ;horizontal move
G1 X51.1 Y34.4 E66.1 F808.5 ;horizontal move
G1 X51.0 Y34.2 E66.3 F1080.0 ;horizontal move
G1 X50.6 Y32.9 E67.7 ;horizontal move
G1 X50.5 Y32.8 E67.8 F1028.9 ;horizontal move
G1 X48.4 Y30.7 E70.8 F1080.0 ;horizontal move
G1 X46.0 Y28.8 E73.8 ;horizontal move
G1 X43.6 Y27.1 E76.8 ;horizontal move
G1 X41.4 Y25.9 E79.3 ;horizontal move
G1 X39.1 Y24.9 E81.8 ;horizontal move
G1 X36.7 Y24.1 E84.3 ;horizontal move
G1 X34.2 Y23.6 E86.9 ;horizontal move
G1 X34.1 E87.0 F1077.2 ;horizontal move
G1 X31.6 Y23.3 E89.5 F1080.0 ;horizontal move
G1 X26.1 Y23.2 E95.0 ;horizontal move
G1 X24.3 Y23.0 E96.8 ;horizontal move
G1 X22.4 Y22.5 E98.8 ;horizontal move
G1 X20.6 Y21.7 E100.7 ;horizontal move
G1 X18.9 Y20.7 E102.7 ;horizontal move
G1 X17.1 Y19.4 E104.9 ;horizontal move
G1 X15.3 Y17.7 E107.4 ;horizontal move
G1 X12.8 Y15.2 E110.9 ;horizontal move
G1 X0.6 Y1.3 E129.4 ;horizontal move
G1 X0.4 Y0.9 E129.9 F374.6 ;horizontal move
G1 Y1.4 E130.4 F1080.0 ;horizontal move
G1 Y48.0 E177.0 ;horizontal move
G1 X0.6 Y49.5 E178.5 ;horizontal move
G1 X1.2 Y52.0 E181.1 ;horizontal move
G1 X1.8 Y53.7 E182.9 ;horizontal move
G1 X2.5 Y55.2 E184.5 ;horizontal move
G1 X3.5 Y56.6 E186.3 ;horizontal move
G1 X4.7 Y57.8 E187.9 ;horizontal move
G1 X6.2 Y59.0 E189.9 ;horizontal move
G1 X7.9 Y59.9 E191.8 ;horizontal move
G1 X9.6 Y60.5 E193.6 ;horizontal move
G1 X9.7 E193.7 ;horizontal move
G1 X11.4 Y60.9 E195.4 ;horizontal move
G1 X13.2 Y61.0 E197.2 ;horizontal move
G1 X14.9 Y60.8 E199.0 ;horizontal move
G1 X15.0 E199.1 F1076.4 ;horizontal move
G1 X16.4 Y60.5 E200.5 F1080.0 ;horizontal move
G1 X16.8 Y60.4 E200.9 F361.8 ;horizontal move
G1 X16.4 Y60.2 E201.3 F1000.5 ;horizontal move
G1 X14.7 Y59.3 E203.3 F1080.0 ;horizontal move
G1 X13.9 Y58.7 E204.3 ;horizontal move
G1 X13.4 Y58.3 E204.9 ;horizontal move
G1 X13.3 E205.0 F1070.8 ;horizontal move
G1 X12.7 Y57.7 E205.9 F1080.0 ;horizontal move
G1 X12.5 Y57.2 E206.4 ;horizontal move
G1 X12.3 Y56.7 E206.9 ;horizontal move
G1 Y56.6 E207.0 ;horizontal move
G1 X12.1 Y56.0 E207.7 ;horizontal move
G1 Y55.2 E208.5 ;horizontal move
G1 Y55.1 E208.6 F1070.7 ;horizontal move
G1 X12.2 Y54.3 E209.4 F1080.0 ;horizontal move
G1 X12.4 Y53.3 E210.4 ;horizontal move
G1 Y53.2 E210.5 F1027.4 ;horizontal move
G1 X12.5 E210.6 F1080.0 ;horizontal move
G1 X12.6 Y52.9 E210.9 ;horizontal move
G1 X13.1 Y51.9 E212.0 ;horizontal move
G1 X13.6 Y51.1 E213.0 ;horizontal move
G1 X14.2 Y50.4 E213.9 ;horizontal move
G1 X14.8 Y50.0 E214.6 ;horizontal move
G1 Y49.9 E214.7 F1058.7 ;horizontal move
G1 X15.7 Y49.6 E215.7 F1080.0 ;horizontal move
G1 X16.7 Y49.3 E216.7 ;horizontal move
G1 X18.4 Y49.0 E218.4 ;horizontal move
G1 X20.8 Y48.9 E220.8 ;horizontal move
G1 X22.5 Y49.0 E222.5 ;horizontal move
G1 X23.7 Y49.2 E223.8 ;horizontal move
G1 X24.6 Y49.5 E224.7 ;horizontal move
G1 X25.5 Y50.0 E225.7 ;horizontal move
G1 X26.4 Y50.7 E226.9 ;horizontal move
G1 X27.2 Y51.5 E228.0 ;horizontal move
G1 X28.0 Y52.6 E229.4 ;horizontal move
G1 X28.6 Y53.8 E230.7 ;horizontal move
G1 Y53.9 E230.8 ;horizontal move
G1 X28.9 Y55.1 E232.0 ;horizontal move
G1 X29.1 Y56.4 E233.4 ;horizontal move
G1 X29.0 Y57.7 E234.7 ;horizontal move
G1 X28.7 Y59.1 E236.1 ;horizontal move
G1 X28.3 Y60.1 E237.2 ;horizontal move
G1 X27.7 Y61.1 E238.3 ;horizontal move
G1 X26.6 Y62.4 E240.0 ;horizontal move
G1 X24.3 Y64.8 E243.4 ;horizontal move
G1 X22.2 Y67.4 E246.7 ;horizontal move
G1 X20.3 Y70.1 E250.0 ;horizontal move
G1 X19.2 Y71.9 E252.1 ;horizontal move
G1 X18.4 Y73.5 E253.9 ;horizontal move
G1 X17.9 Y75.0 E255.5 ;horizontal move
G1 X17.7 Y76.0 E256.5 ;horizontal move
G1 Y76.1 E256.6 F1073.7 ;horizontal move
G1 Y77.1 E257.6 F1080.0 ;horizontal move
G1 X17.9 Y78.2 E258.7 ;horizontal move
G1 X18.1 Y78.7 E259.3 ;horizontal move
G1 X18.4 Y79.7 E260.3 ;horizontal move
G1 X19.1 Y81.2 E262.0 ;horizontal move
G1 X20.1 Y82.8 E263.9 ;horizontal move
G1 X21.4 Y84.4 E265.9 ;horizontal move
G1 X22.9 Y85.8 E268.0 ;horizontal move
G1 X24.6 Y87.0 E270.0 ;horizontal move
G1 X26.3 Y87.9 E272.0 ;horizontal move
G1 X28.2 Y88.5 E274.0 ;horizontal move
G1 X30.2 Y88.9 E276.0 ;horizontal move
G1 X32.2 Y89.1 E278.0 ;horizontal move
G1 X34.2 Y88.9 E280.0 ;horizontal move
G1 X36.2 Y88.5 E282.1 ;horizontal move
G1 X38.3 Y87.8 E284.3 ;horizontal move
G1 X40.4 Y86.9 E286.6 ;horizontal move
G1 X42.8 Y85.6 E289.3 ;horizontal move
G1 X42.9 Y85.5 E289.4 ;horizontal move
G1 X43.3 Y85.3 E289.9 F338.7 ;horizontal move
G1 X42.9 E290.3 F1053.9 ;horizontal move
G1 X40.7 Y85.2 E292.5 F1080.0 ;horizontal move
G1 X39.1 Y85.0 E294.1 ;horizontal move
G1 X37.9 Y84.7 E295.3 ;horizontal move
G1 X37.0 Y84.4 E296.3 ;horizontal move
G1 X36.3 Y84.0 E297.1 ;horizontal move
G1 X35.7 Y83.5 E297.9 ;horizontal move
G1 X35.1 Y82.6 E298.9 ;horizontal move
G1 X34.6 Y81.7 E300.0 ;horizontal move
G1 X34.2 Y80.7 E301.1 ;horizontal move
G1 X33.9 Y79.5 E302.3 ;horizontal move
G1 X33.8 Y78.5 E303.3 ;horizontal move
G1 X33.9 Y78.1 E303.7 ;horizontal move
G1 X34.0 Y76.9 E304.9 ;horizontal move
G1 X34.4 Y75.8 E306.1 ;horizontal move
G1 X34.9 Y74.8 E307.2 ;horizontal move
G1 X35.8 Y73.5 E308.8 ;horizontal move
G1 X36.9 Y72.4 E310.3 ;horizontal move
G1 X38.4 Y71.2 E312.3 ;horizontal move
G1 X40.2 Y70.2 E314.3 ;horizontal move
G1 X42.3 Y69.1 E316.7 ;horizontal move
G1 X43.6 Y68.7 E318.0 ;horizontal move
G1 X44.4 Y68.4 E318.9 ;horizontal move
G1 X44.5 E319.0 F1068.9 ;horizontal move
G1 X45.0 Y68.3 E319.5 F1080.0 ;horizontal move
G1 X45.8 Y68.4 E320.3 ;horizontal move
G1 X46.3 Y68.6 E320.9 ;horizontal move
G1 X46.7 Y68.8 E321.3 ;horizontal move
G1 X46.8 E321.4 F1073.5 ;horizontal move
G1 X47.5 Y69.2 E322.2 F1080.0 ;horizontal move
G1 X47.9 Y69.5 E322.7 ;horizontal move
G1 X48.3 Y70.0 E323.4 ;horizontal move
G1 X48.6 Y70.5 E323.9 ;horizontal move
G1 X48.8 Y71.0 E324.5 ;horizontal move
G1 X48.9 E324.6 F1049.5 ;horizontal move
G1 Y71.1 E324.7 F1080.0 ;horizontal move
G1 Y72.0 E325.6 ;horizontal move
G1 X49.0 Y73.0 E326.6 ;horizontal move
G1 X48.9 Y74.1 E327.7 ;horizontal move
G1 Y74.4 E328.0 F727.3 ;horizontal move
G1 Y74.5 E328.1 F380.4 ;horizontal move
G1 X49.2 Y74.2 E328.5 F1080.0 ;horizontal move
G1 X50.2 Y73.4 E329.8 ;horizontal move
G1 X52.2 Y71.7 E332.4 ;horizontal move
G1 X53.8 Y70.0 E334.7 ;horizontal move
G1 X55.1 Y68.3 E336.9 ;horizontal move
G1 X56.2 Y66.4 E339.1 ;horizontal move
G1 X57.2 Y64.3 E341.4 ;horizontal move
G1 X58.0 Y62.0 E343.8 ;horizontal move
G1 X58.6 Y59.4 E346.5 ;horizontal move
G1 X59.0 Y56.7 E349.2 ;horizontal move
G1 X59.1 Y53.8 E352.1 ;horizontal move
G1 X58.9 Y51.0 E355.0 ;horizontal move
G1 X58.5 Y48.2 E357.8 ;horizontal move
G1 X57.7 Y45.4 E360.7 ;horizontal move
G1 X56.8 Y42.6 E363.6 ;horizontal move
G1 Y42.5 E363.7 ;horizontal move
G1 X55.5 Y39.7 E366.8 ;horizontal move
G1 X54.1 Y37.4 E369.5 ;horizontal move
G1 X52.5 Y35.1 E372.3 ;horizontal move
G1 X50.8 Y33.1 E374.9 ;horizontal move
G1 X50.5 Y32.8 E375.4 F550.7 ;horizontal move
G1 X50.3 Y33.1 E375.7 F1080.0 ;horizontal move
G1 X40.6 Y44.8 E390.9 ;horizontal move
G1 F1200.0; feed for start of next move
G1 E384.3; extruder retraction
G1 F600.0; feed for start of next move
G1 X40.3 Y45.1 F1200.0 ;horizontal move
G4 P100 ;delay
G1 E390.9; extruder dwell
G1 F600.0; feed for start of next move
G1 X29.6 Y55.8 E406.1 F525.0 ;horizontal move
G1 X29.7 Y56.4 E406.7 F481.5 ;horizontal move
G1 X29.6 Y57.8 E408.1 F481.9 ;horizontal move
G1 X29.5 Y58.3 E408.6 F480.0 ;horizontal move
G1 Y58.4 E408.7 F346.2 ;horizontal move
G1 Y58.3 E408.8 F480.0 ;horizontal move
G1 X52.2 Y35.7 E440.8 ;horizontal move
G1 X53.2 Y37.1 E442.5 F580.0 ;horizontal move
G1 X23.2 Y67.0 E484.9 F480.7 ;horizontal move
G1 X22.7 Y67.7 E485.7 F480.3 ;horizontal move
G1 X20.8 Y70.4 E489.0 F480.2 ;horizontal move
G1 X19.7 Y72.2 E491.2 F480.5 ;horizontal move
G1 X19.1 Y73.6 E492.7 F480.0 ;horizontal move
G1 X19.0 E492.8 F316.3 ;horizontal move
G1 X19.1 E492.9 F480.0 ;horizontal move
G1 X54.1 Y38.6 E542.4 ;horizontal move
G1 X54.9 Y40.0 E544.0 F480.5 ;horizontal move
G1 X55.0 Y40.1 E544.1 F558.2 ;horizontal move
G1 X18.3 Y76.7 E596.0 F514.4 ;horizontal move
G1 Y77.0 E596.3 F481.4 ;horizontal move
G1 X18.5 Y78.0 E597.3 F482.4 ;horizontal move
G1 X18.6 Y78.5 E597.8 F480.2 ;horizontal move
G1 X18.7 Y78.7 E598.0 F480.0 ;horizontal move
G1 X55.7 Y41.7 E650.3 ;horizontal move
G1 X56.2 Y42.8 E651.5 F480.5 ;horizontal move
G1 X56.4 Y43.4 E652.2 F548.0 ;horizontal move
G1 X19.4 Y80.5 E704.6 F560.0 ;horizontal move
G1 X19.6 Y80.9 E705.0 F480.9 ;horizontal move
G1 X20.3 Y82.0 E706.3 F535.3 ;horizontal move
G1 X57.1 Y45.2 E758.4 F480.0 ;horizontal move
G1 X57.2 Y45.5 E758.7 ;horizontal move
G1 X57.6 Y47.1 E760.3 F538.9 ;horizontal move
G1 X21.3 Y83.3 E811.6 F587.4 ;horizontal move
G1 X21.9 Y84.0 E812.5 F481.1 ;horizontal move
G1 X22.5 Y84.6 E813.4 F596.4 ;horizontal move
G1 X58.0 Y49.1 E863.6 F480.0 ;horizontal move
G1 X58.3 Y51.1 E865.6 ;horizontal move
G1 Y51.2 E865.7 F520.3 ;horizontal move
G1 X39.8 Y69.7 E891.9 F480.0 ;horizontal move
G1 X39.9 E892.0 ;horizontal move
G1 X42.1 Y68.6 E894.4 F480.7 ;horizontal move
G1 X43.4 Y68.1 E895.8 F480.1 ;horizontal move
G1 X44.0 Y67.9 E896.4 F493.9 ;horizontal move
G1 X58.4 Y53.5 E916.8 F480.0 ;horizontal move
G1 X58.5 Y53.4 E917.0 F400.8 ;horizontal move
G1 Y53.5 E917.1 F480.0 ;horizontal move
G1 Y53.8 E917.4 ;horizontal move
G1 X58.4 Y55.9 E919.5 F512.0 ;horizontal move
G1 X46.3 Y68.0 E936.6 F490.3 ;horizontal move
G1 X46.5 Y68.1 E936.8 F480.2 ;horizontal move
G1 X47.0 Y68.2 E937.3 F481.6 ;horizontal move
G1 X47.8 Y68.7 E938.2 F482.5 ;horizontal move
G1 X47.9 Y68.8 E938.4 F592.8 ;horizontal move
G1 X58.1 Y58.6 E952.8 F480.0 ;horizontal move
G1 X58.0 Y59.3 E953.5 ;horizontal move
G1 X57.4 Y61.7 E956.0 F497.8 ;horizontal move
G1 X49.0 Y70.1 E967.9 F566.1 ;horizontal move
G1 X49.1 Y70.2 E968.0 F480.2 ;horizontal move
G1 X49.4 Y70.9 E968.8 F487.6 ;horizontal move
G1 X49.5 Y71.9 E969.8 F480.0 ;horizontal move
G1 Y72.0 E969.9 F402.7 ;horizontal move
G1 X49.6 Y71.9 E970.0 F480.0 ;horizontal move
G1 X56.0 Y65.5 E979.1 ;horizontal move
G1 F1200.0; feed for start of next move
G1 E972.4; extruder retraction
G1 F600.0; feed for start of next move
G1 X55.6 Y65.7 F1200.0 ;horizontal move
G1 X34.2 Y75.5 ;horizontal move
G1 X33.8 Y75.7 F600.0 ;horizontal move
G4 P100 ;delay
G1 F1200.0; feed for start of next move
G1 E979.1; extruder dwell
G1 F600.0; feed for start of next move
G1 X23.8 Y85.7 E993.2 F549.9 ;horizontal move
G1 X24.9 Y86.5 E994.6 F481.3 ;horizontal move
G1 X25.2 Y86.6 E994.9 F562.8 ;horizontal move
G1 X33.2 Y78.7 E1006.1 F480.0 ;horizontal move
G1 X33.3 Y79.6 E1007.0 ;horizontal move
G1 X33.6 Y80.7 E1008.2 F535.9 ;horizontal move
G1 X26.9 Y87.4 E1017.7 F480.0 ;horizontal move
G1 X28.4 Y88.0 E1019.3 ;horizontal move
G1 X28.7 E1019.6 F533.5 ;horizontal move
G1 X34.3 Y82.4 E1027.5 F528.7 ;horizontal move
G1 X34.6 Y83.0 E1028.2 F480.3 ;horizontal move
G1 X35.3 Y83.8 E1029.2 F579.9 ;horizontal move
G1 X30.8 Y88.3 E1035.6 F480.0 ;horizontal move
G1 X30.7 Y88.4 E1035.7 F401.6 ;horizontal move
G1 X30.8 E1035.8 F480.0 ;horizontal move
G1 X32.2 Y88.5 E1037.2 ;horizontal move
G1 X33.1 Y88.4 E1038.1 F508.8 ;horizontal move
G1 X36.6 Y84.9 E1043.1 F570.1 ;horizontal move
G1 X36.7 E1043.2 F483.0 ;horizontal move
G1 X37.7 Y85.3 E1044.3 F480.2 ;horizontal move
G1 X38.4 Y85.4 E1045.0 F480.0 ;horizontal move
G1 X38.5 Y85.5 E1045.1 F447.2 ;horizontal move
G1 X36.0 Y87.9 E1048.6 F480.0 ;horizontal move
G1 X36.1 E1048.7 ;horizontal move
G1 X38.1 Y87.3 E1050.8 F480.6 ;horizontal move
G1 X39.8 Y86.5 E1052.6 F488.1 ;horizontal move
G1 X40.5 Y85.8 E1053.6 F600.0 ;horizontal move
G1 F1200.0; feed for start of next move
G1 E1047.0; extruder retraction
G1 F600.0; feed for start of next move
G1 X40.2 Y85.5 F1200.0 ;horizontal move
G1 X14.2 Y59.8 ;horizontal move
G1 X13.9 Y59.5 F600.0 ;horizontal move
G4 P100 ;delay
G1 F1200.0; feed for start of next move
G1 E1053.6; extruder dwell
G1 F600.0; feed for start of next move
G1 X13.1 Y60.4 E1054.8 F519.0 ;horizontal move
G1 X11.5 Y60.3 E1056.4 F481.5 ;horizontal move
G1 X10.9 Y60.2 E1057.1 F480.0 ;horizontal move
G1 X12.6 Y58.4 E1059.5 ;horizontal move
G1 X12.3 Y58.0 E1060.0 F483.8 ;horizontal move
G1 X11.9 Y57.5 E1060.7 F481.7 ;horizontal move
G1 X11.7 Y56.9 E1061.3 F480.0 ;horizontal move
G1 X9.0 Y59.6 E1065.1 ;horizontal move
G1 X8.1 Y59.3 E1066.1 F481.4 ;horizontal move
G1 X7.3 Y58.9 E1067.0 F517.7 ;horizontal move
G1 X11.5 Y54.7 E1072.9 F504.8 ;horizontal move
G1 X11.6 Y54.2 E1073.4 F480.3 ;horizontal move
G1 X11.9 Y52.9 E1074.7 F493.2 ;horizontal move
G1 X12.1 Y52.6 E1075.1 F483.5 ;horizontal move
G1 X12.6 Y51.7 E1076.1 F480.4 ;horizontal move
G1 X13.1 Y50.7 E1077.3 F483.0 ;horizontal move
G1 X13.3 Y50.5 E1077.5 F480.0 ;horizontal move
G1 X5.9 Y57.9 E1088.0 ;horizontal move
G1 X5.1 Y57.4 E1088.9 F481.3 ;horizontal move
G1 X4.6 Y56.8 E1089.7 F598.6 ;horizontal move
G1 X36.7 Y24.7 E1135.1 F480.0 ;horizontal move
G1 X36.5 E1135.3 ;horizontal move
G1 X34.7 Y24.3 E1137.2 F534.0 ;horizontal move
G1 X3.5 Y55.5 E1181.3 F550.7 ;horizontal move
G1 X3.0 Y54.9 E1182.1 F481.6 ;horizontal move
G1 X2.6 Y54.0 E1183.1 F561.4 ;horizontal move
G1 X32.6 Y24.0 E1225.5 F480.0 ;horizontal move
G1 X31.5 Y23.9 E1226.6 ;horizontal move
G1 X30.3 E1227.8 F516.7 ;horizontal move
G1 X1.9 Y52.3 E1267.9 F480.0 ;horizontal move
G1 X1.8 Y51.8 E1268.5 ;horizontal move
G1 X1.4 Y50.3 E1270.0 F536.3 ;horizontal move
G1 X27.9 Y23.9 E1307.4 F480.0 ;horizontal move
G1 X26.0 Y23.8 E1309.3 ;horizontal move
G1 X25.6 E1309.7 F525.9 ;horizontal move
G1 X1.0 Y48.3 E1344.4 F480.0 ;horizontal move
G1 Y48.4 E1344.5 F431.3 ;horizontal move
G1 Y48.3 E1344.6 F480.0 ;horizontal move
G1 Y48.0 E1344.9 ;horizontal move
G1 Y46.0 E1346.9 F515.1 ;horizontal move
G1 X23.5 Y23.4 E1378.8 F480.0 ;horizontal move
G1 X23.6 E1378.9 F452.2 ;horizontal move
G1 X23.5 E1379.0 F480.0 ;horizontal move
G1 X22.2 Y23.0 E1380.4 ;horizontal move
G1 X21.7 Y22.8 E1380.9 F555.8 ;horizontal move
G1 X1.0 Y43.6 E1410.3 F480.0 ;horizontal move
G1 X0.9 Y41.2 E1412.7 ;horizontal move
G1 X20.1 Y22.1 E1439.8 F524.3 ;horizontal move
G1 X18.6 Y21.2 E1441.5 F569.7 ;horizontal move
G1 X1.0 Y38.8 E1466.4 F480.0 ;horizontal move
G1 X0.9 E1466.5 F387.9 ;horizontal move
G1 Y36.4 E1468.9 F480.0 ;horizontal move
G1 X17.2 Y20.2 E1491.9 F557.0 ;horizontal move
G1 X16.7 Y19.8 E1492.5 F480.5 ;horizontal move
G1 X15.9 Y19.1 E1493.6 F593.7 ;horizontal move
G1 X1.0 Y34.0 E1514.7 F480.0 ;horizontal move
G1 X0.9 E1514.8 F387.9 ;horizontal move
G1 Y31.6 E1517.2 F480.0 ;horizontal move
G1 X14.6 Y17.9 E1536.5 F596.6 ;horizontal move
G1 X13.5 Y16.7 E1538.2 F591.6 ;horizontal move
G1 X1.0 Y29.2 E1555.8 F480.0 ;horizontal move
G1 X0.9 E1555.9 F387.9 ;horizontal move
G1 Y26.8 E1558.3 F480.0 ;horizontal move
G1 X12.3 Y15.4 E1574.5 F592.2 ;horizontal move
G1 X11.2 Y14.2 E1576.1 F580.6 ;horizontal move
G1 X1.0 Y24.4 E1590.5 F480.0 ;horizontal move
G1 X0.9 E1590.6 F387.9 ;horizontal move
G1 X1.0 Y22.0 E1593.0 F480.0 ;horizontal move
G1 X10.1 Y12.9 E1605.9 F592.2 ;horizontal move
G1 X8.9 Y11.6 E1607.6 F580.6 ;horizontal move
G1 X1.0 Y19.6 E1618.9 F480.0 ;horizontal move
G1 Y19.5 E1619.0 ;horizontal move
G1 X0.9 Y17.2 E1621.3 ;horizontal move
G1 X7.8 Y10.3 E1631.1 F592.2 ;horizontal move
G1 X6.7 Y9.0 E1632.8 F580.6 ;horizontal move
G1 X1.0 Y14.8 E1640.9 F480.0 ;horizontal move
G1 X0.9 E1641.0 F387.9 ;horizontal move
G1 Y14.7 E1641.1 F480.0 ;horizontal move
G1 Y12.4 E1643.4 ;horizontal move
G1 X5.6 Y7.8 E1650.0 F592.2 ;horizontal move
G1 X4.4 Y6.5 E1651.7 F580.6 ;horizontal move
G1 X1.0 Y9.9 E1656.5 F480.0 ;horizontal move
G1 X0.9 Y10.0 E1656.7 F387.9 ;horizontal move
G1 Y9.9 E1656.8 F480.0 ;horizontal move
G1 Y7.6 E1659.1 ;horizontal move
G1 X3.3 Y5.2 E1662.5 F592.2 ;horizontal move
G1 X2.2 Y3.9 E1664.2 F580.6 ;horizontal move
G1 X1.0 Y5.1 E1665.9 F480.0 ;horizontal move
G1 X0.9 Y5.2 E1666.0 F387.9 ;horizontal move
G1 Y5.1 E1666.1 F480.0 ;horizontal move
G1 X1.0 Y2.8 E1668.4 ;horizontal move
G1 X1.1 Y2.6 E1668.6 F600.0 ;horizontal move
G1 F1200.0; feed for start of next move
G1 E1662.0; extruder retraction
G1 F600.0; feed for start of next move
G1 X1.2 Y3.0 F1200.0 ;horizontal move
G1 X13.8 Y49.5 ;horizontal move
G1 X13.9 Y49.9 F600.0 ;horizontal move
G4 P100 ;delay
G1 F1200.0; feed for start of next move
G1 E1668.6; extruder dwell
G1 F600.0; feed for start of next move
G1 X38.5 Y25.3 E1703.4 F545.6 ;horizontal move
G1 X38.9 Y25.4 E1703.8 F480.6 ;horizontal move
G1 X40.2 Y26.0 E1705.3 F491.8 ;horizontal move
G1 X17.7 Y48.5 E1737.1 F480.0 ;horizontal move
G1 X17.8 E1737.2 ;horizontal move
G1 X18.3 Y48.4 E1737.7 ;horizontal move
G1 X20.3 Y48.3 E1739.7 F511.6 ;horizontal move
G1 X41.8 Y26.8 E1770.1 F567.9 ;horizontal move
G1 X43.3 Y27.7 E1771.9 F480.5 ;horizontal move
G1 X22.6 Y48.4 E1801.1 F480.0 ;horizontal move
G1 X23.9 Y48.6 E1802.5 ;horizontal move
G1 X24.6 Y48.9 E1803.2 F548.4 ;horizontal move
G1 X44.8 Y28.7 E1831.8 F578.5 ;horizontal move
G1 X45.6 Y29.2 E1832.7 F480.4 ;horizontal move
G1 X46.1 Y29.7 E1833.4 F569.7 ;horizontal move
G1 X26.1 Y49.7 E1861.7 F558.7 ;horizontal move
G1 X26.8 Y50.2 E1862.6 F481.4 ;horizontal move
G1 X27.4 Y50.8 E1863.4 F596.3 ;horizontal move
G1 X47.5 Y30.8 E1891.8 F587.9 ;horizontal move
G1 X48.0 Y31.2 E1892.4 F480.4 ;horizontal move
G1 X48.7 Y31.9 E1893.4 F595.1 ;horizontal move
G1 X28.4 Y52.2 E1922.1 F579.5 ;horizontal move
G1 X28.5 Y52.3 E1922.3 F481.8 ;horizontal move
G1 X29.1 Y53.6 E1923.7 F481.6 ;horizontal move
G1 X29.2 Y53.8 E1923.9 F480.0 ;horizontal move
G1 X49.9 Y33.1 E1953.2 ;horizontal move
G1 X50.1 Y33.2 E1953.4 F480.5 ;horizontal move
G1 X51.1 Y34.4 E1955.0 F600.0 ;horizontal move
G1 F1200.0; feed for start of next move
G1 E1948.3; extruder retraction
G1 F600.0; feed for start of next move
M106 ;cooler on
G1 X50.7 F1200.0 ;horizontal move
G1 X-249.6 ;horizontal move
G1 X-250.0 F600.0 ;horizontal move
G92 X0 ;set x 0
G1 Y33.9 F1200.0 ;horizontal move
G1 Y-249.5 ;horizontal move
G1 Y-250.0 F600.0 ;horizontal move
G92 Y0 ;set y 0
G92 E0 ;zero the extruded length
;#!LAYER: 5/6
M107 ;cooler off
G4 P20 ;delay
G1 F40.0; feed for start of next move
G1 Z4.0 F67.8 ;z move
G1 Z4.5 F40.0 ;z move
G1 F600.0; feed for start of next move
G1 X-0.3 Y-0.3 F1200.0 ;horizontal move
G1 X-2.7 Y-2.7 ;horizontal move
G1 X-3.0 Y-3.0 F600.0 ;horizontal move
G4 P100 ;delay
G1 F1200.0; feed for start of next move
G1 E6.7; extruder dwell
G1 F600.0; feed for start of next move
G1 X-5.0 Y6.9 E16.8 F480.0 ;horizontal move
G1 Y7.0 E16.9 F305.8 ;horizontal move
G1 Y6.9 E17.0 F480.0 ;horizontal move
G1 Y-5.0 E28.9 ;horizontal move
G1 X17.0 E50.9 F600.0 ;horizontal move
G1 F1200.0; feed for start of next move
G1 E44.2; extruder retraction
G1 F600.0; feed for start of next move
G1 X17.1 Y-4.6 F1200.0 ;horizontal move
G1 X38.7 Y85.6 ;horizontal move
G1 X38.8 Y86.0 F600.0 ;horizontal move
G4 P100 ;delay
G1 F1200.0; feed for start of next move
G1 E50.9; extruder dwell
G1 F600.0; feed for start of next move
G1 X39.0 Y86.2 E51.1 F1080.0 ;horizontal move
G1 X39.3 Y86.5 E51.6 ;horizontal move
G1 X39.4 Y86.7 E51.8 F773.8 ;horizontal move
G1 X39.6 Y86.6 E52.0 F1080.0 ;horizontal move
G1 X40.2 Y86.3 E52.7 ;horizontal move
G1 X41.0 Y85.9 E53.6 ;horizontal move
G1 X42.9 Y85.4 E55.6 ;horizontal move
G1 X43.3 Y85.3 E56.0 F308.1 ;horizontal move
G1 X42.9 E56.4 F1075.8 ;horizontal move
G1 X40.7 Y85.2 E58.6 F1080.0 ;horizontal move
G1 X39.1 Y85.0 E60.2 ;horizontal move
G1 X37.9 Y84.7 E61.4 ;horizontal move
G1 X37.0 Y84.4 E62.4 ;horizontal move
G1 X36.3 Y84.0 E63.2 ;horizontal move
G1 X35.6 Y83.4 E64.1 ;horizontal move
G1 X35.1 Y82.6 E65.0 ;horizontal move
G1 X34.6 Y81.7 E66.1 ;horizontal move
G1 X34.2 Y80.7 E67.1 ;horizontal move
G1 X33.9 Y79.5 E68.4 ;horizontal move
G1 X33.8 Y78.3 E69.6 ;horizontal move
G1 X33.9 Y78.0 E69.9 ;horizontal move
G1 X34.0 Y76.9 E71.0 ;horizontal move
G1 X34.4 Y75.8 E72.2 ;horizontal move
G1 X34.9 Y74.8 E73.3 ;horizontal move
G1 X35.8 Y73.5 E74.9 ;horizontal move
G1 X36.9 Y72.4 E76.4 ;horizontal move
G1 X38.4 Y71.2 E78.3 ;horizontal move
G1 X40.2 Y70.2 E80.4 ;horizontal move
G1 X42.3 Y69.1 E82.8 ;horizontal move
G1 X43.6 Y68.7 E84.1 ;horizontal move
G1 X44.4 Y68.4 E85.0 ;horizontal move
G1 X44.5 E85.1 F1069.9 ;horizontal move
G1 X45.1 Y68.3 E85.7 F1080.0 ;horizontal move
G1 X45.8 Y68.4 E86.4 ;horizontal move
G1 X46.4 Y68.6 E87.0 ;horizontal move
G1 X46.8 Y68.8 E87.5 ;horizontal move
G1 X47.5 Y69.2 E88.3 ;horizontal move
G1 X48.0 Y69.6 E88.9 ;horizontal move
G1 X48.4 Y70.1 E89.6 ;horizontal move
G1 X48.7 Y70.6 E90.2 ;horizontal move
G1 X48.9 Y71.1 E90.7 ;horizontal move
G1 Y71.2 E90.8 F1052.5 ;horizontal move
G1 Y72.0 E91.6 F1080.0 ;horizontal move
G1 X49.0 Y73.0 E92.6 ;horizontal move
G1 X48.9 Y74.1 E93.7 ;horizontal move
G1 Y74.5 E94.1 F392.1 ;horizontal move
G1 X49.2 Y74.2 E94.5 F1080.0 ;horizontal move
G1 X50.2 Y73.4 E95.8 ;horizontal move
G1 X52.2 Y71.7 E98.4 ;horizontal move
G1 X53.8 Y70.0 E100.8 ;horizontal move
G1 X55.1 Y68.3 E102.9 ;horizontal move
G1 X56.2 Y66.4 E105.1 ;horizontal move
G1 X57.2 Y64.3 E107.4 ;horizontal move
G1 X58.0 Y62.0 E109.9 ;horizontal move
G1 X58.6 Y59.4 E112.5 ;horizontal move
G1 X59.0 Y56.7 E115.3 ;horizontal move
G1 X59.1 Y53.8 E118.2 ;horizontal move
G1 X58.9 Y51.0 E121.0 ;horizontal move
G1 X58.5 Y48.2 E123.8 ;horizontal move
G1 X57.7 Y45.4 E126.7 ;horizontal move
G1 X56.8 Y42.6 E129.7 ;horizontal move
G1 Y42.5 E129.8 ;horizontal move
G1 X55.5 Y39.7 E132.8 ;horizontal move
G1 X54.1 Y37.4 E135.5 ;horizontal move
G1 X52.5 Y35.1 E138.3 ;horizontal move
G1 X50.5 Y32.8 E141.4 ;horizontal move
G1 X48.4 Y30.7 E144.4 ;horizontal move
G1 X46.0 Y28.8 E147.4 ;horizontal move
G1 X43.6 Y27.1 E150.4 ;horizontal move
G1 X41.4 Y25.9 E152.9 ;horizontal move
G1 X39.1 Y24.9 E155.4 ;horizontal move
G1 X36.7 Y24.1 E157.9 ;horizontal move
G1 X34.2 Y23.6 E160.5 ;horizontal move
G1 X34.1 E160.6 F1077.2 ;horizontal move
G1 X31.6 Y23.3 E163.1 F1080.0 ;horizontal move
G1 X26.1 Y23.2 E168.6 ;horizontal move
G1 X24.3 Y23.0 E170.4 ;horizontal move
G1 X22.4 Y22.5 E172.3 ;horizontal move
G1 X20.6 Y21.7 E174.3 ;horizontal move
G1 X18.9 Y20.7 E176.3 ;horizontal move
G1 X17.1 Y19.4 E178.5 ;horizontal move
G1 X15.3 Y17.7 E181.0 ;horizontal move
G1 X12.8 Y15.2 E184.5 ;horizontal move
G1 X0.6 Y1.3 E203.0 ;horizontal move
G1 X0.4 Y0.9 E203.5 F374.6 ;horizontal move
G1 Y1.4 E204.0 F1080.0 ;horizontal move
G1 X0.3 Y48.0 E250.6 ;horizontal move
G1 X0.4 E250.7 ;horizontal move
G1 X0.7 Y49.8 E252.5 ;horizontal move
G1 X1.2 Y52.0 E254.7 ;horizontal move
G1 X1.8 Y53.7 E256.5 ;horizontal move
G1 X2.5 Y55.2 E258.2 ;horizontal move
G1 X3.5 Y56.6 E259.9 ;horizontal move
G1 X4.7 Y57.8 E261.6 ;horizontal move
G1 X6.2 Y59.0 E263.5 ;horizontal move
G1 X7.9 Y59.9 E265.5 ;horizontal move
G1 X9.6 Y60.5 E267.3 ;horizontal move
G1 X9.7 E267.4 ;horizontal move
G1 X11.4 Y60.9 E269.1 ;horizontal move
G1 X13.2 Y61.0 E270.9 ;horizontal move
G1 X14.9 Y60.8 E272.6 ;horizontal move
G1 X15.0 E272.7 F1076.5 ;horizontal move
G1 X16.4 Y60.5 E274.2 F1080.0 ;horizontal move
G1 X16.8 Y60.4 E274.6 F361.8 ;horizontal move
G1 X16.4 Y60.2 E275.0 F1001.4 ;horizontal move
G1 X14.7 Y59.3 E276.9 F1080.0 ;horizontal move
G1 X13.9 Y58.7 E277.9 ;horizontal move
G1 X13.2 Y58.2 E278.8 ;horizontal move
G1 X12.8 Y57.7 E279.4 ;horizontal move
G1 X12.7 E279.5 F1072.4 ;horizontal move
G1 X12.4 Y57.2 E280.1 F1080.0 ;horizontal move
G1 Y57.1 E280.2 ;horizontal move
G1 X12.2 Y56.5 E280.9 ;horizontal move
G1 X12.1 Y55.9 E281.5 ;horizontal move
G1 Y55.2 E282.2 ;horizontal move
G1 Y55.1 E282.3 F1072.0 ;horizontal move
G1 X12.2 Y54.3 E283.1 F1080.0 ;horizontal move
G1 X12.4 Y53.3 E284.1 ;horizontal move
G1 Y53.2 E284.2 F1053.1 ;horizontal move
G1 X12.7 Y52.9 E284.6 F1080.0 ;horizontal move
G1 X13.1 Y51.9 E285.7 ;horizontal move
G1 X13.6 Y51.1 E286.6 ;horizontal move
G1 X14.2 Y50.4 E287.6 ;horizontal move
G1 X14.8 Y50.0 E288.3 ;horizontal move
G1 Y49.9 E288.4 F1058.7 ;horizontal move
G1 X15.7 Y49.6 E289.3 F1080.0 ;horizontal move
G1 X16.7 Y49.3 E290.4 ;horizontal move
G1 X18.4 Y49.0 E292.1 ;horizontal move
G1 X20.8 Y48.9 E294.5 ;horizontal move
G1 X22.5 Y49.0 E296.2 ;horizontal move
G1 X23.7 Y49.2 E297.4 ;horizontal move
G1 X24.6 Y49.5 E298.4 ;horizontal move
G1 X25.5 Y50.0 E299.4 ;horizontal move
G1 X26.4 Y50.7 E300.5 ;horizontal move
G1 X27.2 Y51.5 E301.7 ;horizontal move
G1 X28.0 Y52.6 E303.0 ;horizontal move
G1 X28.6 Y53.8 E304.4 ;horizontal move
G1 Y53.9 E304.5 ;horizontal move
G1 X28.9 Y55.1 E305.7 ;horizontal move
G1 X29.1 Y56.4 E307.0 ;horizontal move
G1 X29.0 Y57.7 E308.3 ;horizontal move
G1 X28.7 Y59.1 E309.8 ;horizontal move
G1 X28.3 Y60.1 E310.8 ;horizontal move
G1 X27.7 Y61.1 E312.0 ;horizontal move
G1 X26.6 Y62.4 E313.7 ;horizontal move
G1 X24.3 Y64.8 E317.0 ;horizontal move
G1 X22.2 Y67.4 E320.4 ;horizontal move
G1 X20.3 Y70.1 E323.7 ;horizontal move
G1 X19.2 Y71.9 E325.8 ;horizontal move
G1 X18.4 Y73.5 E327.6 ;horizontal move
G1 X17.9 Y75.0 E329.2 ;horizontal move
G1 X17.7 Y76.0 E330.2 ;horizontal move
G1 Y76.1 E330.3 F1073.7 ;horizontal move
G1 Y77.1 E331.3 F1080.0 ;horizontal move
G1 X17.9 Y78.2 E332.4 ;horizontal move
G1 X18.4 Y79.7 E334.0 ;horizontal move
G1 X19.1 Y81.2 E335.6 ;horizontal move
G1 X20.1 Y82.8 E337.5 ;horizontal move
G1 X21.4 Y84.4 E339.6 ;horizontal move
G1 X22.9 Y85.8 E341.6 ;horizontal move
G1 X24.6 Y87.0 E343.7 ;horizontal move
G1 X26.3 Y87.9 E345.6 ;horizontal move
G1 X28.2 Y88.5 E347.6 ;horizontal move
G1 X30.2 Y88.9 E349.7 ;horizontal move
G1 X32.2 Y89.1 E351.7 ;horizontal move
G1 X34.2 Y88.9 E353.7 ;horizontal move
G1 X36.2 Y88.5 E355.7 ;horizontal move
G1 X38.3 Y87.8 E357.9 ;horizontal move
G1 X40.4 Y86.9 E360.2 ;horizontal move
G1 X42.9 Y85.5 E363.1 ;horizontal move
G1 X43.3 Y85.3 E363.5 F326.1 ;horizontal move
G1 X42.9 Y85.4 E363.9 F1080.0 ;horizontal move
G1 X39.1 Y86.0 E367.8 ;horizontal move
G1 F1200.0; feed for start of next move
G1 E361.1; extruder retraction
G1 F600.0; feed for start of next move
G1 X38.8 F1200.0 ;horizontal move
G4 P100 ;delay
G1 E367.8; extruder dwell
G1 F600.0; feed for start of next move
G1 X38.1 Y85.4 E368.7 ;horizontal move
G1 F1200.0; feed for start of next move
G1 E362.0; extruder retraction
G1 F600.0; feed for start of next move
G1 X38.5 Y85.5 F1200.0 ;horizontal move
G1 X40.6 Y85.7 ;horizontal move
G1 X41.0 Y85.8 F600.0 ;horizontal move
G4 P100 ;delay
G1 F1200.0; feed for start of next move
G1 E368.7; extruder dwell
G1 F600.0; feed for start of next move
G1 Y85.9 E368.8 ;horizontal move
G1 F1200.0; feed for start of next move
G1 E362.1; extruder retraction
G1 F600.0; feed for start of next move
G1 X41.3 Y85.5 F1200.0 ;horizontal move
G1 X49.5 Y73.4 ;horizontal move
G1 X49.8 Y73.0 F600.0 ;horizontal move
G4 P100 ;delay
G1 F1200.0; feed for start of next move
G1 E368.8; extruder dwell
G1 F600.0; feed for start of next move
G1 X49.6 Y72.8 E369.1 F509.6 ;horizontal move
G1 X49.5 Y71.9 E370.0 F480.0 ;horizontal move
G1 Y71.0 E370.9 F486.9 ;horizontal move
G1 X49.2 Y70.3 E371.7 F481.7 ;horizontal move
G1 X48.9 Y69.7 E372.3 F480.9 ;horizontal move
G1 X48.6 Y69.4 E372.8 F480.0 ;horizontal move
G1 X48.5 Y69.3 E372.9 F301.9 ;horizontal move
G1 X48.6 Y69.4 E373.0 F480.0 ;horizontal move
G1 X51.1 Y71.9 E376.6 ;horizontal move
G1 X51.8 Y71.2 E377.6 F480.4 ;horizontal move
G1 X52.3 Y70.7 E378.3 F597.5 ;horizontal move
G1 X0.9 Y19.3 E451.0 F515.1 ;horizontal move
G1 Y17.0 E453.3 F480.0 ;horizontal move
G1 Y16.9 E453.4 F387.9 ;horizontal move
G1 X1.0 Y17.0 E453.5 F480.0 ;horizontal move
G1 X53.5 Y69.5 E527.8 ;horizontal move
G1 X54.5 Y68.1 E529.5 F584.9 ;horizontal move
G1 X0.9 Y14.5 E605.3 F515.1 ;horizontal move
G1 Y12.2 E607.6 F480.0 ;horizontal move
G1 Y12.1 E607.7 F387.9 ;horizontal move
G1 X1.0 Y12.2 E607.8 F480.0 ;horizontal move
G1 X55.4 Y66.6 E684.8 ;horizontal move
G1 X55.7 Y66.1 E685.3 F480.8 ;horizontal move
G1 X56.2 Y65.0 E686.5 F557.9 ;horizontal move
G1 X0.9 Y9.7 E764.7 F515.1 ;horizontal move
G1 Y7.4 E767.0 F480.0 ;horizontal move
G1 Y7.3 E767.1 F387.9 ;horizontal move
G1 X1.0 E767.2 F480.0 ;horizontal move
G1 X56.9 Y63.3 E846.4 ;horizontal move
G1 X57.4 Y61.8 E848.0 ;horizontal move
G1 X57.5 Y61.5 E848.3 F537.1 ;horizontal move
G1 X0.9 Y4.9 E928.3 F515.1 ;horizontal move
G1 Y2.6 E930.6 F480.0 ;horizontal move
G1 Y2.5 E930.7 F374.6 ;horizontal move
G1 X1.0 Y2.6 E930.9 F480.0 ;horizontal move
G1 X12.4 Y15.6 E948.1 ;horizontal move
G1 X14.9 Y18.2 E951.8 F480.4 ;horizontal move
G1 X16.7 Y19.8 E954.2 F480.5 ;horizontal move
G1 X18.5 Y21.2 E956.4 F480.7 ;horizontal move
G1 X20.4 Y22.3 E958.6 F480.9 ;horizontal move
G1 X21.0 Y22.5 E959.3 F488.4 ;horizontal move
G1 X57.9 Y59.5 E1011.5 F480.0 ;horizontal move
G1 X58.0 E1011.6 F442.6 ;horizontal move
G1 Y59.3 E1011.8 F480.0 ;horizontal move
G1 X58.3 Y57.4 E1013.7 F527.3 ;horizontal move
G1 X24.5 Y23.7 E1061.5 F480.0 ;horizontal move
G1 Y23.6 E1061.6 F364.1 ;horizontal move
G1 X26.0 Y23.8 E1063.1 F480.0 ;horizontal move
G1 X27.1 E1064.2 F513.6 ;horizontal move
G1 X58.4 Y55.2 E1108.5 F480.0 ;horizontal move
G1 Y55.1 E1108.6 ;horizontal move
G1 X58.5 Y53.8 E1109.9 ;horizontal move
G1 X58.4 Y52.8 E1110.9 F510.3 ;horizontal move
G1 X29.6 Y23.9 E1151.7 F480.0 ;horizontal move
G1 X29.5 E1151.8 F384.0 ;horizontal move
G1 X29.6 E1151.9 F480.0 ;horizontal move
G1 X31.5 E1153.8 ;horizontal move
G1 X32.0 Y24.0 E1154.3 F507.4 ;horizontal move
G1 X58.1 Y50.1 E1191.3 F480.0 ;horizontal move
G1 X58.2 E1191.4 F357.4 ;horizontal move
G1 X57.9 Y48.3 E1193.2 F480.0 ;horizontal move
G1 X57.6 Y47.1 E1194.4 F496.7 ;horizontal move
G1 X34.8 Y24.3 E1226.7 F480.0 ;horizontal move
G1 X36.5 Y24.7 E1228.4 ;horizontal move
G1 X38.0 Y25.2 E1230.0 F493.1 ;horizontal move
G1 X56.5 Y43.6 E1256.1 F480.0 ;horizontal move
G1 X56.2 Y42.8 E1256.9 ;horizontal move
G1 X54.9 Y40.0 E1260.0 F480.5 ;horizontal move
G1 X54.5 Y39.2 E1260.9 F484.2 ;horizontal move
G1 X42.4 Y27.2 E1278.0 F600.0 ;horizontal move
G1 F1200.0; feed for start of next move
G1 E1271.3; extruder retraction
G1 F600.0; feed for start of next move
G1 X42.2 Y27.6 F1200.0 ;horizontal move
G1 X29.7 Y54.7 ;horizontal move
G1 X29.5 Y55.1 F600.0 ;horizontal move
G4 P100 ;delay
G1 F1200.0; feed for start of next move
G1 E1278.0; extruder dwell
G1 F600.0; feed for start of next move
G1 X42.7 Y68.3 E1296.6 F480.0 ;horizontal move
G1 X42.1 Y68.6 E1297.3 ;horizontal move
G1 X41.1 Y69.1 E1298.4 F561.4 ;horizontal move
G1 X29.6 Y57.6 E1314.7 F480.0 ;horizontal move
G1 Y57.8 E1314.9 ;horizontal move
G1 X29.3 Y59.3 E1316.4 F481.5 ;horizontal move
G1 X29.1 Y59.6 E1316.8 F552.5 ;horizontal move
G1 X39.5 Y69.9 E1331.4 F528.0 ;horizontal move
G1 X38.1 Y70.7 E1333.0 F480.8 ;horizontal move
G1 X38.0 Y70.8 E1333.2 F584.8 ;horizontal move
G1 X28.3 Y61.2 E1346.8 F528.1 ;horizontal move
G1 X28.2 Y61.5 E1347.1 F481.8 ;horizontal move
G1 X27.3 Y62.5 E1348.5 F591.6 ;horizontal move
G1 X36.6 Y71.9 E1361.7 F562.0 ;horizontal move
G1 X36.5 Y72.0 E1361.8 F481.1 ;horizontal move
G1 X35.4 Y73.1 E1363.4 F597.2 ;horizontal move
G1 X26.1 Y63.7 E1376.6 F594.3 ;horizontal move
G1 X24.9 Y65.0 E1378.4 F597.7 ;horizontal move
G1 X34.4 Y74.4 E1391.7 F581.0 ;horizontal move
G1 Y74.5 E1391.8 F481.6 ;horizontal move
G1 X33.8 Y75.6 E1393.1 F481.3 ;horizontal move
G1 X33.7 Y76.1 E1393.6 F480.0 ;horizontal move
G1 X23.8 Y66.3 E1407.5 ;horizontal move
G1 X22.8 Y67.6 E1409.2 F587.0 ;horizontal move
G1 X33.2 Y78.1 E1424.0 F518.8 ;horizontal move
G1 Y78.3 E1424.2 F480.5 ;horizontal move
G1 X33.3 Y79.6 E1425.5 F481.7 ;horizontal move
G1 X33.6 Y80.8 E1426.7 F480.0 ;horizontal move
G1 X21.8 Y69.0 E1443.4 ;horizontal move
G1 X20.8 Y70.4 E1445.1 F480.2 ;horizontal move
G1 X37.7 Y87.4 E1469.1 F480.0 ;horizontal move
G1 X36.1 Y87.9 E1470.8 ;horizontal move
G1 X35.9 E1471.0 F534.1 ;horizontal move
G1 X19.9 Y71.9 E1493.6 F529.0 ;horizontal move
G1 X19.7 Y72.2 E1493.9 F480.5 ;horizontal move
G1 X19.1 Y73.5 E1495.4 F560.9 ;horizontal move
G1 X33.9 Y88.3 E1516.3 F480.0 ;horizontal move
G1 X33.8 E1516.4 ;horizontal move
G1 X32.2 Y88.5 E1518.0 ;horizontal move
G1 X31.6 Y88.4 E1518.6 F510.0 ;horizontal move
G1 X18.5 Y75.3 E1537.2 F480.0 ;horizontal move
G1 Y75.4 E1537.3 ;horizontal move
G1 X18.3 Y76.1 E1538.0 ;horizontal move
G1 Y77.0 E1538.9 F481.4 ;horizontal move
G1 X18.4 Y77.7 E1539.6 F503.9 ;horizontal move
G1 X28.7 Y88.0 E1554.2 F480.0 ;horizontal move
G1 X28.8 E1554.3 F350.2 ;horizontal move
G1 X28.7 E1554.4 F480.0 ;horizontal move
G1 X28.4 E1554.7 ;horizontal move
G1 X26.6 Y87.3 E1556.6 F481.1 ;horizontal move
G1 X24.9 Y86.5 E1558.5 F481.3 ;horizontal move
G1 X24.6 Y86.3 E1558.8 F481.7 ;horizontal move
G1 X20.3 Y82.0 E1564.9 F600.0 ;horizontal move
G1 F1200.0; feed for start of next move
G1 E1558.2; extruder retraction
G1 F600.0; feed for start of next move
G1 X20.1 Y81.6 F1200.0 ;horizontal move
G1 X3.8 Y56.0 ;horizontal move
G1 X3.6 Y55.6 F600.0 ;horizontal move
G4 P100 ;delay
G1 F1200.0; feed for start of next move
G1 E1564.9; extruder dwell
G1 F600.0; feed for start of next move
G1 X5.9 Y58.0 E1568.2 F481.1 ;horizontal move
G1 X6.6 Y58.5 E1569.1 F481.2 ;horizontal move
G1 X8.1 Y59.3 E1570.8 F481.4 ;horizontal move
G1 X9.8 Y60.0 E1572.6 F481.3 ;horizontal move
G1 X10.4 Y60.1 E1573.2 F480.0 ;horizontal move
G1 X1.7 Y51.3 E1585.6 ;horizontal move
G1 X1.3 Y49.7 E1587.3 F480.1 ;horizontal move
G1 X1.0 Y48.3 E1588.7 F480.0 ;horizontal move
G1 Y48.2 E1588.8 F352.0 ;horizontal move
G1 Y48.3 E1588.9 F480.0 ;horizontal move
G1 X13.1 Y60.4 E1606.0 ;horizontal move
G1 X13.2 E1606.1 F481.3 ;horizontal move
G1 X14.9 Y60.2 E1607.8 F480.9 ;horizontal move
G1 X15.0 E1607.9 F480.0 ;horizontal move
G1 Y60.1 E1608.0 ;horizontal move
G1 X14.4 Y59.8 E1608.7 ;horizontal move
G1 X13.5 Y59.2 E1609.8 ;horizontal move
G1 X12.8 Y58.7 E1610.6 F482.7 ;horizontal move
G1 X12.3 Y58.0 E1611.5 F481.9 ;horizontal move
G1 X11.9 Y57.4 E1612.2 F483.4 ;horizontal move
G1 X11.6 Y56.7 E1613.0 F481.7 ;horizontal move
G1 Y56.4 E1613.3 F504.0 ;horizontal move
G1 X1.0 Y45.8 E1628.3 F515.1 ;horizontal move
G1 Y43.4 E1630.7 F480.0 ;horizontal move
G1 X11.6 Y54.1 E1645.7 ;horizontal move
G1 Y54.0 E1645.8 ;horizontal move
G1 X11.9 Y53.0 E1646.9 ;horizontal move
G1 X12.1 Y52.6 E1647.3 F480.7 ;horizontal move
G1 X12.3 Y52.3 E1647.7 F560.1 ;horizontal move
G1 X1.0 Y41.0 E1663.7 F515.1 ;horizontal move
G1 X0.9 Y38.6 E1666.1 F480.0 ;horizontal move
G1 X1.0 E1666.2 ;horizontal move
G1 X13.1 Y50.7 E1683.3 ;horizontal move
G1 X13.8 Y50.0 E1684.3 F482.0 ;horizontal move
G1 X14.3 Y49.6 E1684.9 F560.1 ;horizontal move
G1 X0.9 Y36.2 E1703.9 F515.1 ;horizontal move
G1 Y33.8 E1706.3 F480.0 ;horizontal move
G1 X1.0 E1706.4 ;horizontal move
G1 X16.1 Y48.9 E1727.7 ;horizontal move
G1 X16.6 Y48.7 E1728.2 F481.6 ;horizontal move
G1 X18.0 Y48.4 E1729.7 F480.0 ;horizontal move
G1 X0.9 Y31.4 E1753.8 ;horizontal move
G1 X1.0 E1753.9 F515.1 ;horizontal move
G1 X0.9 Y29.0 E1756.3 F480.0 ;horizontal move
G1 X1.0 E1756.4 ;horizontal move
G1 X20.3 Y48.3 E1783.7 ;horizontal move
G1 X20.8 E1784.2 F480.5 ;horizontal move
G1 X22.5 Y48.4 E1785.9 F481.2 ;horizontal move
G1 X22.8 E1786.2 F480.0 ;horizontal move
G1 X0.9 Y26.6 E1817.1 ;horizontal move
G1 Y24.2 E1819.5 ;horizontal move
G1 Y24.1 E1819.6 F387.9 ;horizontal move
G1 X1.0 Y24.2 E1819.7 F480.0 ;horizontal move
G1 X44.6 Y67.8 E1881.4 ;horizontal move
G1 X45.1 Y67.7 E1881.9 F482.1 ;horizontal move
G1 X45.9 Y67.8 E1882.7 F484.5 ;horizontal move
G1 X46.7 Y68.1 E1883.6 F480.1 ;horizontal move
G1 X47.1 Y68.3 E1884.0 F481.0 ;horizontal move
G1 X47.8 Y68.7 E1884.8 F481.1 ;horizontal move
G1 X48.2 Y69.0 E1885.3 F480.0 ;horizontal move
G1 X48.3 Y69.1 E1885.5 F301.9 ;horizontal move
G1 X48.2 Y69.0 E1885.6 F480.0 ;horizontal move
G1 X1.0 Y21.7 E1952.4 ;horizontal move
G1 X0.9 E1952.5 F600.0 ;horizontal move
G1 F1200.0; feed for start of next move
G1 E1945.9; extruder retraction
G1 F600.0; feed for start of next move
M106 ;cooler on
G1 X0.5 F1200.0 ;horizontal move
G1 X-249.5 ;horizontal move
G1 X-250.0 F600.0 ;horizontal move
G92 X0 ;set x 0
G1 Y21.3 F1200.0 ;horizontal move
G1 Y-249.5 ;horizontal move
G1 Y-250.0 F600.0 ;horizontal move
G92 Y0 ;set y 0
G92 E0 ;zero the extruded length
;#!LAYER: 6/6
M107 ;cooler off
G1 F40.0; feed for start of next move
G1 Z5.0 F67.8 ;z move
G1 Z5.5 F40.0 ;z move
G1 F600.0; feed for start of next move
G1 X-0.3 Y-0.3 F1200.0 ;horizontal move
G1 X-2.7 Y-2.7 ;horizontal move
G1 X-3.0 Y-3.0 F600.0 ;horizontal move
G4 P100 ;delay
G1 F1200.0; feed for start of next move
G1 E6.7; extruder dwell
G1 F600.0; feed for start of next move
G1 X-5.0 Y6.9 E16.8 F480.0 ;horizontal move
G1 Y7.0 E16.9 F305.8 ;horizontal move
G1 Y6.9 E17.0 F480.0 ;horizontal move
G1 Y-5.0 E28.9 ;horizontal move
G1 X17.0 E50.9 F600.0 ;horizontal move
G1 F1200.0; feed for start of next move
G1 E44.2; extruder retraction
G1 F600.0; feed for start of next move
G1 X17.1 Y-4.6 F1200.0 ;horizontal move
G1 X24.2 Y36.4 ;horizontal move
G1 X24.3 Y36.8 F600.0 ;horizontal move
G4 P100 ;delay
G1 F1200.0; feed for start of next move
G1 E50.9; extruder dwell
G1 F600.0; feed for start of next move
G1 X24.7 E51.3 F1080.0 ;horizontal move
G1 X33.9 Y36.2 E60.5 ;horizontal move
G1 X34.4 Y36.1 E61.0 F345.8 ;horizontal move
G1 X34.1 Y36.0 E61.3 F897.8 ;horizontal move
G1 X33.9 Y35.9 E61.5 F400.8 ;horizontal move
G1 X34.0 Y36.3 E61.9 F1080.0 ;horizontal move
G1 X34.1 Y36.4 E62.1 ;horizontal move
G1 X34.2 Y36.7 E62.4 F663.0 ;horizontal move
G1 X34.3 Y36.6 E62.5 F897.6 ;horizontal move
G1 X34.4 E62.6 F872.4 ;horizontal move
G1 Y36.4 E62.8 F1080.0 ;horizontal move
G1 Y36.3 E62.9 F1002.7 ;horizontal move
G1 Y36.1 E63.1 F715.4 ;horizontal move
G1 X34.1 Y36.2 E63.5 F1080.0 ;horizontal move
G1 X24.7 Y36.8 E72.9 ;horizontal move
G1 F1200.0; feed for start of next move
G1 E66.2; extruder retraction
G1 F600.0; feed for start of next move
G1 X24.3 F1200.0 ;horizontal move
G4 P100 ;delay
G1 E72.9; extruder dwell
G1 F600.0; feed for start of next move
G1 X24.7 E73.3 F1080.0 ;horizontal move
G1 X47.7 Y35.9 E96.3 ;horizontal move
G1 X48.1 E96.7 F380.3 ;horizontal move
G1 X47.8 Y35.6 E97.1 F1080.0 ;horizontal move
G1 Y35.5 E97.2 F1053.8 ;horizontal move
G1 X47.7 E97.3 F1080.0 ;horizontal move
G1 X47.6 E97.4 ;horizontal move
G1 X47.5 Y35.4 E97.6 F911.2 ;horizontal move
G1 X47.4 Y35.5 E97.7 F1080.0 ;horizontal move
G1 X46.9 Y35.8 E98.3 ;horizontal move
G1 X46.8 E98.4 F918.0 ;horizontal move
G1 X46.6 E98.6 F1080.0 ;horizontal move
G1 X44.9 Y35.1 E100.4 ;horizontal move
G1 X44.8 E100.5 ;horizontal move
G1 X42.9 Y34.7 E102.5 ;horizontal move
G1 X41.1 Y34.6 E104.3 ;horizontal move
G1 X39.7 Y34.7 E105.7 ;horizontal move
G1 X38.7 Y34.9 E106.7 ;horizontal move
G1 X38.6 E106.8 F1072.7 ;horizontal move
G1 X37.5 Y35.4 E108.0 F1080.0 ;horizontal move
G1 X37.0 Y35.6 E108.5 ;horizontal move
G1 X36.7 Y35.8 E108.9 ;horizontal move
G1 X36.4 Y36.0 E109.3 ;horizontal move
G1 X36.1 Y36.4 E109.8 ;horizontal move
G1 Y36.6 E110.0 ;horizontal move
G1 Y36.7 E110.1 ;horizontal move
G1 Y36.9 E110.3 ;horizontal move
G1 Y37.3 E110.7 ;horizontal move
G1 Y37.4 E110.8 ;horizontal move
G1 X36.3 Y37.7 E111.1 ;horizontal move
G1 X36.4 Y38.0 E111.4 ;horizontal move
G1 X36.8 Y38.5 E112.1 ;horizontal move
G1 X37.5 Y39.1 E113.0 ;horizontal move
G1 X38.6 Y40.0 E114.4 ;horizontal move
G1 X39.1 Y40.3 E115.0 ;horizontal move
G1 X40.5 Y41.1 E116.6 ;horizontal move
G1 X41.9 Y41.6 E118.1 ;horizontal move
G1 X42.7 Y41.7 E118.9 ;horizontal move
G1 X43.1 Y41.8 E119.3 F335.5 ;horizontal move
G1 X42.9 Y41.6 E119.6 F825.9 ;horizontal move
G1 X42.7 Y41.5 E119.8 F336.9 ;horizontal move
G1 X43.2 Y41.6 E120.3 F1080.0 ;horizontal move
G1 X44.6 Y41.8 E121.8 ;horizontal move
G1 X44.8 Y41.9 E122.0 F840.5 ;horizontal move
G1 X45.0 Y41.8 E122.2 F444.7 ;horizontal move
G1 X44.6 Y41.6 E122.7 F1080.0 ;horizontal move
G1 Y41.5 E122.8 F1022.1 ;horizontal move
G1 X44.5 E122.9 F1080.0 ;horizontal move
G1 X44.0 E123.4 ;horizontal move
G1 X43.0 E124.4 ;horizontal move
G1 X42.1 Y41.1 E125.3 ;horizontal move
G1 X40.9 Y40.5 E126.7 ;horizontal move
G1 X40.4 Y40.2 E127.3 ;horizontal move
G1 X39.2 Y39.4 E128.7 ;horizontal move
G1 X38.4 Y38.8 E129.7 ;horizontal move
G1 X38.0 Y38.3 E130.3 ;horizontal move
G1 X37.7 Y37.9 E130.8 ;horizontal move
G1 X37.5 Y37.7 E131.1 ;horizontal move
G1 X37.4 Y37.6 E131.3 F923.0 ;horizontal move
G1 Y37.4 E131.5 F1080.0 ;horizontal move
G1 Y37.2 E131.7 ;horizontal move
G1 Y37.1 E131.8 F960.9 ;horizontal move
G1 X37.3 Y36.9 E132.0 F1080.0 ;horizontal move
G1 X37.1 Y36.7 E132.3 F769.5 ;horizontal move
G1 X37.2 Y36.5 E132.5 F1080.0 ;horizontal move
G1 X37.5 Y36.1 E133.0 ;horizontal move
G1 Y36.0 E133.1 F1026.0 ;horizontal move
G1 X37.6 E133.2 F1080.0 ;horizontal move
G1 X38.0 Y35.8 E133.6 ;horizontal move
G1 X38.4 Y35.5 E134.1 ;horizontal move
G1 X38.7 Y35.4 E134.5 ;horizontal move
G1 Y35.3 E134.6 F1079.7 ;horizontal move
G1 X39.4 Y35.1 E135.3 F1080.0 ;horizontal move
G1 X40.2 Y34.9 E136.1 ;horizontal move
G1 X41.1 Y35.0 E137.0 ;horizontal move
G1 X42.2 E138.1 ;horizontal move
G1 X42.3 E138.2 F1076.5 ;horizontal move
G1 X43.4 Y35.2 E139.3 F1080.0 ;horizontal move
G1 X45.0 Y35.8 E141.0 ;horizontal move
G1 X45.8 Y36.1 E141.9 ;horizontal move
G1 X46.0 Y36.3 E142.2 ;horizontal move
G1 Y36.4 E142.3 F950.3 ;horizontal move
G1 X46.1 Y36.3 E142.4 F1080.0 ;horizontal move
G1 X46.4 E142.7 ;horizontal move
G1 X46.8 E143.1 ;horizontal move
G1 X47.4 Y36.2 E143.7 ;horizontal move
G1 X47.7 E144.0 ;horizontal move
G1 X47.9 E144.2 F887.3 ;horizontal move
G1 Y36.1 E144.3 F1007.5 ;horizontal move
G1 X48.1 Y35.9 E144.6 F416.0 ;horizontal move
G1 X47.7 E145.0 F1080.0 ;horizontal move
G1 X24.7 Y36.8 E168.0 ;horizontal move
G1 F1200.0; feed for start of next move
G1 E161.4; extruder retraction
G1 F600.0; feed for start of next move
G1 X24.3 F1200.0 ;horizontal move
G1 F600.0; feed for start of next move
G1 Y37.2 F1200.0 ;horizontal move
G1 X24.5 Y39.8 ;horizontal move
G1 Y40.2 F600.0 ;horizontal move
G4 P100 ;delay
G1 F1200.0; feed for start of next move
G1 E168.0; extruder dwell
G1 F600.0; feed for start of next move
G1 X24.4 Y39.9 E168.3 F1080.0 ;horizontal move
G1 Y39.4 E168.8 ;horizontal move
G1 Y39.3 E168.9 ;horizontal move
G1 Y39.2 E169.0 F898.5 ;horizontal move
G1 X24.5 Y39.1 E169.2 F1043.6 ;horizontal move
G1 Y39.0 E169.3 F907.1 ;horizontal move
G1 Y38.9 E169.4 F1080.0 ;horizontal move
G1 Y38.7 E169.6 ;horizontal move
G1 Y38.4 E169.9 F646.0 ;horizontal move
G1 X24.4 E170.0 F642.1 ;horizontal move
G1 Y38.0 E170.4 F1080.0 ;horizontal move
G1 X24.3 Y37.2 E171.2 ;horizontal move
G1 Y36.9 E171.5 F633.9 ;horizontal move
G1 X24.6 Y36.8 E171.8 F1080.0 ;horizontal move
G1 X32.4 Y35.6 E179.7 ;horizontal move
G1 X32.8 Y35.5 E180.1 F329.6 ;horizontal move
G1 X32.6 E180.3 F800.2 ;horizontal move
G1 X32.4 Y35.4 E180.5 F1080.0 ;horizontal move
G1 X31.5 Y35.1 E181.5 ;horizontal move
G1 X30.5 Y34.8 E182.5 ;horizontal move
G1 X28.0 Y34.5 E185.1 ;horizontal move
G1 X24.6 Y34.4 E188.5 ;horizontal move
G1 X24.5 E188.6 F1057.5 ;horizontal move
G1 X24.1 Y34.2 E189.0 F1080.0 ;horizontal move
G1 X24.0 E189.1 F1030.7 ;horizontal move
G1 X23.8 E189.3 F1080.0 ;horizontal move
G1 X23.7 E189.4 ;horizontal move
G1 X23.4 Y34.3 E189.7 F442.4 ;horizontal move
G1 X23.5 Y34.5 E189.9 F822.5 ;horizontal move
G1 Y34.7 E190.1 F1080.0 ;horizontal move
G1 Y36.2 E191.6 ;horizontal move
G1 X23.6 Y37.3 E192.7 ;horizontal move
G1 X23.8 Y39.4 E194.9 ;horizontal move
G1 X23.9 Y41.1 E196.6 ;horizontal move
G1 X23.8 Y41.7 E197.2 ;horizontal move
G1 Y42.1 E197.6 F416.6 ;horizontal move
G1 X23.9 Y42.0 E197.7 F700.3 ;horizontal move
G1 X24.2 E198.0 F1080.0 ;horizontal move
G1 X25.7 Y42.2 E199.5 ;horizontal move
G1 X27.3 Y42.3 E201.1 ;horizontal move
G1 X28.9 Y42.1 E202.7 ;horizontal move
